(G-CODE GENERATED BY FLATCAM v8.994 - www.flatcam.org - Version Date: 2020/11/7)

(Name: Stm32_Bluepill Breakout-Edge_Cuts.gbr_cutout_1_cnc)
(Type: G-code from Geometry)
(Units: MM)

(Created on Wednesday, 07 August 2024 at 22:27)

(This preprocessor is the default preprocessor used by FlatCAM.)
(It is made to work with MACH3 compatible motion controllers.)

(TOOL DIAMETER: 0.8 mm)
(Feedrate_XY: 120.0 mm/min)
(Feedrate_Z: 60.0 mm/min)
(Feedrate rapids 1500.0 mm/min)

(Z_Cut: -1.8 mm)
(DepthPerCut: 0.4 mm <=>5 passes)
(Z_Move: 2.0 mm)
(Z Start: None mm)
(Z End: 15.0 mm)
(X,Y End: None mm)
(Steps per circle: 64)
(Preprocessor Geometry: default)

(X range:   -0.5000 ...   41.7000  mm)
(Y range:   -0.5000 ...   28.0000  mm)

(Spindle Speed: 0.0 RPM)
G21
G90
G94

G01 F120.00

M5
G00 Z15.0000
G00 X0.0000 Y0.0000
T1
M6    
(MSG, Change to Tool Dia = 0.800)
M0
G00 Z15.0000

M03
G01 F120.00
G00 X18.0851 Y27.9939
G01 F60.00
G01 Z-0.4000
G01 F120.00
G01 X18.0950 Y27.9924
G01 X18.1442 Y27.9824
G01 X18.1539 Y27.9799
G01 X18.2019 Y27.9650
G01 X18.2113 Y27.9615
G01 X18.2575 Y27.9419
G01 X18.2665 Y27.9375
G01 X18.3105 Y27.9133
G01 X18.3191 Y27.9080
G01 X18.3605 Y27.8796
G01 X18.3880 Y27.8577
G01 X28.7201 Y19.1000
G01 X41.1000 Y19.1000
G01 X41.1343 Y19.0990
G01 X41.1832 Y19.0942
G01 X41.1929 Y19.0927
G01 X41.2410 Y19.0831
G01 X41.2505 Y19.0808
G01 X41.2975 Y19.0665
G01 X41.3067 Y19.0632
G01 X41.3521 Y19.0444
G01 X41.3609 Y19.0402
G01 X41.4042 Y19.0171
G01 X41.4126 Y19.0121
G01 X41.4534 Y18.9848
G01 X41.4613 Y18.9789
G01 X41.4993 Y18.9478
G01 X41.5065 Y18.9412
G01 X41.5412 Y18.9065
G01 X41.5478 Y18.8993
G01 X41.5789 Y18.8613
G01 X41.5848 Y18.8534
G01 X41.6121 Y18.8126
G01 X41.6171 Y18.8042
G01 X41.6402 Y18.7609
G01 X41.6444 Y18.7521
G01 X41.6632 Y18.7067
G01 X41.6665 Y18.6975
G01 X41.6808 Y18.6505
G01 X41.6831 Y18.6410
G01 X41.6927 Y18.5929
G01 X41.6942 Y18.5832
G01 X41.6990 Y18.5343
G01 X41.7000 Y18.5000
G01 X41.7000 Y0.1000
G01 X41.6990 Y0.0657
G01 X41.6942 Y0.0168
G01 X41.6927 Y0.0071
G01 X41.6831 Y-0.0410
G01 X41.6808 Y-0.0505
G01 X41.6665 Y-0.0975
G01 X41.6632 Y-0.1067
G01 X41.6444 Y-0.1521
G01 X41.6402 Y-0.1609
G01 X41.6171 Y-0.2042
G01 X41.6121 Y-0.2126
G01 X41.5848 Y-0.2534
G01 X41.5789 Y-0.2613
G01 X41.5478 Y-0.2993
G01 X41.5412 Y-0.3065
G01 X41.5065 Y-0.3412
G01 X41.4993 Y-0.3478
G01 X41.4613 Y-0.3789
G01 X41.4534 Y-0.3848
G01 X41.4126 Y-0.4121
G01 X41.4042 Y-0.4171
G01 X41.3609 Y-0.4402
G01 X41.3521 Y-0.4444
G01 X41.3067 Y-0.4632
G01 X41.2975 Y-0.4665
G01 X41.2505 Y-0.4808
G01 X41.2410 Y-0.4831
G01 X41.1929 Y-0.4927
G01 X41.1832 Y-0.4942
G01 X41.1343 Y-0.4990
G01 X41.1000 Y-0.5000
G01 X0.1000 Y-0.5000
G01 X0.0657 Y-0.4990
G01 X0.0168 Y-0.4942
G01 X0.0071 Y-0.4927
G01 X-0.0410 Y-0.4831
G01 X-0.0505 Y-0.4808
G01 X-0.0975 Y-0.4665
G01 X-0.1067 Y-0.4632
G01 X-0.1521 Y-0.4444
G01 X-0.1609 Y-0.4402
G01 X-0.2042 Y-0.4171
G01 X-0.2126 Y-0.4121
G01 X-0.2534 Y-0.3848
G01 X-0.2613 Y-0.3789
G01 X-0.2993 Y-0.3478
G01 X-0.3065 Y-0.3412
G01 X-0.3412 Y-0.3065
G01 X-0.3478 Y-0.2993
G01 X-0.3789 Y-0.2613
G01 X-0.3848 Y-0.2534
G01 X-0.4121 Y-0.2126
G01 X-0.4171 Y-0.2042
G01 X-0.4402 Y-0.1609
G01 X-0.4444 Y-0.1521
G01 X-0.4632 Y-0.1067
G01 X-0.4665 Y-0.0975
G01 X-0.4808 Y-0.0505
G01 X-0.4831 Y-0.0410
G01 X-0.4927 Y0.0071
G01 X-0.4942 Y0.0168
G01 X-0.4990 Y0.0657
G01 X-0.5000 Y0.1000
G01 X-0.5000 Y23.9000
G01 X-0.4989 Y23.9352
G01 X-0.4938 Y23.9853
G01 X-0.4923 Y23.9953
G01 X-0.4822 Y24.0446
G01 X-0.4797 Y24.0544
G01 X-0.4648 Y24.1025
G01 X-0.4613 Y24.1119
G01 X-0.4415 Y24.1582
G01 X-0.4371 Y24.1673
G01 X-0.4128 Y24.2114
G01 X-0.4075 Y24.2200
G01 X-0.3789 Y24.2614
G01 X-0.3728 Y24.2694
G01 X-0.3401 Y24.3077
G01 X-0.3332 Y24.3151
G01 X-0.2969 Y24.3499
G01 X-0.2893 Y24.3565
G01 X-0.2496 Y24.3876
G01 X-0.2414 Y24.3934
G01 X-0.1988 Y24.4202
G01 X-0.1900 Y24.4252
G01 X-0.1450 Y24.4477
G01 X-0.1357 Y24.4517
G01 X-0.0886 Y24.4695
G01 X-0.0549 Y24.4797
G01 X13.0451 Y27.9797
G01 X13.0747 Y27.9868
G01 X13.1176 Y27.9943
G01 X13.1262 Y27.9954
G01 X13.1696 Y27.9992
G01 X13.2000 Y28.0000
G01 X18.0000 Y28.0000
G01 X18.0351 Y27.9989
G01 X18.0851 Y27.9939
G00 X18.0851 Y27.9939
G01 F60.00
G01 Z-0.8000
G01 F120.00
G01 X18.0351 Y27.9989
G01 X18.0000 Y28.0000
G01 X13.2000 Y28.0000
G01 X13.1696 Y27.9992
G01 X13.1262 Y27.9954
G01 X13.1176 Y27.9943
G01 X13.0747 Y27.9868
G01 X13.0451 Y27.9797
G01 X-0.0549 Y24.4797
G01 X-0.0886 Y24.4695
G01 X-0.1357 Y24.4517
G01 X-0.1450 Y24.4477
G01 X-0.1900 Y24.4252
G01 X-0.1988 Y24.4202
G01 X-0.2414 Y24.3934
G01 X-0.2496 Y24.3876
G01 X-0.2893 Y24.3565
G01 X-0.2969 Y24.3499
G01 X-0.3332 Y24.3151
G01 X-0.3401 Y24.3077
G01 X-0.3728 Y24.2694
G01 X-0.3789 Y24.2614
G01 X-0.4075 Y24.2200
G01 X-0.4128 Y24.2114
G01 X-0.4371 Y24.1673
G01 X-0.4415 Y24.1582
G01 X-0.4613 Y24.1119
G01 X-0.4648 Y24.1025
G01 X-0.4797 Y24.0544
G01 X-0.4822 Y24.0446
G01 X-0.4923 Y23.9953
G01 X-0.4938 Y23.9853
G01 X-0.4989 Y23.9352
G01 X-0.5000 Y23.9000
G01 X-0.5000 Y0.1000
G01 X-0.4990 Y0.0657
G01 X-0.4942 Y0.0168
G01 X-0.4927 Y0.0071
G01 X-0.4831 Y-0.0410
G01 X-0.4808 Y-0.0505
G01 X-0.4665 Y-0.0975
G01 X-0.4632 Y-0.1067
G01 X-0.4444 Y-0.1521
G01 X-0.4402 Y-0.1609
G01 X-0.4171 Y-0.2042
G01 X-0.4121 Y-0.2126
G01 X-0.3848 Y-0.2534
G01 X-0.3789 Y-0.2613
G01 X-0.3478 Y-0.2993
G01 X-0.3412 Y-0.3065
G01 X-0.3065 Y-0.3412
G01 X-0.2993 Y-0.3478
G01 X-0.2613 Y-0.3789
G01 X-0.2534 Y-0.3848
G01 X-0.2126 Y-0.4121
G01 X-0.2042 Y-0.4171
G01 X-0.1609 Y-0.4402
G01 X-0.1521 Y-0.4444
G01 X-0.1067 Y-0.4632
G01 X-0.0975 Y-0.4665
G01 X-0.0505 Y-0.4808
G01 X-0.0410 Y-0.4831
G01 X0.0071 Y-0.4927
G01 X0.0168 Y-0.4942
G01 X0.0657 Y-0.4990
G01 X0.1000 Y-0.5000
G01 X41.1000 Y-0.5000
G01 X41.1343 Y-0.4990
G01 X41.1832 Y-0.4942
G01 X41.1929 Y-0.4927
G01 X41.2410 Y-0.4831
G01 X41.2505 Y-0.4808
G01 X41.2975 Y-0.4665
G01 X41.3067 Y-0.4632
G01 X41.3521 Y-0.4444
G01 X41.3609 Y-0.4402
G01 X41.4042 Y-0.4171
G01 X41.4126 Y-0.4121
G01 X41.4534 Y-0.3848
G01 X41.4613 Y-0.3789
G01 X41.4993 Y-0.3478
G01 X41.5065 Y-0.3412
G01 X41.5412 Y-0.3065
G01 X41.5478 Y-0.2993
G01 X41.5789 Y-0.2613
G01 X41.5848 Y-0.2534
G01 X41.6121 Y-0.2126
G01 X41.6171 Y-0.2042
G01 X41.6402 Y-0.1609
G01 X41.6444 Y-0.1521
G01 X41.6632 Y-0.1067
G01 X41.6665 Y-0.0975
G01 X41.6808 Y-0.0505
G01 X41.6831 Y-0.0410
G01 X41.6927 Y0.0071
G01 X41.6942 Y0.0168
G01 X41.6990 Y0.0657
G01 X41.7000 Y0.1000
G01 X41.7000 Y18.5000
G01 X41.6990 Y18.5343
G01 X41.6942 Y18.5832
G01 X41.6927 Y18.5929
G01 X41.6831 Y18.6410
G01 X41.6808 Y18.6505
G01 X41.6665 Y18.6975
G01 X41.6632 Y18.7067
G01 X41.6444 Y18.7521
G01 X41.6402 Y18.7609
G01 X41.6171 Y18.8042
G01 X41.6121 Y18.8126
G01 X41.5848 Y18.8534
G01 X41.5789 Y18.8613
G01 X41.5478 Y18.8993
G01 X41.5412 Y18.9065
G01 X41.5065 Y18.9412
G01 X41.4993 Y18.9478
G01 X41.4613 Y18.9789
G01 X41.4534 Y18.9848
G01 X41.4126 Y19.0121
G01 X41.4042 Y19.0171
G01 X41.3609 Y19.0402
G01 X41.3521 Y19.0444
G01 X41.3067 Y19.0632
G01 X41.2975 Y19.0665
G01 X41.2505 Y19.0808
G01 X41.2410 Y19.0831
G01 X41.1929 Y19.0927
G01 X41.1832 Y19.0942
G01 X41.1343 Y19.0990
G01 X41.1000 Y19.1000
G01 X28.7201 Y19.1000
G01 X18.3880 Y27.8577
G01 X18.3605 Y27.8796
G01 X18.3191 Y27.9080
G01 X18.3105 Y27.9133
G01 X18.2665 Y27.9375
G01 X18.2575 Y27.9419
G01 X18.2113 Y27.9615
G01 X18.2019 Y27.9650
G01 X18.1539 Y27.9799
G01 X18.1442 Y27.9824
G01 X18.0950 Y27.9924
G01 X18.0851 Y27.9939
G00 X18.0851 Y27.9939
G01 F60.00
G01 Z-1.2000
G01 F120.00
G01 X18.0950 Y27.9924
G01 X18.1442 Y27.9824
G01 X18.1539 Y27.9799
G01 X18.2019 Y27.9650
G01 X18.2113 Y27.9615
G01 X18.2575 Y27.9419
G01 X18.2665 Y27.9375
G01 X18.3105 Y27.9133
G01 X18.3191 Y27.9080
G01 X18.3605 Y27.8796
G01 X18.3880 Y27.8577
G01 X28.7201 Y19.1000
G01 X41.1000 Y19.1000
G01 X41.1343 Y19.0990
G01 X41.1832 Y19.0942
G01 X41.1929 Y19.0927
G01 X41.2410 Y19.0831
G01 X41.2505 Y19.0808
G01 X41.2975 Y19.0665
G01 X41.3067 Y19.0632
G01 X41.3521 Y19.0444
G01 X41.3609 Y19.0402
G01 X41.4042 Y19.0171
G01 X41.4126 Y19.0121
G01 X41.4534 Y18.9848
G01 X41.4613 Y18.9789
G01 X41.4993 Y18.9478
G01 X41.5065 Y18.9412
G01 X41.5412 Y18.9065
G01 X41.5478 Y18.8993
G01 X41.5789 Y18.8613
G01 X41.5848 Y18.8534
G01 X41.6121 Y18.8126
G01 X41.6171 Y18.8042
G01 X41.6402 Y18.7609
G01 X41.6444 Y18.7521
G01 X41.6632 Y18.7067
G01 X41.6665 Y18.6975
G01 X41.6808 Y18.6505
G01 X41.6831 Y18.6410
G01 X41.6927 Y18.5929
G01 X41.6942 Y18.5832
G01 X41.6990 Y18.5343
G01 X41.7000 Y18.5000
G01 X41.7000 Y0.1000
G01 X41.6990 Y0.0657
G01 X41.6942 Y0.0168
G01 X41.6927 Y0.0071
G01 X41.6831 Y-0.0410
G01 X41.6808 Y-0.0505
G01 X41.6665 Y-0.0975
G01 X41.6632 Y-0.1067
G01 X41.6444 Y-0.1521
G01 X41.6402 Y-0.1609
G01 X41.6171 Y-0.2042
G01 X41.6121 Y-0.2126
G01 X41.5848 Y-0.2534
G01 X41.5789 Y-0.2613
G01 X41.5478 Y-0.2993
G01 X41.5412 Y-0.3065
G01 X41.5065 Y-0.3412
G01 X41.4993 Y-0.3478
G01 X41.4613 Y-0.3789
G01 X41.4534 Y-0.3848
G01 X41.4126 Y-0.4121
G01 X41.4042 Y-0.4171
G01 X41.3609 Y-0.4402
G01 X41.3521 Y-0.4444
G01 X41.3067 Y-0.4632
G01 X41.2975 Y-0.4665
G01 X41.2505 Y-0.4808
G01 X41.2410 Y-0.4831
G01 X41.1929 Y-0.4927
G01 X41.1832 Y-0.4942
G01 X41.1343 Y-0.4990
G01 X41.1000 Y-0.5000
G01 X0.1000 Y-0.5000
G01 X0.0657 Y-0.4990
G01 X0.0168 Y-0.4942
G01 X0.0071 Y-0.4927
G01 X-0.0410 Y-0.4831
G01 X-0.0505 Y-0.4808
G01 X-0.0975 Y-0.4665
G01 X-0.1067 Y-0.4632
G01 X-0.1521 Y-0.4444
G01 X-0.1609 Y-0.4402
G01 X-0.2042 Y-0.4171
G01 X-0.2126 Y-0.4121
G01 X-0.2534 Y-0.3848
G01 X-0.2613 Y-0.3789
G01 X-0.2993 Y-0.3478
G01 X-0.3065 Y-0.3412
G01 X-0.3412 Y-0.3065
G01 X-0.3478 Y-0.2993
G01 X-0.3789 Y-0.2613
G01 X-0.3848 Y-0.2534
G01 X-0.4121 Y-0.2126
G01 X-0.4171 Y-0.2042
G01 X-0.4402 Y-0.1609
G01 X-0.4444 Y-0.1521
G01 X-0.4632 Y-0.1067
G01 X-0.4665 Y-0.0975
G01 X-0.4808 Y-0.0505
G01 X-0.4831 Y-0.0410
G01 X-0.4927 Y0.0071
G01 X-0.4942 Y0.0168
G01 X-0.4990 Y0.0657
G01 X-0.5000 Y0.1000
G01 X-0.5000 Y23.9000
G01 X-0.4989 Y23.9352
G01 X-0.4938 Y23.9853
G01 X-0.4923 Y23.9953
G01 X-0.4822 Y24.0446
G01 X-0.4797 Y24.0544
G01 X-0.4648 Y24.1025
G01 X-0.4613 Y24.1119
G01 X-0.4415 Y24.1582
G01 X-0.4371 Y24.1673
G01 X-0.4128 Y24.2114
G01 X-0.4075 Y24.2200
G01 X-0.3789 Y24.2614
G01 X-0.3728 Y24.2694
G01 X-0.3401 Y24.3077
G01 X-0.3332 Y24.3151
G01 X-0.2969 Y24.3499
G01 X-0.2893 Y24.3565
G01 X-0.2496 Y24.3876
G01 X-0.2414 Y24.3934
G01 X-0.1988 Y24.4202
G01 X-0.1900 Y24.4252
G01 X-0.1450 Y24.4477
G01 X-0.1357 Y24.4517
G01 X-0.0886 Y24.4695
G01 X-0.0549 Y24.4797
G01 X13.0451 Y27.9797
G01 X13.0747 Y27.9868
G01 X13.1176 Y27.9943
G01 X13.1262 Y27.9954
G01 X13.1696 Y27.9992
G01 X13.2000 Y28.0000
G01 X18.0000 Y28.0000
G01 X18.0351 Y27.9989
G01 X18.0851 Y27.9939
G00 X18.0851 Y27.9939
G01 F60.00
G01 Z-1.6000
G01 F120.00
G01 X18.0351 Y27.9989
G01 X18.0000 Y28.0000
G01 X13.2000 Y28.0000
G01 X13.1696 Y27.9992
G01 X13.1262 Y27.9954
G01 X13.1176 Y27.9943
G01 X13.0747 Y27.9868
G01 X13.0451 Y27.9797
G01 X-0.0549 Y24.4797
G01 X-0.0886 Y24.4695
G01 X-0.1357 Y24.4517
G01 X-0.1450 Y24.4477
G01 X-0.1900 Y24.4252
G01 X-0.1988 Y24.4202
G01 X-0.2414 Y24.3934
G01 X-0.2496 Y24.3876
G01 X-0.2893 Y24.3565
G01 X-0.2969 Y24.3499
G01 X-0.3332 Y24.3151
G01 X-0.3401 Y24.3077
G01 X-0.3728 Y24.2694
G01 X-0.3789 Y24.2614
G01 X-0.4075 Y24.2200
G01 X-0.4128 Y24.2114
G01 X-0.4371 Y24.1673
G01 X-0.4415 Y24.1582
G01 X-0.4613 Y24.1119
G01 X-0.4648 Y24.1025
G01 X-0.4797 Y24.0544
G01 X-0.4822 Y24.0446
G01 X-0.4923 Y23.9953
G01 X-0.4938 Y23.9853
G01 X-0.4989 Y23.9352
G01 X-0.5000 Y23.9000
G01 X-0.5000 Y0.1000
G01 X-0.4990 Y0.0657
G01 X-0.4942 Y0.0168
G01 X-0.4927 Y0.0071
G01 X-0.4831 Y-0.0410
G01 X-0.4808 Y-0.0505
G01 X-0.4665 Y-0.0975
G01 X-0.4632 Y-0.1067
G01 X-0.4444 Y-0.1521
G01 X-0.4402 Y-0.1609
G01 X-0.4171 Y-0.2042
G01 X-0.4121 Y-0.2126
G01 X-0.3848 Y-0.2534
G01 X-0.3789 Y-0.2613
G01 X-0.3478 Y-0.2993
G01 X-0.3412 Y-0.3065
G01 X-0.3065 Y-0.3412
G01 X-0.2993 Y-0.3478
G01 X-0.2613 Y-0.3789
G01 X-0.2534 Y-0.3848
G01 X-0.2126 Y-0.4121
G01 X-0.2042 Y-0.4171
G01 X-0.1609 Y-0.4402
G01 X-0.1521 Y-0.4444
G01 X-0.1067 Y-0.4632
G01 X-0.0975 Y-0.4665
G01 X-0.0505 Y-0.4808
G01 X-0.0410 Y-0.4831
G01 X0.0071 Y-0.4927
G01 X0.0168 Y-0.4942
G01 X0.0657 Y-0.4990
G01 X0.1000 Y-0.5000
G01 X41.1000 Y-0.5000
G01 X41.1343 Y-0.4990
G01 X41.1832 Y-0.4942
G01 X41.1929 Y-0.4927
G01 X41.2410 Y-0.4831
G01 X41.2505 Y-0.4808
G01 X41.2975 Y-0.4665
G01 X41.3067 Y-0.4632
G01 X41.3521 Y-0.4444
G01 X41.3609 Y-0.4402
G01 X41.4042 Y-0.4171
G01 X41.4126 Y-0.4121
G01 X41.4534 Y-0.3848
G01 X41.4613 Y-0.3789
G01 X41.4993 Y-0.3478
G01 X41.5065 Y-0.3412
G01 X41.5412 Y-0.3065
G01 X41.5478 Y-0.2993
G01 X41.5789 Y-0.2613
G01 X41.5848 Y-0.2534
G01 X41.6121 Y-0.2126
G01 X41.6171 Y-0.2042
G01 X41.6402 Y-0.1609
G01 X41.6444 Y-0.1521
G01 X41.6632 Y-0.1067
G01 X41.6665 Y-0.0975
G01 X41.6808 Y-0.0505
G01 X41.6831 Y-0.0410
G01 X41.6927 Y0.0071
G01 X41.6942 Y0.0168
G01 X41.6990 Y0.0657
G01 X41.7000 Y0.1000
G01 X41.7000 Y18.5000
G01 X41.6990 Y18.5343
G01 X41.6942 Y18.5832
G01 X41.6927 Y18.5929
G01 X41.6831 Y18.6410
G01 X41.6808 Y18.6505
G01 X41.6665 Y18.6975
G01 X41.6632 Y18.7067
G01 X41.6444 Y18.7521
G01 X41.6402 Y18.7609
G01 X41.6171 Y18.8042
G01 X41.6121 Y18.8126
G01 X41.5848 Y18.8534
G01 X41.5789 Y18.8613
G01 X41.5478 Y18.8993
G01 X41.5412 Y18.9065
G01 X41.5065 Y18.9412
G01 X41.4993 Y18.9478
G01 X41.4613 Y18.9789
G01 X41.4534 Y18.9848
G01 X41.4126 Y19.0121
G01 X41.4042 Y19.0171
G01 X41.3609 Y19.0402
G01 X41.3521 Y19.0444
G01 X41.3067 Y19.0632
G01 X41.2975 Y19.0665
G01 X41.2505 Y19.0808
G01 X41.2410 Y19.0831
G01 X41.1929 Y19.0927
G01 X41.1832 Y19.0942
G01 X41.1343 Y19.0990
G01 X41.1000 Y19.1000
G01 X28.7201 Y19.1000
G01 X18.3880 Y27.8577
G01 X18.3605 Y27.8796
G01 X18.3191 Y27.9080
G01 X18.3105 Y27.9133
G01 X18.2665 Y27.9375
G01 X18.2575 Y27.9419
G01 X18.2113 Y27.9615
G01 X18.2019 Y27.9650
G01 X18.1539 Y27.9799
G01 X18.1442 Y27.9824
G01 X18.0950 Y27.9924
G01 X18.0851 Y27.9939
G00 X18.0851 Y27.9939
G01 F60.00
G01 Z-1.8000
G01 F120.00
G01 X18.0950 Y27.9924
G01 X18.1442 Y27.9824
G01 X18.1539 Y27.9799
G01 X18.2019 Y27.9650
G01 X18.2113 Y27.9615
G01 X18.2575 Y27.9419
G01 X18.2665 Y27.9375
G01 X18.3105 Y27.9133
G01 X18.3191 Y27.9080
G01 X18.3605 Y27.8796
G01 X18.3880 Y27.8577
G01 X28.7201 Y19.1000
G01 X41.1000 Y19.1000
G01 X41.1343 Y19.0990
G01 X41.1832 Y19.0942
G01 X41.1929 Y19.0927
G01 X41.2410 Y19.0831
G01 X41.2505 Y19.0808
G01 X41.2975 Y19.0665
G01 X41.3067 Y19.0632
G01 X41.3521 Y19.0444
G01 X41.3609 Y19.0402
G01 X41.4042 Y19.0171
G01 X41.4126 Y19.0121
G01 X41.4534 Y18.9848
G01 X41.4613 Y18.9789
G01 X41.4993 Y18.9478
G01 X41.5065 Y18.9412
G01 X41.5412 Y18.9065
G01 X41.5478 Y18.8993
G01 X41.5789 Y18.8613
G01 X41.5848 Y18.8534
G01 X41.6121 Y18.8126
G01 X41.6171 Y18.8042
G01 X41.6402 Y18.7609
G01 X41.6444 Y18.7521
G01 X41.6632 Y18.7067
G01 X41.6665 Y18.6975
G01 X41.6808 Y18.6505
G01 X41.6831 Y18.6410
G01 X41.6927 Y18.5929
G01 X41.6942 Y18.5832
G01 X41.6990 Y18.5343
G01 X41.7000 Y18.5000
G01 X41.7000 Y0.1000
G01 X41.6990 Y0.0657
G01 X41.6942 Y0.0168
G01 X41.6927 Y0.0071
G01 X41.6831 Y-0.0410
G01 X41.6808 Y-0.0505
G01 X41.6665 Y-0.0975
G01 X41.6632 Y-0.1067
G01 X41.6444 Y-0.1521
G01 X41.6402 Y-0.1609
G01 X41.6171 Y-0.2042
G01 X41.6121 Y-0.2126
G01 X41.5848 Y-0.2534
G01 X41.5789 Y-0.2613
G01 X41.5478 Y-0.2993
G01 X41.5412 Y-0.3065
G01 X41.5065 Y-0.3412
G01 X41.4993 Y-0.3478
G01 X41.4613 Y-0.3789
G01 X41.4534 Y-0.3848
G01 X41.4126 Y-0.4121
G01 X41.4042 Y-0.4171
G01 X41.3609 Y-0.4402
G01 X41.3521 Y-0.4444
G01 X41.3067 Y-0.4632
G01 X41.2975 Y-0.4665
G01 X41.2505 Y-0.4808
G01 X41.2410 Y-0.4831
G01 X41.1929 Y-0.4927
G01 X41.1832 Y-0.4942
G01 X41.1343 Y-0.4990
G01 X41.1000 Y-0.5000
G01 X0.1000 Y-0.5000
G01 X0.0657 Y-0.4990
G01 X0.0168 Y-0.4942
G01 X0.0071 Y-0.4927
G01 X-0.0410 Y-0.4831
G01 X-0.0505 Y-0.4808
G01 X-0.0975 Y-0.4665
G01 X-0.1067 Y-0.4632
G01 X-0.1521 Y-0.4444
G01 X-0.1609 Y-0.4402
G01 X-0.2042 Y-0.4171
G01 X-0.2126 Y-0.4121
G01 X-0.2534 Y-0.3848
G01 X-0.2613 Y-0.3789
G01 X-0.2993 Y-0.3478
G01 X-0.3065 Y-0.3412
G01 X-0.3412 Y-0.3065
G01 X-0.3478 Y-0.2993
G01 X-0.3789 Y-0.2613
G01 X-0.3848 Y-0.2534
G01 X-0.4121 Y-0.2126
G01 X-0.4171 Y-0.2042
G01 X-0.4402 Y-0.1609
G01 X-0.4444 Y-0.1521
G01 X-0.4632 Y-0.1067
G01 X-0.4665 Y-0.0975
G01 X-0.4808 Y-0.0505
G01 X-0.4831 Y-0.0410
G01 X-0.4927 Y0.0071
G01 X-0.4942 Y0.0168
G01 X-0.4990 Y0.0657
G01 X-0.5000 Y0.1000
G01 X-0.5000 Y23.9000
G01 X-0.4989 Y23.9352
G01 X-0.4938 Y23.9853
G01 X-0.4923 Y23.9953
G01 X-0.4822 Y24.0446
G01 X-0.4797 Y24.0544
G01 X-0.4648 Y24.1025
G01 X-0.4613 Y24.1119
G01 X-0.4415 Y24.1582
G01 X-0.4371 Y24.1673
G01 X-0.4128 Y24.2114
G01 X-0.4075 Y24.2200
G01 X-0.3789 Y24.2614
G01 X-0.3728 Y24.2694
G01 X-0.3401 Y24.3077
G01 X-0.3332 Y24.3151
G01 X-0.2969 Y24.3499
G01 X-0.2893 Y24.3565
G01 X-0.2496 Y24.3876
G01 X-0.2414 Y24.3934
G01 X-0.1988 Y24.4202
G01 X-0.1900 Y24.4252
G01 X-0.1450 Y24.4477
G01 X-0.1357 Y24.4517
G01 X-0.0886 Y24.4695
G01 X-0.0549 Y24.4797
G01 X13.0451 Y27.9797
G01 X13.0747 Y27.9868
G01 X13.1176 Y27.9943
G01 X13.1262 Y27.9954
G01 X13.1696 Y27.9992
G01 X13.2000 Y28.0000
G01 X18.0000 Y28.0000
G01 X18.0351 Y27.9989
G01 X18.0851 Y27.9939
G00 Z2.0000
M05
G00 Z2.0000
G00 Z15.00


