(G-CODE GENERATED BY FLATCAM v8.994 - www.flatcam.org - Version Date: 2020/11/7)

(Name: Stm32_Bluepill Breakout.drl_edit_mill_cnc)
(Type: G-code from Geometry)
(Units: MM)

(Created on Wednesday, 07 August 2024 at 22:23)

(This preprocessor is the default preprocessor used by FlatCAM.)
(It is made to work with MACH3 compatible motion controllers.)

(TOOL DIAMETER: 0.8 mm)
(Feedrate_XY: 120.0 mm/min)
(Feedrate_Z: 60.0 mm/min)
(Feedrate rapids 1500.0 mm/min)

(Z_Cut: -1.8 mm)
(DepthPerCut: 0.4 mm <=>5 passes)
(Z_Move: 2.0 mm)
(Z Start: None mm)
(Z End: 15.0 mm)
(X,Y End: None mm)
(Steps per circle: 64)
(Preprocessor Geometry: default)

(X range:    2.8000 ...   37.6000  mm)
(Y range:    3.2600 ...   23.7800  mm)

(Spindle Speed: 0.0 RPM)
G21
G90
G94

G01 F120.00

M5
G00 Z15.0000
G00 X0.0000 Y0.0000
T1
M6    
(MSG, Change to Tool Dia = 0.800)
M0
G00 Z15.0000

M03
G01 F120.00
G00 X3.1000 Y10.8000
G01 F60.00
G01 Z-0.4000
G01 F120.00
G01 X3.0995 Y10.7902
G01 X3.0981 Y10.7805
G01 X3.0957 Y10.7710
G01 X3.0924 Y10.7617
G01 X3.0882 Y10.7529
G01 X3.0831 Y10.7444
G01 X3.0773 Y10.7366
G01 X3.0707 Y10.7293
G01 X3.0634 Y10.7227
G01 X3.0556 Y10.7169
G01 X3.0471 Y10.7118
G01 X3.0383 Y10.7076
G01 X3.0290 Y10.7043
G01 X3.0195 Y10.7019
G01 X3.0098 Y10.7005
G01 X3.0000 Y10.7000
G01 X2.9902 Y10.7005
G01 X2.9805 Y10.7019
G01 X2.9710 Y10.7043
G01 X2.9617 Y10.7076
G01 X2.9529 Y10.7118
G01 X2.9444 Y10.7169
G01 X2.9366 Y10.7227
G01 X2.9293 Y10.7293
G01 X2.9227 Y10.7366
G01 X2.9169 Y10.7444
G01 X2.9118 Y10.7529
G01 X2.9076 Y10.7617
G01 X2.9043 Y10.7710
G01 X2.9019 Y10.7805
G01 X2.9005 Y10.7902
G01 X2.9000 Y10.8000
G01 X2.9005 Y10.8098
G01 X2.9019 Y10.8195
G01 X2.9043 Y10.8290
G01 X2.9076 Y10.8383
G01 X2.9118 Y10.8471
G01 X2.9169 Y10.8556
G01 X2.9227 Y10.8634
G01 X2.9293 Y10.8707
G01 X2.9366 Y10.8773
G01 X2.9444 Y10.8831
G01 X2.9529 Y10.8882
G01 X2.9617 Y10.8924
G01 X2.9710 Y10.8957
G01 X2.9805 Y10.8981
G01 X2.9902 Y10.8995
G01 X3.0000 Y10.9000
G01 X3.0098 Y10.8995
G01 X3.0195 Y10.8981
G01 X3.0290 Y10.8957
G01 X3.0383 Y10.8924
G01 X3.0471 Y10.8882
G01 X3.0556 Y10.8831
G01 X3.0634 Y10.8773
G01 X3.0707 Y10.8707
G01 X3.0773 Y10.8634
G01 X3.0831 Y10.8556
G01 X3.0882 Y10.8471
G01 X3.0924 Y10.8383
G01 X3.0957 Y10.8290
G01 X3.0981 Y10.8195
G01 X3.0995 Y10.8098
G01 X3.1000 Y10.8000
G00 X3.1000 Y10.8000
G01 F60.00
G01 Z-0.8000
G01 F120.00
G01 X3.0995 Y10.7902
G01 X3.0981 Y10.7805
G01 X3.0957 Y10.7710
G01 X3.0924 Y10.7617
G01 X3.0882 Y10.7529
G01 X3.0831 Y10.7444
G01 X3.0773 Y10.7366
G01 X3.0707 Y10.7293
G01 X3.0634 Y10.7227
G01 X3.0556 Y10.7169
G01 X3.0471 Y10.7118
G01 X3.0383 Y10.7076
G01 X3.0290 Y10.7043
G01 X3.0195 Y10.7019
G01 X3.0098 Y10.7005
G01 X3.0000 Y10.7000
G01 X2.9902 Y10.7005
G01 X2.9805 Y10.7019
G01 X2.9710 Y10.7043
G01 X2.9617 Y10.7076
G01 X2.9529 Y10.7118
G01 X2.9444 Y10.7169
G01 X2.9366 Y10.7227
G01 X2.9293 Y10.7293
G01 X2.9227 Y10.7366
G01 X2.9169 Y10.7444
G01 X2.9118 Y10.7529
G01 X2.9076 Y10.7617
G01 X2.9043 Y10.7710
G01 X2.9019 Y10.7805
G01 X2.9005 Y10.7902
G01 X2.9000 Y10.8000
G01 X2.9005 Y10.8098
G01 X2.9019 Y10.8195
G01 X2.9043 Y10.8290
G01 X2.9076 Y10.8383
G01 X2.9118 Y10.8471
G01 X2.9169 Y10.8556
G01 X2.9227 Y10.8634
G01 X2.9293 Y10.8707
G01 X2.9366 Y10.8773
G01 X2.9444 Y10.8831
G01 X2.9529 Y10.8882
G01 X2.9617 Y10.8924
G01 X2.9710 Y10.8957
G01 X2.9805 Y10.8981
G01 X2.9902 Y10.8995
G01 X3.0000 Y10.9000
G01 X3.0098 Y10.8995
G01 X3.0195 Y10.8981
G01 X3.0290 Y10.8957
G01 X3.0383 Y10.8924
G01 X3.0471 Y10.8882
G01 X3.0556 Y10.8831
G01 X3.0634 Y10.8773
G01 X3.0707 Y10.8707
G01 X3.0773 Y10.8634
G01 X3.0831 Y10.8556
G01 X3.0882 Y10.8471
G01 X3.0924 Y10.8383
G01 X3.0957 Y10.8290
G01 X3.0981 Y10.8195
G01 X3.0995 Y10.8098
G01 X3.1000 Y10.8000
G00 X3.1000 Y10.8000
G01 F60.00
G01 Z-1.2000
G01 F120.00
G01 X3.0995 Y10.7902
G01 X3.0981 Y10.7805
G01 X3.0957 Y10.7710
G01 X3.0924 Y10.7617
G01 X3.0882 Y10.7529
G01 X3.0831 Y10.7444
G01 X3.0773 Y10.7366
G01 X3.0707 Y10.7293
G01 X3.0634 Y10.7227
G01 X3.0556 Y10.7169
G01 X3.0471 Y10.7118
G01 X3.0383 Y10.7076
G01 X3.0290 Y10.7043
G01 X3.0195 Y10.7019
G01 X3.0098 Y10.7005
G01 X3.0000 Y10.7000
G01 X2.9902 Y10.7005
G01 X2.9805 Y10.7019
G01 X2.9710 Y10.7043
G01 X2.9617 Y10.7076
G01 X2.9529 Y10.7118
G01 X2.9444 Y10.7169
G01 X2.9366 Y10.7227
G01 X2.9293 Y10.7293
G01 X2.9227 Y10.7366
G01 X2.9169 Y10.7444
G01 X2.9118 Y10.7529
G01 X2.9076 Y10.7617
G01 X2.9043 Y10.7710
G01 X2.9019 Y10.7805
G01 X2.9005 Y10.7902
G01 X2.9000 Y10.8000
G01 X2.9005 Y10.8098
G01 X2.9019 Y10.8195
G01 X2.9043 Y10.8290
G01 X2.9076 Y10.8383
G01 X2.9118 Y10.8471
G01 X2.9169 Y10.8556
G01 X2.9227 Y10.8634
G01 X2.9293 Y10.8707
G01 X2.9366 Y10.8773
G01 X2.9444 Y10.8831
G01 X2.9529 Y10.8882
G01 X2.9617 Y10.8924
G01 X2.9710 Y10.8957
G01 X2.9805 Y10.8981
G01 X2.9902 Y10.8995
G01 X3.0000 Y10.9000
G01 X3.0098 Y10.8995
G01 X3.0195 Y10.8981
G01 X3.0290 Y10.8957
G01 X3.0383 Y10.8924
G01 X3.0471 Y10.8882
G01 X3.0556 Y10.8831
G01 X3.0634 Y10.8773
G01 X3.0707 Y10.8707
G01 X3.0773 Y10.8634
G01 X3.0831 Y10.8556
G01 X3.0882 Y10.8471
G01 X3.0924 Y10.8383
G01 X3.0957 Y10.8290
G01 X3.0981 Y10.8195
G01 X3.0995 Y10.8098
G01 X3.1000 Y10.8000
G00 X3.1000 Y10.8000
G01 F60.00
G01 Z-1.6000
G01 F120.00
G01 X3.0995 Y10.7902
G01 X3.0981 Y10.7805
G01 X3.0957 Y10.7710
G01 X3.0924 Y10.7617
G01 X3.0882 Y10.7529
G01 X3.0831 Y10.7444
G01 X3.0773 Y10.7366
G01 X3.0707 Y10.7293
G01 X3.0634 Y10.7227
G01 X3.0556 Y10.7169
G01 X3.0471 Y10.7118
G01 X3.0383 Y10.7076
G01 X3.0290 Y10.7043
G01 X3.0195 Y10.7019
G01 X3.0098 Y10.7005
G01 X3.0000 Y10.7000
G01 X2.9902 Y10.7005
G01 X2.9805 Y10.7019
G01 X2.9710 Y10.7043
G01 X2.9617 Y10.7076
G01 X2.9529 Y10.7118
G01 X2.9444 Y10.7169
G01 X2.9366 Y10.7227
G01 X2.9293 Y10.7293
G01 X2.9227 Y10.7366
G01 X2.9169 Y10.7444
G01 X2.9118 Y10.7529
G01 X2.9076 Y10.7617
G01 X2.9043 Y10.7710
G01 X2.9019 Y10.7805
G01 X2.9005 Y10.7902
G01 X2.9000 Y10.8000
G01 X2.9005 Y10.8098
G01 X2.9019 Y10.8195
G01 X2.9043 Y10.8290
G01 X2.9076 Y10.8383
G01 X2.9118 Y10.8471
G01 X2.9169 Y10.8556
G01 X2.9227 Y10.8634
G01 X2.9293 Y10.8707
G01 X2.9366 Y10.8773
G01 X2.9444 Y10.8831
G01 X2.9529 Y10.8882
G01 X2.9617 Y10.8924
G01 X2.9710 Y10.8957
G01 X2.9805 Y10.8981
G01 X2.9902 Y10.8995
G01 X3.0000 Y10.9000
G01 X3.0098 Y10.8995
G01 X3.0195 Y10.8981
G01 X3.0290 Y10.8957
G01 X3.0383 Y10.8924
G01 X3.0471 Y10.8882
G01 X3.0556 Y10.8831
G01 X3.0634 Y10.8773
G01 X3.0707 Y10.8707
G01 X3.0773 Y10.8634
G01 X3.0831 Y10.8556
G01 X3.0882 Y10.8471
G01 X3.0924 Y10.8383
G01 X3.0957 Y10.8290
G01 X3.0981 Y10.8195
G01 X3.0995 Y10.8098
G01 X3.1000 Y10.8000
G00 X3.1000 Y10.8000
G01 F60.00
G01 Z-1.8000
G01 F120.00
G01 X3.0995 Y10.7902
G01 X3.0981 Y10.7805
G01 X3.0957 Y10.7710
G01 X3.0924 Y10.7617
G01 X3.0882 Y10.7529
G01 X3.0831 Y10.7444
G01 X3.0773 Y10.7366
G01 X3.0707 Y10.7293
G01 X3.0634 Y10.7227
G01 X3.0556 Y10.7169
G01 X3.0471 Y10.7118
G01 X3.0383 Y10.7076
G01 X3.0290 Y10.7043
G01 X3.0195 Y10.7019
G01 X3.0098 Y10.7005
G01 X3.0000 Y10.7000
G01 X2.9902 Y10.7005
G01 X2.9805 Y10.7019
G01 X2.9710 Y10.7043
G01 X2.9617 Y10.7076
G01 X2.9529 Y10.7118
G01 X2.9444 Y10.7169
G01 X2.9366 Y10.7227
G01 X2.9293 Y10.7293
G01 X2.9227 Y10.7366
G01 X2.9169 Y10.7444
G01 X2.9118 Y10.7529
G01 X2.9076 Y10.7617
G01 X2.9043 Y10.7710
G01 X2.9019 Y10.7805
G01 X2.9005 Y10.7902
G01 X2.9000 Y10.8000
G01 X2.9005 Y10.8098
G01 X2.9019 Y10.8195
G01 X2.9043 Y10.8290
G01 X2.9076 Y10.8383
G01 X2.9118 Y10.8471
G01 X2.9169 Y10.8556
G01 X2.9227 Y10.8634
G01 X2.9293 Y10.8707
G01 X2.9366 Y10.8773
G01 X2.9444 Y10.8831
G01 X2.9529 Y10.8882
G01 X2.9617 Y10.8924
G01 X2.9710 Y10.8957
G01 X2.9805 Y10.8981
G01 X2.9902 Y10.8995
G01 X3.0000 Y10.9000
G01 X3.0098 Y10.8995
G01 X3.0195 Y10.8981
G01 X3.0290 Y10.8957
G01 X3.0383 Y10.8924
G01 X3.0471 Y10.8882
G01 X3.0556 Y10.8831
G01 X3.0634 Y10.8773
G01 X3.0707 Y10.8707
G01 X3.0773 Y10.8634
G01 X3.0831 Y10.8556
G01 X3.0882 Y10.8471
G01 X3.0924 Y10.8383
G01 X3.0957 Y10.8290
G01 X3.0981 Y10.8195
G01 X3.0995 Y10.8098
G01 X3.1000 Y10.8000
G00 Z2.0000
G00 X5.6400 Y10.8000
G01 F60.00
G01 Z-0.4000
G01 F120.00
G01 X5.6395 Y10.7902
G01 X5.6381 Y10.7805
G01 X5.6357 Y10.7710
G01 X5.6324 Y10.7617
G01 X5.6282 Y10.7529
G01 X5.6231 Y10.7444
G01 X5.6173 Y10.7366
G01 X5.6107 Y10.7293
G01 X5.6034 Y10.7227
G01 X5.5956 Y10.7169
G01 X5.5871 Y10.7118
G01 X5.5783 Y10.7076
G01 X5.5690 Y10.7043
G01 X5.5595 Y10.7019
G01 X5.5498 Y10.7005
G01 X5.5400 Y10.7000
G01 X5.5302 Y10.7005
G01 X5.5205 Y10.7019
G01 X5.5110 Y10.7043
G01 X5.5017 Y10.7076
G01 X5.4929 Y10.7118
G01 X5.4844 Y10.7169
G01 X5.4766 Y10.7227
G01 X5.4693 Y10.7293
G01 X5.4627 Y10.7366
G01 X5.4569 Y10.7444
G01 X5.4518 Y10.7529
G01 X5.4476 Y10.7617
G01 X5.4443 Y10.7710
G01 X5.4419 Y10.7805
G01 X5.4405 Y10.7902
G01 X5.4400 Y10.8000
G01 X5.4405 Y10.8098
G01 X5.4419 Y10.8195
G01 X5.4443 Y10.8290
G01 X5.4476 Y10.8383
G01 X5.4518 Y10.8471
G01 X5.4569 Y10.8556
G01 X5.4627 Y10.8634
G01 X5.4693 Y10.8707
G01 X5.4766 Y10.8773
G01 X5.4844 Y10.8831
G01 X5.4929 Y10.8882
G01 X5.5017 Y10.8924
G01 X5.5110 Y10.8957
G01 X5.5205 Y10.8981
G01 X5.5302 Y10.8995
G01 X5.5400 Y10.9000
G01 X5.5498 Y10.8995
G01 X5.5595 Y10.8981
G01 X5.5690 Y10.8957
G01 X5.5783 Y10.8924
G01 X5.5871 Y10.8882
G01 X5.5956 Y10.8831
G01 X5.6034 Y10.8773
G01 X5.6107 Y10.8707
G01 X5.6173 Y10.8634
G01 X5.6231 Y10.8556
G01 X5.6282 Y10.8471
G01 X5.6324 Y10.8383
G01 X5.6357 Y10.8290
G01 X5.6381 Y10.8195
G01 X5.6395 Y10.8098
G01 X5.6400 Y10.8000
G00 X5.6400 Y10.8000
G01 F60.00
G01 Z-0.8000
G01 F120.00
G01 X5.6395 Y10.7902
G01 X5.6381 Y10.7805
G01 X5.6357 Y10.7710
G01 X5.6324 Y10.7617
G01 X5.6282 Y10.7529
G01 X5.6231 Y10.7444
G01 X5.6173 Y10.7366
G01 X5.6107 Y10.7293
G01 X5.6034 Y10.7227
G01 X5.5956 Y10.7169
G01 X5.5871 Y10.7118
G01 X5.5783 Y10.7076
G01 X5.5690 Y10.7043
G01 X5.5595 Y10.7019
G01 X5.5498 Y10.7005
G01 X5.5400 Y10.7000
G01 X5.5302 Y10.7005
G01 X5.5205 Y10.7019
G01 X5.5110 Y10.7043
G01 X5.5017 Y10.7076
G01 X5.4929 Y10.7118
G01 X5.4844 Y10.7169
G01 X5.4766 Y10.7227
G01 X5.4693 Y10.7293
G01 X5.4627 Y10.7366
G01 X5.4569 Y10.7444
G01 X5.4518 Y10.7529
G01 X5.4476 Y10.7617
G01 X5.4443 Y10.7710
G01 X5.4419 Y10.7805
G01 X5.4405 Y10.7902
G01 X5.4400 Y10.8000
G01 X5.4405 Y10.8098
G01 X5.4419 Y10.8195
G01 X5.4443 Y10.8290
G01 X5.4476 Y10.8383
G01 X5.4518 Y10.8471
G01 X5.4569 Y10.8556
G01 X5.4627 Y10.8634
G01 X5.4693 Y10.8707
G01 X5.4766 Y10.8773
G01 X5.4844 Y10.8831
G01 X5.4929 Y10.8882
G01 X5.5017 Y10.8924
G01 X5.5110 Y10.8957
G01 X5.5205 Y10.8981
G01 X5.5302 Y10.8995
G01 X5.5400 Y10.9000
G01 X5.5498 Y10.8995
G01 X5.5595 Y10.8981
G01 X5.5690 Y10.8957
G01 X5.5783 Y10.8924
G01 X5.5871 Y10.8882
G01 X5.5956 Y10.8831
G01 X5.6034 Y10.8773
G01 X5.6107 Y10.8707
G01 X5.6173 Y10.8634
G01 X5.6231 Y10.8556
G01 X5.6282 Y10.8471
G01 X5.6324 Y10.8383
G01 X5.6357 Y10.8290
G01 X5.6381 Y10.8195
G01 X5.6395 Y10.8098
G01 X5.6400 Y10.8000
G00 X5.6400 Y10.8000
G01 F60.00
G01 Z-1.2000
G01 F120.00
G01 X5.6395 Y10.7902
G01 X5.6381 Y10.7805
G01 X5.6357 Y10.7710
G01 X5.6324 Y10.7617
G01 X5.6282 Y10.7529
G01 X5.6231 Y10.7444
G01 X5.6173 Y10.7366
G01 X5.6107 Y10.7293
G01 X5.6034 Y10.7227
G01 X5.5956 Y10.7169
G01 X5.5871 Y10.7118
G01 X5.5783 Y10.7076
G01 X5.5690 Y10.7043
G01 X5.5595 Y10.7019
G01 X5.5498 Y10.7005
G01 X5.5400 Y10.7000
G01 X5.5302 Y10.7005
G01 X5.5205 Y10.7019
G01 X5.5110 Y10.7043
G01 X5.5017 Y10.7076
G01 X5.4929 Y10.7118
G01 X5.4844 Y10.7169
G01 X5.4766 Y10.7227
G01 X5.4693 Y10.7293
G01 X5.4627 Y10.7366
G01 X5.4569 Y10.7444
G01 X5.4518 Y10.7529
G01 X5.4476 Y10.7617
G01 X5.4443 Y10.7710
G01 X5.4419 Y10.7805
G01 X5.4405 Y10.7902
G01 X5.4400 Y10.8000
G01 X5.4405 Y10.8098
G01 X5.4419 Y10.8195
G01 X5.4443 Y10.8290
G01 X5.4476 Y10.8383
G01 X5.4518 Y10.8471
G01 X5.4569 Y10.8556
G01 X5.4627 Y10.8634
G01 X5.4693 Y10.8707
G01 X5.4766 Y10.8773
G01 X5.4844 Y10.8831
G01 X5.4929 Y10.8882
G01 X5.5017 Y10.8924
G01 X5.5110 Y10.8957
G01 X5.5205 Y10.8981
G01 X5.5302 Y10.8995
G01 X5.5400 Y10.9000
G01 X5.5498 Y10.8995
G01 X5.5595 Y10.8981
G01 X5.5690 Y10.8957
G01 X5.5783 Y10.8924
G01 X5.5871 Y10.8882
G01 X5.5956 Y10.8831
G01 X5.6034 Y10.8773
G01 X5.6107 Y10.8707
G01 X5.6173 Y10.8634
G01 X5.6231 Y10.8556
G01 X5.6282 Y10.8471
G01 X5.6324 Y10.8383
G01 X5.6357 Y10.8290
G01 X5.6381 Y10.8195
G01 X5.6395 Y10.8098
G01 X5.6400 Y10.8000
G00 X5.6400 Y10.8000
G01 F60.00
G01 Z-1.6000
G01 F120.00
G01 X5.6395 Y10.7902
G01 X5.6381 Y10.7805
G01 X5.6357 Y10.7710
G01 X5.6324 Y10.7617
G01 X5.6282 Y10.7529
G01 X5.6231 Y10.7444
G01 X5.6173 Y10.7366
G01 X5.6107 Y10.7293
G01 X5.6034 Y10.7227
G01 X5.5956 Y10.7169
G01 X5.5871 Y10.7118
G01 X5.5783 Y10.7076
G01 X5.5690 Y10.7043
G01 X5.5595 Y10.7019
G01 X5.5498 Y10.7005
G01 X5.5400 Y10.7000
G01 X5.5302 Y10.7005
G01 X5.5205 Y10.7019
G01 X5.5110 Y10.7043
G01 X5.5017 Y10.7076
G01 X5.4929 Y10.7118
G01 X5.4844 Y10.7169
G01 X5.4766 Y10.7227
G01 X5.4693 Y10.7293
G01 X5.4627 Y10.7366
G01 X5.4569 Y10.7444
G01 X5.4518 Y10.7529
G01 X5.4476 Y10.7617
G01 X5.4443 Y10.7710
G01 X5.4419 Y10.7805
G01 X5.4405 Y10.7902
G01 X5.4400 Y10.8000
G01 X5.4405 Y10.8098
G01 X5.4419 Y10.8195
G01 X5.4443 Y10.8290
G01 X5.4476 Y10.8383
G01 X5.4518 Y10.8471
G01 X5.4569 Y10.8556
G01 X5.4627 Y10.8634
G01 X5.4693 Y10.8707
G01 X5.4766 Y10.8773
G01 X5.4844 Y10.8831
G01 X5.4929 Y10.8882
G01 X5.5017 Y10.8924
G01 X5.5110 Y10.8957
G01 X5.5205 Y10.8981
G01 X5.5302 Y10.8995
G01 X5.5400 Y10.9000
G01 X5.5498 Y10.8995
G01 X5.5595 Y10.8981
G01 X5.5690 Y10.8957
G01 X5.5783 Y10.8924
G01 X5.5871 Y10.8882
G01 X5.5956 Y10.8831
G01 X5.6034 Y10.8773
G01 X5.6107 Y10.8707
G01 X5.6173 Y10.8634
G01 X5.6231 Y10.8556
G01 X5.6282 Y10.8471
G01 X5.6324 Y10.8383
G01 X5.6357 Y10.8290
G01 X5.6381 Y10.8195
G01 X5.6395 Y10.8098
G01 X5.6400 Y10.8000
G00 X5.6400 Y10.8000
G01 F60.00
G01 Z-1.8000
G01 F120.00
G01 X5.6395 Y10.7902
G01 X5.6381 Y10.7805
G01 X5.6357 Y10.7710
G01 X5.6324 Y10.7617
G01 X5.6282 Y10.7529
G01 X5.6231 Y10.7444
G01 X5.6173 Y10.7366
G01 X5.6107 Y10.7293
G01 X5.6034 Y10.7227
G01 X5.5956 Y10.7169
G01 X5.5871 Y10.7118
G01 X5.5783 Y10.7076
G01 X5.5690 Y10.7043
G01 X5.5595 Y10.7019
G01 X5.5498 Y10.7005
G01 X5.5400 Y10.7000
G01 X5.5302 Y10.7005
G01 X5.5205 Y10.7019
G01 X5.5110 Y10.7043
G01 X5.5017 Y10.7076
G01 X5.4929 Y10.7118
G01 X5.4844 Y10.7169
G01 X5.4766 Y10.7227
G01 X5.4693 Y10.7293
G01 X5.4627 Y10.7366
G01 X5.4569 Y10.7444
G01 X5.4518 Y10.7529
G01 X5.4476 Y10.7617
G01 X5.4443 Y10.7710
G01 X5.4419 Y10.7805
G01 X5.4405 Y10.7902
G01 X5.4400 Y10.8000
G01 X5.4405 Y10.8098
G01 X5.4419 Y10.8195
G01 X5.4443 Y10.8290
G01 X5.4476 Y10.8383
G01 X5.4518 Y10.8471
G01 X5.4569 Y10.8556
G01 X5.4627 Y10.8634
G01 X5.4693 Y10.8707
G01 X5.4766 Y10.8773
G01 X5.4844 Y10.8831
G01 X5.4929 Y10.8882
G01 X5.5017 Y10.8924
G01 X5.5110 Y10.8957
G01 X5.5205 Y10.8981
G01 X5.5302 Y10.8995
G01 X5.5400 Y10.9000
G01 X5.5498 Y10.8995
G01 X5.5595 Y10.8981
G01 X5.5690 Y10.8957
G01 X5.5783 Y10.8924
G01 X5.5871 Y10.8882
G01 X5.5956 Y10.8831
G01 X5.6034 Y10.8773
G01 X5.6107 Y10.8707
G01 X5.6173 Y10.8634
G01 X5.6231 Y10.8556
G01 X5.6282 Y10.8471
G01 X5.6324 Y10.8383
G01 X5.6357 Y10.8290
G01 X5.6381 Y10.8195
G01 X5.6395 Y10.8098
G01 X5.6400 Y10.8000
G00 Z2.0000
G00 X8.1800 Y10.8000
G01 F60.00
G01 Z-0.4000
G01 F120.00
G01 X8.1795 Y10.7902
G01 X8.1781 Y10.7805
G01 X8.1757 Y10.7710
G01 X8.1724 Y10.7617
G01 X8.1682 Y10.7529
G01 X8.1631 Y10.7444
G01 X8.1573 Y10.7366
G01 X8.1507 Y10.7293
G01 X8.1434 Y10.7227
G01 X8.1356 Y10.7169
G01 X8.1271 Y10.7118
G01 X8.1183 Y10.7076
G01 X8.1090 Y10.7043
G01 X8.0995 Y10.7019
G01 X8.0898 Y10.7005
G01 X8.0800 Y10.7000
G01 X8.0702 Y10.7005
G01 X8.0605 Y10.7019
G01 X8.0510 Y10.7043
G01 X8.0417 Y10.7076
G01 X8.0329 Y10.7118
G01 X8.0244 Y10.7169
G01 X8.0166 Y10.7227
G01 X8.0093 Y10.7293
G01 X8.0027 Y10.7366
G01 X7.9969 Y10.7444
G01 X7.9918 Y10.7529
G01 X7.9876 Y10.7617
G01 X7.9843 Y10.7710
G01 X7.9819 Y10.7805
G01 X7.9805 Y10.7902
G01 X7.9800 Y10.8000
G01 X7.9805 Y10.8098
G01 X7.9819 Y10.8195
G01 X7.9843 Y10.8290
G01 X7.9876 Y10.8383
G01 X7.9918 Y10.8471
G01 X7.9969 Y10.8556
G01 X8.0027 Y10.8634
G01 X8.0093 Y10.8707
G01 X8.0166 Y10.8773
G01 X8.0244 Y10.8831
G01 X8.0329 Y10.8882
G01 X8.0417 Y10.8924
G01 X8.0510 Y10.8957
G01 X8.0605 Y10.8981
G01 X8.0702 Y10.8995
G01 X8.0800 Y10.9000
G01 X8.0898 Y10.8995
G01 X8.0995 Y10.8981
G01 X8.1090 Y10.8957
G01 X8.1183 Y10.8924
G01 X8.1271 Y10.8882
G01 X8.1356 Y10.8831
G01 X8.1434 Y10.8773
G01 X8.1507 Y10.8707
G01 X8.1573 Y10.8634
G01 X8.1631 Y10.8556
G01 X8.1682 Y10.8471
G01 X8.1724 Y10.8383
G01 X8.1757 Y10.8290
G01 X8.1781 Y10.8195
G01 X8.1795 Y10.8098
G01 X8.1800 Y10.8000
G00 X8.1800 Y10.8000
G01 F60.00
G01 Z-0.8000
G01 F120.00
G01 X8.1795 Y10.7902
G01 X8.1781 Y10.7805
G01 X8.1757 Y10.7710
G01 X8.1724 Y10.7617
G01 X8.1682 Y10.7529
G01 X8.1631 Y10.7444
G01 X8.1573 Y10.7366
G01 X8.1507 Y10.7293
G01 X8.1434 Y10.7227
G01 X8.1356 Y10.7169
G01 X8.1271 Y10.7118
G01 X8.1183 Y10.7076
G01 X8.1090 Y10.7043
G01 X8.0995 Y10.7019
G01 X8.0898 Y10.7005
G01 X8.0800 Y10.7000
G01 X8.0702 Y10.7005
G01 X8.0605 Y10.7019
G01 X8.0510 Y10.7043
G01 X8.0417 Y10.7076
G01 X8.0329 Y10.7118
G01 X8.0244 Y10.7169
G01 X8.0166 Y10.7227
G01 X8.0093 Y10.7293
G01 X8.0027 Y10.7366
G01 X7.9969 Y10.7444
G01 X7.9918 Y10.7529
G01 X7.9876 Y10.7617
G01 X7.9843 Y10.7710
G01 X7.9819 Y10.7805
G01 X7.9805 Y10.7902
G01 X7.9800 Y10.8000
G01 X7.9805 Y10.8098
G01 X7.9819 Y10.8195
G01 X7.9843 Y10.8290
G01 X7.9876 Y10.8383
G01 X7.9918 Y10.8471
G01 X7.9969 Y10.8556
G01 X8.0027 Y10.8634
G01 X8.0093 Y10.8707
G01 X8.0166 Y10.8773
G01 X8.0244 Y10.8831
G01 X8.0329 Y10.8882
G01 X8.0417 Y10.8924
G01 X8.0510 Y10.8957
G01 X8.0605 Y10.8981
G01 X8.0702 Y10.8995
G01 X8.0800 Y10.9000
G01 X8.0898 Y10.8995
G01 X8.0995 Y10.8981
G01 X8.1090 Y10.8957
G01 X8.1183 Y10.8924
G01 X8.1271 Y10.8882
G01 X8.1356 Y10.8831
G01 X8.1434 Y10.8773
G01 X8.1507 Y10.8707
G01 X8.1573 Y10.8634
G01 X8.1631 Y10.8556
G01 X8.1682 Y10.8471
G01 X8.1724 Y10.8383
G01 X8.1757 Y10.8290
G01 X8.1781 Y10.8195
G01 X8.1795 Y10.8098
G01 X8.1800 Y10.8000
G00 X8.1800 Y10.8000
G01 F60.00
G01 Z-1.2000
G01 F120.00
G01 X8.1795 Y10.7902
G01 X8.1781 Y10.7805
G01 X8.1757 Y10.7710
G01 X8.1724 Y10.7617
G01 X8.1682 Y10.7529
G01 X8.1631 Y10.7444
G01 X8.1573 Y10.7366
G01 X8.1507 Y10.7293
G01 X8.1434 Y10.7227
G01 X8.1356 Y10.7169
G01 X8.1271 Y10.7118
G01 X8.1183 Y10.7076
G01 X8.1090 Y10.7043
G01 X8.0995 Y10.7019
G01 X8.0898 Y10.7005
G01 X8.0800 Y10.7000
G01 X8.0702 Y10.7005
G01 X8.0605 Y10.7019
G01 X8.0510 Y10.7043
G01 X8.0417 Y10.7076
G01 X8.0329 Y10.7118
G01 X8.0244 Y10.7169
G01 X8.0166 Y10.7227
G01 X8.0093 Y10.7293
G01 X8.0027 Y10.7366
G01 X7.9969 Y10.7444
G01 X7.9918 Y10.7529
G01 X7.9876 Y10.7617
G01 X7.9843 Y10.7710
G01 X7.9819 Y10.7805
G01 X7.9805 Y10.7902
G01 X7.9800 Y10.8000
G01 X7.9805 Y10.8098
G01 X7.9819 Y10.8195
G01 X7.9843 Y10.8290
G01 X7.9876 Y10.8383
G01 X7.9918 Y10.8471
G01 X7.9969 Y10.8556
G01 X8.0027 Y10.8634
G01 X8.0093 Y10.8707
G01 X8.0166 Y10.8773
G01 X8.0244 Y10.8831
G01 X8.0329 Y10.8882
G01 X8.0417 Y10.8924
G01 X8.0510 Y10.8957
G01 X8.0605 Y10.8981
G01 X8.0702 Y10.8995
G01 X8.0800 Y10.9000
G01 X8.0898 Y10.8995
G01 X8.0995 Y10.8981
G01 X8.1090 Y10.8957
G01 X8.1183 Y10.8924
G01 X8.1271 Y10.8882
G01 X8.1356 Y10.8831
G01 X8.1434 Y10.8773
G01 X8.1507 Y10.8707
G01 X8.1573 Y10.8634
G01 X8.1631 Y10.8556
G01 X8.1682 Y10.8471
G01 X8.1724 Y10.8383
G01 X8.1757 Y10.8290
G01 X8.1781 Y10.8195
G01 X8.1795 Y10.8098
G01 X8.1800 Y10.8000
G00 X8.1800 Y10.8000
G01 F60.00
G01 Z-1.6000
G01 F120.00
G01 X8.1795 Y10.7902
G01 X8.1781 Y10.7805
G01 X8.1757 Y10.7710
G01 X8.1724 Y10.7617
G01 X8.1682 Y10.7529
G01 X8.1631 Y10.7444
G01 X8.1573 Y10.7366
G01 X8.1507 Y10.7293
G01 X8.1434 Y10.7227
G01 X8.1356 Y10.7169
G01 X8.1271 Y10.7118
G01 X8.1183 Y10.7076
G01 X8.1090 Y10.7043
G01 X8.0995 Y10.7019
G01 X8.0898 Y10.7005
G01 X8.0800 Y10.7000
G01 X8.0702 Y10.7005
G01 X8.0605 Y10.7019
G01 X8.0510 Y10.7043
G01 X8.0417 Y10.7076
G01 X8.0329 Y10.7118
G01 X8.0244 Y10.7169
G01 X8.0166 Y10.7227
G01 X8.0093 Y10.7293
G01 X8.0027 Y10.7366
G01 X7.9969 Y10.7444
G01 X7.9918 Y10.7529
G01 X7.9876 Y10.7617
G01 X7.9843 Y10.7710
G01 X7.9819 Y10.7805
G01 X7.9805 Y10.7902
G01 X7.9800 Y10.8000
G01 X7.9805 Y10.8098
G01 X7.9819 Y10.8195
G01 X7.9843 Y10.8290
G01 X7.9876 Y10.8383
G01 X7.9918 Y10.8471
G01 X7.9969 Y10.8556
G01 X8.0027 Y10.8634
G01 X8.0093 Y10.8707
G01 X8.0166 Y10.8773
G01 X8.0244 Y10.8831
G01 X8.0329 Y10.8882
G01 X8.0417 Y10.8924
G01 X8.0510 Y10.8957
G01 X8.0605 Y10.8981
G01 X8.0702 Y10.8995
G01 X8.0800 Y10.9000
G01 X8.0898 Y10.8995
G01 X8.0995 Y10.8981
G01 X8.1090 Y10.8957
G01 X8.1183 Y10.8924
G01 X8.1271 Y10.8882
G01 X8.1356 Y10.8831
G01 X8.1434 Y10.8773
G01 X8.1507 Y10.8707
G01 X8.1573 Y10.8634
G01 X8.1631 Y10.8556
G01 X8.1682 Y10.8471
G01 X8.1724 Y10.8383
G01 X8.1757 Y10.8290
G01 X8.1781 Y10.8195
G01 X8.1795 Y10.8098
G01 X8.1800 Y10.8000
G00 X8.1800 Y10.8000
G01 F60.00
G01 Z-1.8000
G01 F120.00
G01 X8.1795 Y10.7902
G01 X8.1781 Y10.7805
G01 X8.1757 Y10.7710
G01 X8.1724 Y10.7617
G01 X8.1682 Y10.7529
G01 X8.1631 Y10.7444
G01 X8.1573 Y10.7366
G01 X8.1507 Y10.7293
G01 X8.1434 Y10.7227
G01 X8.1356 Y10.7169
G01 X8.1271 Y10.7118
G01 X8.1183 Y10.7076
G01 X8.1090 Y10.7043
G01 X8.0995 Y10.7019
G01 X8.0898 Y10.7005
G01 X8.0800 Y10.7000
G01 X8.0702 Y10.7005
G01 X8.0605 Y10.7019
G01 X8.0510 Y10.7043
G01 X8.0417 Y10.7076
G01 X8.0329 Y10.7118
G01 X8.0244 Y10.7169
G01 X8.0166 Y10.7227
G01 X8.0093 Y10.7293
G01 X8.0027 Y10.7366
G01 X7.9969 Y10.7444
G01 X7.9918 Y10.7529
G01 X7.9876 Y10.7617
G01 X7.9843 Y10.7710
G01 X7.9819 Y10.7805
G01 X7.9805 Y10.7902
G01 X7.9800 Y10.8000
G01 X7.9805 Y10.8098
G01 X7.9819 Y10.8195
G01 X7.9843 Y10.8290
G01 X7.9876 Y10.8383
G01 X7.9918 Y10.8471
G01 X7.9969 Y10.8556
G01 X8.0027 Y10.8634
G01 X8.0093 Y10.8707
G01 X8.0166 Y10.8773
G01 X8.0244 Y10.8831
G01 X8.0329 Y10.8882
G01 X8.0417 Y10.8924
G01 X8.0510 Y10.8957
G01 X8.0605 Y10.8981
G01 X8.0702 Y10.8995
G01 X8.0800 Y10.9000
G01 X8.0898 Y10.8995
G01 X8.0995 Y10.8981
G01 X8.1090 Y10.8957
G01 X8.1183 Y10.8924
G01 X8.1271 Y10.8882
G01 X8.1356 Y10.8831
G01 X8.1434 Y10.8773
G01 X8.1507 Y10.8707
G01 X8.1573 Y10.8634
G01 X8.1631 Y10.8556
G01 X8.1682 Y10.8471
G01 X8.1724 Y10.8383
G01 X8.1757 Y10.8290
G01 X8.1781 Y10.8195
G01 X8.1795 Y10.8098
G01 X8.1800 Y10.8000
G00 Z2.0000
G00 X8.0800 Y18.8000
G01 F60.00
G01 Z-0.4000
G01 F120.00
G01 X8.0795 Y18.7902
G01 X8.0781 Y18.7805
G01 X8.0757 Y18.7710
G01 X8.0724 Y18.7617
G01 X8.0682 Y18.7529
G01 X8.0631 Y18.7444
G01 X8.0573 Y18.7366
G01 X8.0507 Y18.7293
G01 X8.0434 Y18.7227
G01 X8.0356 Y18.7169
G01 X8.0271 Y18.7118
G01 X8.0183 Y18.7076
G01 X8.0090 Y18.7043
G01 X7.9995 Y18.7019
G01 X7.9898 Y18.7005
G01 X7.9800 Y18.7000
G01 X7.9702 Y18.7005
G01 X7.9605 Y18.7019
G01 X7.9510 Y18.7043
G01 X7.9417 Y18.7076
G01 X7.9329 Y18.7118
G01 X7.9244 Y18.7169
G01 X7.9166 Y18.7227
G01 X7.9093 Y18.7293
G01 X7.9027 Y18.7366
G01 X7.8969 Y18.7444
G01 X7.8918 Y18.7529
G01 X7.8876 Y18.7617
G01 X7.8843 Y18.7710
G01 X7.8819 Y18.7805
G01 X7.8805 Y18.7902
G01 X7.8800 Y18.8000
G01 X7.8805 Y18.8098
G01 X7.8819 Y18.8195
G01 X7.8843 Y18.8290
G01 X7.8876 Y18.8383
G01 X7.8918 Y18.8471
G01 X7.8969 Y18.8556
G01 X7.9027 Y18.8634
G01 X7.9093 Y18.8707
G01 X7.9166 Y18.8773
G01 X7.9244 Y18.8831
G01 X7.9329 Y18.8882
G01 X7.9417 Y18.8924
G01 X7.9510 Y18.8957
G01 X7.9605 Y18.8981
G01 X7.9702 Y18.8995
G01 X7.9800 Y18.9000
G01 X7.9898 Y18.8995
G01 X7.9995 Y18.8981
G01 X8.0090 Y18.8957
G01 X8.0183 Y18.8924
G01 X8.0271 Y18.8882
G01 X8.0356 Y18.8831
G01 X8.0434 Y18.8773
G01 X8.0507 Y18.8707
G01 X8.0573 Y18.8634
G01 X8.0631 Y18.8556
G01 X8.0682 Y18.8471
G01 X8.0724 Y18.8383
G01 X8.0757 Y18.8290
G01 X8.0781 Y18.8195
G01 X8.0795 Y18.8098
G01 X8.0800 Y18.8000
G00 X8.0800 Y18.8000
G01 F60.00
G01 Z-0.8000
G01 F120.00
G01 X8.0795 Y18.7902
G01 X8.0781 Y18.7805
G01 X8.0757 Y18.7710
G01 X8.0724 Y18.7617
G01 X8.0682 Y18.7529
G01 X8.0631 Y18.7444
G01 X8.0573 Y18.7366
G01 X8.0507 Y18.7293
G01 X8.0434 Y18.7227
G01 X8.0356 Y18.7169
G01 X8.0271 Y18.7118
G01 X8.0183 Y18.7076
G01 X8.0090 Y18.7043
G01 X7.9995 Y18.7019
G01 X7.9898 Y18.7005
G01 X7.9800 Y18.7000
G01 X7.9702 Y18.7005
G01 X7.9605 Y18.7019
G01 X7.9510 Y18.7043
G01 X7.9417 Y18.7076
G01 X7.9329 Y18.7118
G01 X7.9244 Y18.7169
G01 X7.9166 Y18.7227
G01 X7.9093 Y18.7293
G01 X7.9027 Y18.7366
G01 X7.8969 Y18.7444
G01 X7.8918 Y18.7529
G01 X7.8876 Y18.7617
G01 X7.8843 Y18.7710
G01 X7.8819 Y18.7805
G01 X7.8805 Y18.7902
G01 X7.8800 Y18.8000
G01 X7.8805 Y18.8098
G01 X7.8819 Y18.8195
G01 X7.8843 Y18.8290
G01 X7.8876 Y18.8383
G01 X7.8918 Y18.8471
G01 X7.8969 Y18.8556
G01 X7.9027 Y18.8634
G01 X7.9093 Y18.8707
G01 X7.9166 Y18.8773
G01 X7.9244 Y18.8831
G01 X7.9329 Y18.8882
G01 X7.9417 Y18.8924
G01 X7.9510 Y18.8957
G01 X7.9605 Y18.8981
G01 X7.9702 Y18.8995
G01 X7.9800 Y18.9000
G01 X7.9898 Y18.8995
G01 X7.9995 Y18.8981
G01 X8.0090 Y18.8957
G01 X8.0183 Y18.8924
G01 X8.0271 Y18.8882
G01 X8.0356 Y18.8831
G01 X8.0434 Y18.8773
G01 X8.0507 Y18.8707
G01 X8.0573 Y18.8634
G01 X8.0631 Y18.8556
G01 X8.0682 Y18.8471
G01 X8.0724 Y18.8383
G01 X8.0757 Y18.8290
G01 X8.0781 Y18.8195
G01 X8.0795 Y18.8098
G01 X8.0800 Y18.8000
G00 X8.0800 Y18.8000
G01 F60.00
G01 Z-1.2000
G01 F120.00
G01 X8.0795 Y18.7902
G01 X8.0781 Y18.7805
G01 X8.0757 Y18.7710
G01 X8.0724 Y18.7617
G01 X8.0682 Y18.7529
G01 X8.0631 Y18.7444
G01 X8.0573 Y18.7366
G01 X8.0507 Y18.7293
G01 X8.0434 Y18.7227
G01 X8.0356 Y18.7169
G01 X8.0271 Y18.7118
G01 X8.0183 Y18.7076
G01 X8.0090 Y18.7043
G01 X7.9995 Y18.7019
G01 X7.9898 Y18.7005
G01 X7.9800 Y18.7000
G01 X7.9702 Y18.7005
G01 X7.9605 Y18.7019
G01 X7.9510 Y18.7043
G01 X7.9417 Y18.7076
G01 X7.9329 Y18.7118
G01 X7.9244 Y18.7169
G01 X7.9166 Y18.7227
G01 X7.9093 Y18.7293
G01 X7.9027 Y18.7366
G01 X7.8969 Y18.7444
G01 X7.8918 Y18.7529
G01 X7.8876 Y18.7617
G01 X7.8843 Y18.7710
G01 X7.8819 Y18.7805
G01 X7.8805 Y18.7902
G01 X7.8800 Y18.8000
G01 X7.8805 Y18.8098
G01 X7.8819 Y18.8195
G01 X7.8843 Y18.8290
G01 X7.8876 Y18.8383
G01 X7.8918 Y18.8471
G01 X7.8969 Y18.8556
G01 X7.9027 Y18.8634
G01 X7.9093 Y18.8707
G01 X7.9166 Y18.8773
G01 X7.9244 Y18.8831
G01 X7.9329 Y18.8882
G01 X7.9417 Y18.8924
G01 X7.9510 Y18.8957
G01 X7.9605 Y18.8981
G01 X7.9702 Y18.8995
G01 X7.9800 Y18.9000
G01 X7.9898 Y18.8995
G01 X7.9995 Y18.8981
G01 X8.0090 Y18.8957
G01 X8.0183 Y18.8924
G01 X8.0271 Y18.8882
G01 X8.0356 Y18.8831
G01 X8.0434 Y18.8773
G01 X8.0507 Y18.8707
G01 X8.0573 Y18.8634
G01 X8.0631 Y18.8556
G01 X8.0682 Y18.8471
G01 X8.0724 Y18.8383
G01 X8.0757 Y18.8290
G01 X8.0781 Y18.8195
G01 X8.0795 Y18.8098
G01 X8.0800 Y18.8000
G00 X8.0800 Y18.8000
G01 F60.00
G01 Z-1.6000
G01 F120.00
G01 X8.0795 Y18.7902
G01 X8.0781 Y18.7805
G01 X8.0757 Y18.7710
G01 X8.0724 Y18.7617
G01 X8.0682 Y18.7529
G01 X8.0631 Y18.7444
G01 X8.0573 Y18.7366
G01 X8.0507 Y18.7293
G01 X8.0434 Y18.7227
G01 X8.0356 Y18.7169
G01 X8.0271 Y18.7118
G01 X8.0183 Y18.7076
G01 X8.0090 Y18.7043
G01 X7.9995 Y18.7019
G01 X7.9898 Y18.7005
G01 X7.9800 Y18.7000
G01 X7.9702 Y18.7005
G01 X7.9605 Y18.7019
G01 X7.9510 Y18.7043
G01 X7.9417 Y18.7076
G01 X7.9329 Y18.7118
G01 X7.9244 Y18.7169
G01 X7.9166 Y18.7227
G01 X7.9093 Y18.7293
G01 X7.9027 Y18.7366
G01 X7.8969 Y18.7444
G01 X7.8918 Y18.7529
G01 X7.8876 Y18.7617
G01 X7.8843 Y18.7710
G01 X7.8819 Y18.7805
G01 X7.8805 Y18.7902
G01 X7.8800 Y18.8000
G01 X7.8805 Y18.8098
G01 X7.8819 Y18.8195
G01 X7.8843 Y18.8290
G01 X7.8876 Y18.8383
G01 X7.8918 Y18.8471
G01 X7.8969 Y18.8556
G01 X7.9027 Y18.8634
G01 X7.9093 Y18.8707
G01 X7.9166 Y18.8773
G01 X7.9244 Y18.8831
G01 X7.9329 Y18.8882
G01 X7.9417 Y18.8924
G01 X7.9510 Y18.8957
G01 X7.9605 Y18.8981
G01 X7.9702 Y18.8995
G01 X7.9800 Y18.9000
G01 X7.9898 Y18.8995
G01 X7.9995 Y18.8981
G01 X8.0090 Y18.8957
G01 X8.0183 Y18.8924
G01 X8.0271 Y18.8882
G01 X8.0356 Y18.8831
G01 X8.0434 Y18.8773
G01 X8.0507 Y18.8707
G01 X8.0573 Y18.8634
G01 X8.0631 Y18.8556
G01 X8.0682 Y18.8471
G01 X8.0724 Y18.8383
G01 X8.0757 Y18.8290
G01 X8.0781 Y18.8195
G01 X8.0795 Y18.8098
G01 X8.0800 Y18.8000
G00 X8.0800 Y18.8000
G01 F60.00
G01 Z-1.8000
G01 F120.00
G01 X8.0795 Y18.7902
G01 X8.0781 Y18.7805
G01 X8.0757 Y18.7710
G01 X8.0724 Y18.7617
G01 X8.0682 Y18.7529
G01 X8.0631 Y18.7444
G01 X8.0573 Y18.7366
G01 X8.0507 Y18.7293
G01 X8.0434 Y18.7227
G01 X8.0356 Y18.7169
G01 X8.0271 Y18.7118
G01 X8.0183 Y18.7076
G01 X8.0090 Y18.7043
G01 X7.9995 Y18.7019
G01 X7.9898 Y18.7005
G01 X7.9800 Y18.7000
G01 X7.9702 Y18.7005
G01 X7.9605 Y18.7019
G01 X7.9510 Y18.7043
G01 X7.9417 Y18.7076
G01 X7.9329 Y18.7118
G01 X7.9244 Y18.7169
G01 X7.9166 Y18.7227
G01 X7.9093 Y18.7293
G01 X7.9027 Y18.7366
G01 X7.8969 Y18.7444
G01 X7.8918 Y18.7529
G01 X7.8876 Y18.7617
G01 X7.8843 Y18.7710
G01 X7.8819 Y18.7805
G01 X7.8805 Y18.7902
G01 X7.8800 Y18.8000
G01 X7.8805 Y18.8098
G01 X7.8819 Y18.8195
G01 X7.8843 Y18.8290
G01 X7.8876 Y18.8383
G01 X7.8918 Y18.8471
G01 X7.8969 Y18.8556
G01 X7.9027 Y18.8634
G01 X7.9093 Y18.8707
G01 X7.9166 Y18.8773
G01 X7.9244 Y18.8831
G01 X7.9329 Y18.8882
G01 X7.9417 Y18.8924
G01 X7.9510 Y18.8957
G01 X7.9605 Y18.8981
G01 X7.9702 Y18.8995
G01 X7.9800 Y18.9000
G01 X7.9898 Y18.8995
G01 X7.9995 Y18.8981
G01 X8.0090 Y18.8957
G01 X8.0183 Y18.8924
G01 X8.0271 Y18.8882
G01 X8.0356 Y18.8831
G01 X8.0434 Y18.8773
G01 X8.0507 Y18.8707
G01 X8.0573 Y18.8634
G01 X8.0631 Y18.8556
G01 X8.0682 Y18.8471
G01 X8.0724 Y18.8383
G01 X8.0757 Y18.8290
G01 X8.0781 Y18.8195
G01 X8.0795 Y18.8098
G01 X8.0800 Y18.8000
G00 Z2.0000
G00 X5.5400 Y18.8000
G01 F60.00
G01 Z-0.4000
G01 F120.00
G01 X5.5395 Y18.7902
G01 X5.5381 Y18.7805
G01 X5.5357 Y18.7710
G01 X5.5324 Y18.7617
G01 X5.5282 Y18.7529
G01 X5.5231 Y18.7444
G01 X5.5173 Y18.7366
G01 X5.5107 Y18.7293
G01 X5.5034 Y18.7227
G01 X5.4956 Y18.7169
G01 X5.4871 Y18.7118
G01 X5.4783 Y18.7076
G01 X5.4690 Y18.7043
G01 X5.4595 Y18.7019
G01 X5.4498 Y18.7005
G01 X5.4400 Y18.7000
G01 X5.4302 Y18.7005
G01 X5.4205 Y18.7019
G01 X5.4110 Y18.7043
G01 X5.4017 Y18.7076
G01 X5.3929 Y18.7118
G01 X5.3844 Y18.7169
G01 X5.3766 Y18.7227
G01 X5.3693 Y18.7293
G01 X5.3627 Y18.7366
G01 X5.3569 Y18.7444
G01 X5.3518 Y18.7529
G01 X5.3476 Y18.7617
G01 X5.3443 Y18.7710
G01 X5.3419 Y18.7805
G01 X5.3405 Y18.7902
G01 X5.3400 Y18.8000
G01 X5.3405 Y18.8098
G01 X5.3419 Y18.8195
G01 X5.3443 Y18.8290
G01 X5.3476 Y18.8383
G01 X5.3518 Y18.8471
G01 X5.3569 Y18.8556
G01 X5.3627 Y18.8634
G01 X5.3693 Y18.8707
G01 X5.3766 Y18.8773
G01 X5.3844 Y18.8831
G01 X5.3929 Y18.8882
G01 X5.4017 Y18.8924
G01 X5.4110 Y18.8957
G01 X5.4205 Y18.8981
G01 X5.4302 Y18.8995
G01 X5.4400 Y18.9000
G01 X5.4498 Y18.8995
G01 X5.4595 Y18.8981
G01 X5.4690 Y18.8957
G01 X5.4783 Y18.8924
G01 X5.4871 Y18.8882
G01 X5.4956 Y18.8831
G01 X5.5034 Y18.8773
G01 X5.5107 Y18.8707
G01 X5.5173 Y18.8634
G01 X5.5231 Y18.8556
G01 X5.5282 Y18.8471
G01 X5.5324 Y18.8383
G01 X5.5357 Y18.8290
G01 X5.5381 Y18.8195
G01 X5.5395 Y18.8098
G01 X5.5400 Y18.8000
G00 X5.5400 Y18.8000
G01 F60.00
G01 Z-0.8000
G01 F120.00
G01 X5.5395 Y18.7902
G01 X5.5381 Y18.7805
G01 X5.5357 Y18.7710
G01 X5.5324 Y18.7617
G01 X5.5282 Y18.7529
G01 X5.5231 Y18.7444
G01 X5.5173 Y18.7366
G01 X5.5107 Y18.7293
G01 X5.5034 Y18.7227
G01 X5.4956 Y18.7169
G01 X5.4871 Y18.7118
G01 X5.4783 Y18.7076
G01 X5.4690 Y18.7043
G01 X5.4595 Y18.7019
G01 X5.4498 Y18.7005
G01 X5.4400 Y18.7000
G01 X5.4302 Y18.7005
G01 X5.4205 Y18.7019
G01 X5.4110 Y18.7043
G01 X5.4017 Y18.7076
G01 X5.3929 Y18.7118
G01 X5.3844 Y18.7169
G01 X5.3766 Y18.7227
G01 X5.3693 Y18.7293
G01 X5.3627 Y18.7366
G01 X5.3569 Y18.7444
G01 X5.3518 Y18.7529
G01 X5.3476 Y18.7617
G01 X5.3443 Y18.7710
G01 X5.3419 Y18.7805
G01 X5.3405 Y18.7902
G01 X5.3400 Y18.8000
G01 X5.3405 Y18.8098
G01 X5.3419 Y18.8195
G01 X5.3443 Y18.8290
G01 X5.3476 Y18.8383
G01 X5.3518 Y18.8471
G01 X5.3569 Y18.8556
G01 X5.3627 Y18.8634
G01 X5.3693 Y18.8707
G01 X5.3766 Y18.8773
G01 X5.3844 Y18.8831
G01 X5.3929 Y18.8882
G01 X5.4017 Y18.8924
G01 X5.4110 Y18.8957
G01 X5.4205 Y18.8981
G01 X5.4302 Y18.8995
G01 X5.4400 Y18.9000
G01 X5.4498 Y18.8995
G01 X5.4595 Y18.8981
G01 X5.4690 Y18.8957
G01 X5.4783 Y18.8924
G01 X5.4871 Y18.8882
G01 X5.4956 Y18.8831
G01 X5.5034 Y18.8773
G01 X5.5107 Y18.8707
G01 X5.5173 Y18.8634
G01 X5.5231 Y18.8556
G01 X5.5282 Y18.8471
G01 X5.5324 Y18.8383
G01 X5.5357 Y18.8290
G01 X5.5381 Y18.8195
G01 X5.5395 Y18.8098
G01 X5.5400 Y18.8000
G00 X5.5400 Y18.8000
G01 F60.00
G01 Z-1.2000
G01 F120.00
G01 X5.5395 Y18.7902
G01 X5.5381 Y18.7805
G01 X5.5357 Y18.7710
G01 X5.5324 Y18.7617
G01 X5.5282 Y18.7529
G01 X5.5231 Y18.7444
G01 X5.5173 Y18.7366
G01 X5.5107 Y18.7293
G01 X5.5034 Y18.7227
G01 X5.4956 Y18.7169
G01 X5.4871 Y18.7118
G01 X5.4783 Y18.7076
G01 X5.4690 Y18.7043
G01 X5.4595 Y18.7019
G01 X5.4498 Y18.7005
G01 X5.4400 Y18.7000
G01 X5.4302 Y18.7005
G01 X5.4205 Y18.7019
G01 X5.4110 Y18.7043
G01 X5.4017 Y18.7076
G01 X5.3929 Y18.7118
G01 X5.3844 Y18.7169
G01 X5.3766 Y18.7227
G01 X5.3693 Y18.7293
G01 X5.3627 Y18.7366
G01 X5.3569 Y18.7444
G01 X5.3518 Y18.7529
G01 X5.3476 Y18.7617
G01 X5.3443 Y18.7710
G01 X5.3419 Y18.7805
G01 X5.3405 Y18.7902
G01 X5.3400 Y18.8000
G01 X5.3405 Y18.8098
G01 X5.3419 Y18.8195
G01 X5.3443 Y18.8290
G01 X5.3476 Y18.8383
G01 X5.3518 Y18.8471
G01 X5.3569 Y18.8556
G01 X5.3627 Y18.8634
G01 X5.3693 Y18.8707
G01 X5.3766 Y18.8773
G01 X5.3844 Y18.8831
G01 X5.3929 Y18.8882
G01 X5.4017 Y18.8924
G01 X5.4110 Y18.8957
G01 X5.4205 Y18.8981
G01 X5.4302 Y18.8995
G01 X5.4400 Y18.9000
G01 X5.4498 Y18.8995
G01 X5.4595 Y18.8981
G01 X5.4690 Y18.8957
G01 X5.4783 Y18.8924
G01 X5.4871 Y18.8882
G01 X5.4956 Y18.8831
G01 X5.5034 Y18.8773
G01 X5.5107 Y18.8707
G01 X5.5173 Y18.8634
G01 X5.5231 Y18.8556
G01 X5.5282 Y18.8471
G01 X5.5324 Y18.8383
G01 X5.5357 Y18.8290
G01 X5.5381 Y18.8195
G01 X5.5395 Y18.8098
G01 X5.5400 Y18.8000
G00 X5.5400 Y18.8000
G01 F60.00
G01 Z-1.6000
G01 F120.00
G01 X5.5395 Y18.7902
G01 X5.5381 Y18.7805
G01 X5.5357 Y18.7710
G01 X5.5324 Y18.7617
G01 X5.5282 Y18.7529
G01 X5.5231 Y18.7444
G01 X5.5173 Y18.7366
G01 X5.5107 Y18.7293
G01 X5.5034 Y18.7227
G01 X5.4956 Y18.7169
G01 X5.4871 Y18.7118
G01 X5.4783 Y18.7076
G01 X5.4690 Y18.7043
G01 X5.4595 Y18.7019
G01 X5.4498 Y18.7005
G01 X5.4400 Y18.7000
G01 X5.4302 Y18.7005
G01 X5.4205 Y18.7019
G01 X5.4110 Y18.7043
G01 X5.4017 Y18.7076
G01 X5.3929 Y18.7118
G01 X5.3844 Y18.7169
G01 X5.3766 Y18.7227
G01 X5.3693 Y18.7293
G01 X5.3627 Y18.7366
G01 X5.3569 Y18.7444
G01 X5.3518 Y18.7529
G01 X5.3476 Y18.7617
G01 X5.3443 Y18.7710
G01 X5.3419 Y18.7805
G01 X5.3405 Y18.7902
G01 X5.3400 Y18.8000
G01 X5.3405 Y18.8098
G01 X5.3419 Y18.8195
G01 X5.3443 Y18.8290
G01 X5.3476 Y18.8383
G01 X5.3518 Y18.8471
G01 X5.3569 Y18.8556
G01 X5.3627 Y18.8634
G01 X5.3693 Y18.8707
G01 X5.3766 Y18.8773
G01 X5.3844 Y18.8831
G01 X5.3929 Y18.8882
G01 X5.4017 Y18.8924
G01 X5.4110 Y18.8957
G01 X5.4205 Y18.8981
G01 X5.4302 Y18.8995
G01 X5.4400 Y18.9000
G01 X5.4498 Y18.8995
G01 X5.4595 Y18.8981
G01 X5.4690 Y18.8957
G01 X5.4783 Y18.8924
G01 X5.4871 Y18.8882
G01 X5.4956 Y18.8831
G01 X5.5034 Y18.8773
G01 X5.5107 Y18.8707
G01 X5.5173 Y18.8634
G01 X5.5231 Y18.8556
G01 X5.5282 Y18.8471
G01 X5.5324 Y18.8383
G01 X5.5357 Y18.8290
G01 X5.5381 Y18.8195
G01 X5.5395 Y18.8098
G01 X5.5400 Y18.8000
G00 X5.5400 Y18.8000
G01 F60.00
G01 Z-1.8000
G01 F120.00
G01 X5.5395 Y18.7902
G01 X5.5381 Y18.7805
G01 X5.5357 Y18.7710
G01 X5.5324 Y18.7617
G01 X5.5282 Y18.7529
G01 X5.5231 Y18.7444
G01 X5.5173 Y18.7366
G01 X5.5107 Y18.7293
G01 X5.5034 Y18.7227
G01 X5.4956 Y18.7169
G01 X5.4871 Y18.7118
G01 X5.4783 Y18.7076
G01 X5.4690 Y18.7043
G01 X5.4595 Y18.7019
G01 X5.4498 Y18.7005
G01 X5.4400 Y18.7000
G01 X5.4302 Y18.7005
G01 X5.4205 Y18.7019
G01 X5.4110 Y18.7043
G01 X5.4017 Y18.7076
G01 X5.3929 Y18.7118
G01 X5.3844 Y18.7169
G01 X5.3766 Y18.7227
G01 X5.3693 Y18.7293
G01 X5.3627 Y18.7366
G01 X5.3569 Y18.7444
G01 X5.3518 Y18.7529
G01 X5.3476 Y18.7617
G01 X5.3443 Y18.7710
G01 X5.3419 Y18.7805
G01 X5.3405 Y18.7902
G01 X5.3400 Y18.8000
G01 X5.3405 Y18.8098
G01 X5.3419 Y18.8195
G01 X5.3443 Y18.8290
G01 X5.3476 Y18.8383
G01 X5.3518 Y18.8471
G01 X5.3569 Y18.8556
G01 X5.3627 Y18.8634
G01 X5.3693 Y18.8707
G01 X5.3766 Y18.8773
G01 X5.3844 Y18.8831
G01 X5.3929 Y18.8882
G01 X5.4017 Y18.8924
G01 X5.4110 Y18.8957
G01 X5.4205 Y18.8981
G01 X5.4302 Y18.8995
G01 X5.4400 Y18.9000
G01 X5.4498 Y18.8995
G01 X5.4595 Y18.8981
G01 X5.4690 Y18.8957
G01 X5.4783 Y18.8924
G01 X5.4871 Y18.8882
G01 X5.4956 Y18.8831
G01 X5.5034 Y18.8773
G01 X5.5107 Y18.8707
G01 X5.5173 Y18.8634
G01 X5.5231 Y18.8556
G01 X5.5282 Y18.8471
G01 X5.5324 Y18.8383
G01 X5.5357 Y18.8290
G01 X5.5381 Y18.8195
G01 X5.5395 Y18.8098
G01 X5.5400 Y18.8000
G00 Z2.0000
G00 X3.0000 Y18.8000
G01 F60.00
G01 Z-0.4000
G01 F120.00
G01 X2.9995 Y18.7902
G01 X2.9981 Y18.7805
G01 X2.9957 Y18.7710
G01 X2.9924 Y18.7617
G01 X2.9882 Y18.7529
G01 X2.9831 Y18.7444
G01 X2.9773 Y18.7366
G01 X2.9707 Y18.7293
G01 X2.9634 Y18.7227
G01 X2.9556 Y18.7169
G01 X2.9471 Y18.7118
G01 X2.9383 Y18.7076
G01 X2.9290 Y18.7043
G01 X2.9195 Y18.7019
G01 X2.9098 Y18.7005
G01 X2.9000 Y18.7000
G01 X2.8902 Y18.7005
G01 X2.8805 Y18.7019
G01 X2.8710 Y18.7043
G01 X2.8617 Y18.7076
G01 X2.8529 Y18.7118
G01 X2.8444 Y18.7169
G01 X2.8366 Y18.7227
G01 X2.8293 Y18.7293
G01 X2.8227 Y18.7366
G01 X2.8169 Y18.7444
G01 X2.8118 Y18.7529
G01 X2.8076 Y18.7617
G01 X2.8043 Y18.7710
G01 X2.8019 Y18.7805
G01 X2.8005 Y18.7902
G01 X2.8000 Y18.8000
G01 X2.8005 Y18.8098
G01 X2.8019 Y18.8195
G01 X2.8043 Y18.8290
G01 X2.8076 Y18.8383
G01 X2.8118 Y18.8471
G01 X2.8169 Y18.8556
G01 X2.8227 Y18.8634
G01 X2.8293 Y18.8707
G01 X2.8366 Y18.8773
G01 X2.8444 Y18.8831
G01 X2.8529 Y18.8882
G01 X2.8617 Y18.8924
G01 X2.8710 Y18.8957
G01 X2.8805 Y18.8981
G01 X2.8902 Y18.8995
G01 X2.9000 Y18.9000
G01 X2.9098 Y18.8995
G01 X2.9195 Y18.8981
G01 X2.9290 Y18.8957
G01 X2.9383 Y18.8924
G01 X2.9471 Y18.8882
G01 X2.9556 Y18.8831
G01 X2.9634 Y18.8773
G01 X2.9707 Y18.8707
G01 X2.9773 Y18.8634
G01 X2.9831 Y18.8556
G01 X2.9882 Y18.8471
G01 X2.9924 Y18.8383
G01 X2.9957 Y18.8290
G01 X2.9981 Y18.8195
G01 X2.9995 Y18.8098
G01 X3.0000 Y18.8000
G00 X3.0000 Y18.8000
G01 F60.00
G01 Z-0.8000
G01 F120.00
G01 X2.9995 Y18.7902
G01 X2.9981 Y18.7805
G01 X2.9957 Y18.7710
G01 X2.9924 Y18.7617
G01 X2.9882 Y18.7529
G01 X2.9831 Y18.7444
G01 X2.9773 Y18.7366
G01 X2.9707 Y18.7293
G01 X2.9634 Y18.7227
G01 X2.9556 Y18.7169
G01 X2.9471 Y18.7118
G01 X2.9383 Y18.7076
G01 X2.9290 Y18.7043
G01 X2.9195 Y18.7019
G01 X2.9098 Y18.7005
G01 X2.9000 Y18.7000
G01 X2.8902 Y18.7005
G01 X2.8805 Y18.7019
G01 X2.8710 Y18.7043
G01 X2.8617 Y18.7076
G01 X2.8529 Y18.7118
G01 X2.8444 Y18.7169
G01 X2.8366 Y18.7227
G01 X2.8293 Y18.7293
G01 X2.8227 Y18.7366
G01 X2.8169 Y18.7444
G01 X2.8118 Y18.7529
G01 X2.8076 Y18.7617
G01 X2.8043 Y18.7710
G01 X2.8019 Y18.7805
G01 X2.8005 Y18.7902
G01 X2.8000 Y18.8000
G01 X2.8005 Y18.8098
G01 X2.8019 Y18.8195
G01 X2.8043 Y18.8290
G01 X2.8076 Y18.8383
G01 X2.8118 Y18.8471
G01 X2.8169 Y18.8556
G01 X2.8227 Y18.8634
G01 X2.8293 Y18.8707
G01 X2.8366 Y18.8773
G01 X2.8444 Y18.8831
G01 X2.8529 Y18.8882
G01 X2.8617 Y18.8924
G01 X2.8710 Y18.8957
G01 X2.8805 Y18.8981
G01 X2.8902 Y18.8995
G01 X2.9000 Y18.9000
G01 X2.9098 Y18.8995
G01 X2.9195 Y18.8981
G01 X2.9290 Y18.8957
G01 X2.9383 Y18.8924
G01 X2.9471 Y18.8882
G01 X2.9556 Y18.8831
G01 X2.9634 Y18.8773
G01 X2.9707 Y18.8707
G01 X2.9773 Y18.8634
G01 X2.9831 Y18.8556
G01 X2.9882 Y18.8471
G01 X2.9924 Y18.8383
G01 X2.9957 Y18.8290
G01 X2.9981 Y18.8195
G01 X2.9995 Y18.8098
G01 X3.0000 Y18.8000
G00 X3.0000 Y18.8000
G01 F60.00
G01 Z-1.2000
G01 F120.00
G01 X2.9995 Y18.7902
G01 X2.9981 Y18.7805
G01 X2.9957 Y18.7710
G01 X2.9924 Y18.7617
G01 X2.9882 Y18.7529
G01 X2.9831 Y18.7444
G01 X2.9773 Y18.7366
G01 X2.9707 Y18.7293
G01 X2.9634 Y18.7227
G01 X2.9556 Y18.7169
G01 X2.9471 Y18.7118
G01 X2.9383 Y18.7076
G01 X2.9290 Y18.7043
G01 X2.9195 Y18.7019
G01 X2.9098 Y18.7005
G01 X2.9000 Y18.7000
G01 X2.8902 Y18.7005
G01 X2.8805 Y18.7019
G01 X2.8710 Y18.7043
G01 X2.8617 Y18.7076
G01 X2.8529 Y18.7118
G01 X2.8444 Y18.7169
G01 X2.8366 Y18.7227
G01 X2.8293 Y18.7293
G01 X2.8227 Y18.7366
G01 X2.8169 Y18.7444
G01 X2.8118 Y18.7529
G01 X2.8076 Y18.7617
G01 X2.8043 Y18.7710
G01 X2.8019 Y18.7805
G01 X2.8005 Y18.7902
G01 X2.8000 Y18.8000
G01 X2.8005 Y18.8098
G01 X2.8019 Y18.8195
G01 X2.8043 Y18.8290
G01 X2.8076 Y18.8383
G01 X2.8118 Y18.8471
G01 X2.8169 Y18.8556
G01 X2.8227 Y18.8634
G01 X2.8293 Y18.8707
G01 X2.8366 Y18.8773
G01 X2.8444 Y18.8831
G01 X2.8529 Y18.8882
G01 X2.8617 Y18.8924
G01 X2.8710 Y18.8957
G01 X2.8805 Y18.8981
G01 X2.8902 Y18.8995
G01 X2.9000 Y18.9000
G01 X2.9098 Y18.8995
G01 X2.9195 Y18.8981
G01 X2.9290 Y18.8957
G01 X2.9383 Y18.8924
G01 X2.9471 Y18.8882
G01 X2.9556 Y18.8831
G01 X2.9634 Y18.8773
G01 X2.9707 Y18.8707
G01 X2.9773 Y18.8634
G01 X2.9831 Y18.8556
G01 X2.9882 Y18.8471
G01 X2.9924 Y18.8383
G01 X2.9957 Y18.8290
G01 X2.9981 Y18.8195
G01 X2.9995 Y18.8098
G01 X3.0000 Y18.8000
G00 X3.0000 Y18.8000
G01 F60.00
G01 Z-1.6000
G01 F120.00
G01 X2.9995 Y18.7902
G01 X2.9981 Y18.7805
G01 X2.9957 Y18.7710
G01 X2.9924 Y18.7617
G01 X2.9882 Y18.7529
G01 X2.9831 Y18.7444
G01 X2.9773 Y18.7366
G01 X2.9707 Y18.7293
G01 X2.9634 Y18.7227
G01 X2.9556 Y18.7169
G01 X2.9471 Y18.7118
G01 X2.9383 Y18.7076
G01 X2.9290 Y18.7043
G01 X2.9195 Y18.7019
G01 X2.9098 Y18.7005
G01 X2.9000 Y18.7000
G01 X2.8902 Y18.7005
G01 X2.8805 Y18.7019
G01 X2.8710 Y18.7043
G01 X2.8617 Y18.7076
G01 X2.8529 Y18.7118
G01 X2.8444 Y18.7169
G01 X2.8366 Y18.7227
G01 X2.8293 Y18.7293
G01 X2.8227 Y18.7366
G01 X2.8169 Y18.7444
G01 X2.8118 Y18.7529
G01 X2.8076 Y18.7617
G01 X2.8043 Y18.7710
G01 X2.8019 Y18.7805
G01 X2.8005 Y18.7902
G01 X2.8000 Y18.8000
G01 X2.8005 Y18.8098
G01 X2.8019 Y18.8195
G01 X2.8043 Y18.8290
G01 X2.8076 Y18.8383
G01 X2.8118 Y18.8471
G01 X2.8169 Y18.8556
G01 X2.8227 Y18.8634
G01 X2.8293 Y18.8707
G01 X2.8366 Y18.8773
G01 X2.8444 Y18.8831
G01 X2.8529 Y18.8882
G01 X2.8617 Y18.8924
G01 X2.8710 Y18.8957
G01 X2.8805 Y18.8981
G01 X2.8902 Y18.8995
G01 X2.9000 Y18.9000
G01 X2.9098 Y18.8995
G01 X2.9195 Y18.8981
G01 X2.9290 Y18.8957
G01 X2.9383 Y18.8924
G01 X2.9471 Y18.8882
G01 X2.9556 Y18.8831
G01 X2.9634 Y18.8773
G01 X2.9707 Y18.8707
G01 X2.9773 Y18.8634
G01 X2.9831 Y18.8556
G01 X2.9882 Y18.8471
G01 X2.9924 Y18.8383
G01 X2.9957 Y18.8290
G01 X2.9981 Y18.8195
G01 X2.9995 Y18.8098
G01 X3.0000 Y18.8000
G00 X3.0000 Y18.8000
G01 F60.00
G01 Z-1.8000
G01 F120.00
G01 X2.9995 Y18.7902
G01 X2.9981 Y18.7805
G01 X2.9957 Y18.7710
G01 X2.9924 Y18.7617
G01 X2.9882 Y18.7529
G01 X2.9831 Y18.7444
G01 X2.9773 Y18.7366
G01 X2.9707 Y18.7293
G01 X2.9634 Y18.7227
G01 X2.9556 Y18.7169
G01 X2.9471 Y18.7118
G01 X2.9383 Y18.7076
G01 X2.9290 Y18.7043
G01 X2.9195 Y18.7019
G01 X2.9098 Y18.7005
G01 X2.9000 Y18.7000
G01 X2.8902 Y18.7005
G01 X2.8805 Y18.7019
G01 X2.8710 Y18.7043
G01 X2.8617 Y18.7076
G01 X2.8529 Y18.7118
G01 X2.8444 Y18.7169
G01 X2.8366 Y18.7227
G01 X2.8293 Y18.7293
G01 X2.8227 Y18.7366
G01 X2.8169 Y18.7444
G01 X2.8118 Y18.7529
G01 X2.8076 Y18.7617
G01 X2.8043 Y18.7710
G01 X2.8019 Y18.7805
G01 X2.8005 Y18.7902
G01 X2.8000 Y18.8000
G01 X2.8005 Y18.8098
G01 X2.8019 Y18.8195
G01 X2.8043 Y18.8290
G01 X2.8076 Y18.8383
G01 X2.8118 Y18.8471
G01 X2.8169 Y18.8556
G01 X2.8227 Y18.8634
G01 X2.8293 Y18.8707
G01 X2.8366 Y18.8773
G01 X2.8444 Y18.8831
G01 X2.8529 Y18.8882
G01 X2.8617 Y18.8924
G01 X2.8710 Y18.8957
G01 X2.8805 Y18.8981
G01 X2.8902 Y18.8995
G01 X2.9000 Y18.9000
G01 X2.9098 Y18.8995
G01 X2.9195 Y18.8981
G01 X2.9290 Y18.8957
G01 X2.9383 Y18.8924
G01 X2.9471 Y18.8882
G01 X2.9556 Y18.8831
G01 X2.9634 Y18.8773
G01 X2.9707 Y18.8707
G01 X2.9773 Y18.8634
G01 X2.9831 Y18.8556
G01 X2.9882 Y18.8471
G01 X2.9924 Y18.8383
G01 X2.9957 Y18.8290
G01 X2.9981 Y18.8195
G01 X2.9995 Y18.8098
G01 X3.0000 Y18.8000
G00 Z2.0000
G00 X14.4000 Y21.1400
G01 F60.00
G01 Z-0.4000
G01 F120.00
G01 X14.3995 Y21.1302
G01 X14.3981 Y21.1205
G01 X14.3957 Y21.1110
G01 X14.3924 Y21.1017
G01 X14.3882 Y21.0929
G01 X14.3831 Y21.0844
G01 X14.3773 Y21.0766
G01 X14.3707 Y21.0693
G01 X14.3634 Y21.0627
G01 X14.3556 Y21.0569
G01 X14.3471 Y21.0518
G01 X14.3383 Y21.0476
G01 X14.3290 Y21.0443
G01 X14.3195 Y21.0419
G01 X14.3098 Y21.0405
G01 X14.3000 Y21.0400
G01 X14.2902 Y21.0405
G01 X14.2805 Y21.0419
G01 X14.2710 Y21.0443
G01 X14.2617 Y21.0476
G01 X14.2529 Y21.0518
G01 X14.2444 Y21.0569
G01 X14.2366 Y21.0627
G01 X14.2293 Y21.0693
G01 X14.2227 Y21.0766
G01 X14.2169 Y21.0844
G01 X14.2118 Y21.0929
G01 X14.2076 Y21.1017
G01 X14.2043 Y21.1110
G01 X14.2019 Y21.1205
G01 X14.2005 Y21.1302
G01 X14.2000 Y21.1400
G01 X14.2005 Y21.1498
G01 X14.2019 Y21.1595
G01 X14.2043 Y21.1690
G01 X14.2076 Y21.1783
G01 X14.2118 Y21.1871
G01 X14.2169 Y21.1956
G01 X14.2227 Y21.2034
G01 X14.2293 Y21.2107
G01 X14.2366 Y21.2173
G01 X14.2444 Y21.2231
G01 X14.2529 Y21.2282
G01 X14.2617 Y21.2324
G01 X14.2710 Y21.2357
G01 X14.2805 Y21.2381
G01 X14.2902 Y21.2395
G01 X14.3000 Y21.2400
G01 X14.3098 Y21.2395
G01 X14.3195 Y21.2381
G01 X14.3290 Y21.2357
G01 X14.3383 Y21.2324
G01 X14.3471 Y21.2282
G01 X14.3556 Y21.2231
G01 X14.3634 Y21.2173
G01 X14.3707 Y21.2107
G01 X14.3773 Y21.2034
G01 X14.3831 Y21.1956
G01 X14.3882 Y21.1871
G01 X14.3924 Y21.1783
G01 X14.3957 Y21.1690
G01 X14.3981 Y21.1595
G01 X14.3995 Y21.1498
G01 X14.4000 Y21.1400
G00 X14.4000 Y21.1400
G01 F60.00
G01 Z-0.8000
G01 F120.00
G01 X14.3995 Y21.1302
G01 X14.3981 Y21.1205
G01 X14.3957 Y21.1110
G01 X14.3924 Y21.1017
G01 X14.3882 Y21.0929
G01 X14.3831 Y21.0844
G01 X14.3773 Y21.0766
G01 X14.3707 Y21.0693
G01 X14.3634 Y21.0627
G01 X14.3556 Y21.0569
G01 X14.3471 Y21.0518
G01 X14.3383 Y21.0476
G01 X14.3290 Y21.0443
G01 X14.3195 Y21.0419
G01 X14.3098 Y21.0405
G01 X14.3000 Y21.0400
G01 X14.2902 Y21.0405
G01 X14.2805 Y21.0419
G01 X14.2710 Y21.0443
G01 X14.2617 Y21.0476
G01 X14.2529 Y21.0518
G01 X14.2444 Y21.0569
G01 X14.2366 Y21.0627
G01 X14.2293 Y21.0693
G01 X14.2227 Y21.0766
G01 X14.2169 Y21.0844
G01 X14.2118 Y21.0929
G01 X14.2076 Y21.1017
G01 X14.2043 Y21.1110
G01 X14.2019 Y21.1205
G01 X14.2005 Y21.1302
G01 X14.2000 Y21.1400
G01 X14.2005 Y21.1498
G01 X14.2019 Y21.1595
G01 X14.2043 Y21.1690
G01 X14.2076 Y21.1783
G01 X14.2118 Y21.1871
G01 X14.2169 Y21.1956
G01 X14.2227 Y21.2034
G01 X14.2293 Y21.2107
G01 X14.2366 Y21.2173
G01 X14.2444 Y21.2231
G01 X14.2529 Y21.2282
G01 X14.2617 Y21.2324
G01 X14.2710 Y21.2357
G01 X14.2805 Y21.2381
G01 X14.2902 Y21.2395
G01 X14.3000 Y21.2400
G01 X14.3098 Y21.2395
G01 X14.3195 Y21.2381
G01 X14.3290 Y21.2357
G01 X14.3383 Y21.2324
G01 X14.3471 Y21.2282
G01 X14.3556 Y21.2231
G01 X14.3634 Y21.2173
G01 X14.3707 Y21.2107
G01 X14.3773 Y21.2034
G01 X14.3831 Y21.1956
G01 X14.3882 Y21.1871
G01 X14.3924 Y21.1783
G01 X14.3957 Y21.1690
G01 X14.3981 Y21.1595
G01 X14.3995 Y21.1498
G01 X14.4000 Y21.1400
G00 X14.4000 Y21.1400
G01 F60.00
G01 Z-1.2000
G01 F120.00
G01 X14.3995 Y21.1302
G01 X14.3981 Y21.1205
G01 X14.3957 Y21.1110
G01 X14.3924 Y21.1017
G01 X14.3882 Y21.0929
G01 X14.3831 Y21.0844
G01 X14.3773 Y21.0766
G01 X14.3707 Y21.0693
G01 X14.3634 Y21.0627
G01 X14.3556 Y21.0569
G01 X14.3471 Y21.0518
G01 X14.3383 Y21.0476
G01 X14.3290 Y21.0443
G01 X14.3195 Y21.0419
G01 X14.3098 Y21.0405
G01 X14.3000 Y21.0400
G01 X14.2902 Y21.0405
G01 X14.2805 Y21.0419
G01 X14.2710 Y21.0443
G01 X14.2617 Y21.0476
G01 X14.2529 Y21.0518
G01 X14.2444 Y21.0569
G01 X14.2366 Y21.0627
G01 X14.2293 Y21.0693
G01 X14.2227 Y21.0766
G01 X14.2169 Y21.0844
G01 X14.2118 Y21.0929
G01 X14.2076 Y21.1017
G01 X14.2043 Y21.1110
G01 X14.2019 Y21.1205
G01 X14.2005 Y21.1302
G01 X14.2000 Y21.1400
G01 X14.2005 Y21.1498
G01 X14.2019 Y21.1595
G01 X14.2043 Y21.1690
G01 X14.2076 Y21.1783
G01 X14.2118 Y21.1871
G01 X14.2169 Y21.1956
G01 X14.2227 Y21.2034
G01 X14.2293 Y21.2107
G01 X14.2366 Y21.2173
G01 X14.2444 Y21.2231
G01 X14.2529 Y21.2282
G01 X14.2617 Y21.2324
G01 X14.2710 Y21.2357
G01 X14.2805 Y21.2381
G01 X14.2902 Y21.2395
G01 X14.3000 Y21.2400
G01 X14.3098 Y21.2395
G01 X14.3195 Y21.2381
G01 X14.3290 Y21.2357
G01 X14.3383 Y21.2324
G01 X14.3471 Y21.2282
G01 X14.3556 Y21.2231
G01 X14.3634 Y21.2173
G01 X14.3707 Y21.2107
G01 X14.3773 Y21.2034
G01 X14.3831 Y21.1956
G01 X14.3882 Y21.1871
G01 X14.3924 Y21.1783
G01 X14.3957 Y21.1690
G01 X14.3981 Y21.1595
G01 X14.3995 Y21.1498
G01 X14.4000 Y21.1400
G00 X14.4000 Y21.1400
G01 F60.00
G01 Z-1.6000
G01 F120.00
G01 X14.3995 Y21.1302
G01 X14.3981 Y21.1205
G01 X14.3957 Y21.1110
G01 X14.3924 Y21.1017
G01 X14.3882 Y21.0929
G01 X14.3831 Y21.0844
G01 X14.3773 Y21.0766
G01 X14.3707 Y21.0693
G01 X14.3634 Y21.0627
G01 X14.3556 Y21.0569
G01 X14.3471 Y21.0518
G01 X14.3383 Y21.0476
G01 X14.3290 Y21.0443
G01 X14.3195 Y21.0419
G01 X14.3098 Y21.0405
G01 X14.3000 Y21.0400
G01 X14.2902 Y21.0405
G01 X14.2805 Y21.0419
G01 X14.2710 Y21.0443
G01 X14.2617 Y21.0476
G01 X14.2529 Y21.0518
G01 X14.2444 Y21.0569
G01 X14.2366 Y21.0627
G01 X14.2293 Y21.0693
G01 X14.2227 Y21.0766
G01 X14.2169 Y21.0844
G01 X14.2118 Y21.0929
G01 X14.2076 Y21.1017
G01 X14.2043 Y21.1110
G01 X14.2019 Y21.1205
G01 X14.2005 Y21.1302
G01 X14.2000 Y21.1400
G01 X14.2005 Y21.1498
G01 X14.2019 Y21.1595
G01 X14.2043 Y21.1690
G01 X14.2076 Y21.1783
G01 X14.2118 Y21.1871
G01 X14.2169 Y21.1956
G01 X14.2227 Y21.2034
G01 X14.2293 Y21.2107
G01 X14.2366 Y21.2173
G01 X14.2444 Y21.2231
G01 X14.2529 Y21.2282
G01 X14.2617 Y21.2324
G01 X14.2710 Y21.2357
G01 X14.2805 Y21.2381
G01 X14.2902 Y21.2395
G01 X14.3000 Y21.2400
G01 X14.3098 Y21.2395
G01 X14.3195 Y21.2381
G01 X14.3290 Y21.2357
G01 X14.3383 Y21.2324
G01 X14.3471 Y21.2282
G01 X14.3556 Y21.2231
G01 X14.3634 Y21.2173
G01 X14.3707 Y21.2107
G01 X14.3773 Y21.2034
G01 X14.3831 Y21.1956
G01 X14.3882 Y21.1871
G01 X14.3924 Y21.1783
G01 X14.3957 Y21.1690
G01 X14.3981 Y21.1595
G01 X14.3995 Y21.1498
G01 X14.4000 Y21.1400
G00 X14.4000 Y21.1400
G01 F60.00
G01 Z-1.8000
G01 F120.00
G01 X14.3995 Y21.1302
G01 X14.3981 Y21.1205
G01 X14.3957 Y21.1110
G01 X14.3924 Y21.1017
G01 X14.3882 Y21.0929
G01 X14.3831 Y21.0844
G01 X14.3773 Y21.0766
G01 X14.3707 Y21.0693
G01 X14.3634 Y21.0627
G01 X14.3556 Y21.0569
G01 X14.3471 Y21.0518
G01 X14.3383 Y21.0476
G01 X14.3290 Y21.0443
G01 X14.3195 Y21.0419
G01 X14.3098 Y21.0405
G01 X14.3000 Y21.0400
G01 X14.2902 Y21.0405
G01 X14.2805 Y21.0419
G01 X14.2710 Y21.0443
G01 X14.2617 Y21.0476
G01 X14.2529 Y21.0518
G01 X14.2444 Y21.0569
G01 X14.2366 Y21.0627
G01 X14.2293 Y21.0693
G01 X14.2227 Y21.0766
G01 X14.2169 Y21.0844
G01 X14.2118 Y21.0929
G01 X14.2076 Y21.1017
G01 X14.2043 Y21.1110
G01 X14.2019 Y21.1205
G01 X14.2005 Y21.1302
G01 X14.2000 Y21.1400
G01 X14.2005 Y21.1498
G01 X14.2019 Y21.1595
G01 X14.2043 Y21.1690
G01 X14.2076 Y21.1783
G01 X14.2118 Y21.1871
G01 X14.2169 Y21.1956
G01 X14.2227 Y21.2034
G01 X14.2293 Y21.2107
G01 X14.2366 Y21.2173
G01 X14.2444 Y21.2231
G01 X14.2529 Y21.2282
G01 X14.2617 Y21.2324
G01 X14.2710 Y21.2357
G01 X14.2805 Y21.2381
G01 X14.2902 Y21.2395
G01 X14.3000 Y21.2400
G01 X14.3098 Y21.2395
G01 X14.3195 Y21.2381
G01 X14.3290 Y21.2357
G01 X14.3383 Y21.2324
G01 X14.3471 Y21.2282
G01 X14.3556 Y21.2231
G01 X14.3634 Y21.2173
G01 X14.3707 Y21.2107
G01 X14.3773 Y21.2034
G01 X14.3831 Y21.1956
G01 X14.3882 Y21.1871
G01 X14.3924 Y21.1783
G01 X14.3957 Y21.1690
G01 X14.3981 Y21.1595
G01 X14.3995 Y21.1498
G01 X14.4000 Y21.1400
G00 Z2.0000
G00 X14.4000 Y23.6800
G01 F60.00
G01 Z-0.4000
G01 F120.00
G01 X14.3995 Y23.6702
G01 X14.3981 Y23.6605
G01 X14.3957 Y23.6510
G01 X14.3924 Y23.6417
G01 X14.3882 Y23.6329
G01 X14.3831 Y23.6244
G01 X14.3773 Y23.6166
G01 X14.3707 Y23.6093
G01 X14.3634 Y23.6027
G01 X14.3556 Y23.5969
G01 X14.3471 Y23.5918
G01 X14.3383 Y23.5876
G01 X14.3290 Y23.5843
G01 X14.3195 Y23.5819
G01 X14.3098 Y23.5805
G01 X14.3000 Y23.5800
G01 X14.2902 Y23.5805
G01 X14.2805 Y23.5819
G01 X14.2710 Y23.5843
G01 X14.2617 Y23.5876
G01 X14.2529 Y23.5918
G01 X14.2444 Y23.5969
G01 X14.2366 Y23.6027
G01 X14.2293 Y23.6093
G01 X14.2227 Y23.6166
G01 X14.2169 Y23.6244
G01 X14.2118 Y23.6329
G01 X14.2076 Y23.6417
G01 X14.2043 Y23.6510
G01 X14.2019 Y23.6605
G01 X14.2005 Y23.6702
G01 X14.2000 Y23.6800
G01 X14.2005 Y23.6898
G01 X14.2019 Y23.6995
G01 X14.2043 Y23.7090
G01 X14.2076 Y23.7183
G01 X14.2118 Y23.7271
G01 X14.2169 Y23.7356
G01 X14.2227 Y23.7434
G01 X14.2293 Y23.7507
G01 X14.2366 Y23.7573
G01 X14.2444 Y23.7631
G01 X14.2529 Y23.7682
G01 X14.2617 Y23.7724
G01 X14.2710 Y23.7757
G01 X14.2805 Y23.7781
G01 X14.2902 Y23.7795
G01 X14.3000 Y23.7800
G01 X14.3098 Y23.7795
G01 X14.3195 Y23.7781
G01 X14.3290 Y23.7757
G01 X14.3383 Y23.7724
G01 X14.3471 Y23.7682
G01 X14.3556 Y23.7631
G01 X14.3634 Y23.7573
G01 X14.3707 Y23.7507
G01 X14.3773 Y23.7434
G01 X14.3831 Y23.7356
G01 X14.3882 Y23.7271
G01 X14.3924 Y23.7183
G01 X14.3957 Y23.7090
G01 X14.3981 Y23.6995
G01 X14.3995 Y23.6898
G01 X14.4000 Y23.6800
G00 X14.4000 Y23.6800
G01 F60.00
G01 Z-0.8000
G01 F120.00
G01 X14.3995 Y23.6702
G01 X14.3981 Y23.6605
G01 X14.3957 Y23.6510
G01 X14.3924 Y23.6417
G01 X14.3882 Y23.6329
G01 X14.3831 Y23.6244
G01 X14.3773 Y23.6166
G01 X14.3707 Y23.6093
G01 X14.3634 Y23.6027
G01 X14.3556 Y23.5969
G01 X14.3471 Y23.5918
G01 X14.3383 Y23.5876
G01 X14.3290 Y23.5843
G01 X14.3195 Y23.5819
G01 X14.3098 Y23.5805
G01 X14.3000 Y23.5800
G01 X14.2902 Y23.5805
G01 X14.2805 Y23.5819
G01 X14.2710 Y23.5843
G01 X14.2617 Y23.5876
G01 X14.2529 Y23.5918
G01 X14.2444 Y23.5969
G01 X14.2366 Y23.6027
G01 X14.2293 Y23.6093
G01 X14.2227 Y23.6166
G01 X14.2169 Y23.6244
G01 X14.2118 Y23.6329
G01 X14.2076 Y23.6417
G01 X14.2043 Y23.6510
G01 X14.2019 Y23.6605
G01 X14.2005 Y23.6702
G01 X14.2000 Y23.6800
G01 X14.2005 Y23.6898
G01 X14.2019 Y23.6995
G01 X14.2043 Y23.7090
G01 X14.2076 Y23.7183
G01 X14.2118 Y23.7271
G01 X14.2169 Y23.7356
G01 X14.2227 Y23.7434
G01 X14.2293 Y23.7507
G01 X14.2366 Y23.7573
G01 X14.2444 Y23.7631
G01 X14.2529 Y23.7682
G01 X14.2617 Y23.7724
G01 X14.2710 Y23.7757
G01 X14.2805 Y23.7781
G01 X14.2902 Y23.7795
G01 X14.3000 Y23.7800
G01 X14.3098 Y23.7795
G01 X14.3195 Y23.7781
G01 X14.3290 Y23.7757
G01 X14.3383 Y23.7724
G01 X14.3471 Y23.7682
G01 X14.3556 Y23.7631
G01 X14.3634 Y23.7573
G01 X14.3707 Y23.7507
G01 X14.3773 Y23.7434
G01 X14.3831 Y23.7356
G01 X14.3882 Y23.7271
G01 X14.3924 Y23.7183
G01 X14.3957 Y23.7090
G01 X14.3981 Y23.6995
G01 X14.3995 Y23.6898
G01 X14.4000 Y23.6800
G00 X14.4000 Y23.6800
G01 F60.00
G01 Z-1.2000
G01 F120.00
G01 X14.3995 Y23.6702
G01 X14.3981 Y23.6605
G01 X14.3957 Y23.6510
G01 X14.3924 Y23.6417
G01 X14.3882 Y23.6329
G01 X14.3831 Y23.6244
G01 X14.3773 Y23.6166
G01 X14.3707 Y23.6093
G01 X14.3634 Y23.6027
G01 X14.3556 Y23.5969
G01 X14.3471 Y23.5918
G01 X14.3383 Y23.5876
G01 X14.3290 Y23.5843
G01 X14.3195 Y23.5819
G01 X14.3098 Y23.5805
G01 X14.3000 Y23.5800
G01 X14.2902 Y23.5805
G01 X14.2805 Y23.5819
G01 X14.2710 Y23.5843
G01 X14.2617 Y23.5876
G01 X14.2529 Y23.5918
G01 X14.2444 Y23.5969
G01 X14.2366 Y23.6027
G01 X14.2293 Y23.6093
G01 X14.2227 Y23.6166
G01 X14.2169 Y23.6244
G01 X14.2118 Y23.6329
G01 X14.2076 Y23.6417
G01 X14.2043 Y23.6510
G01 X14.2019 Y23.6605
G01 X14.2005 Y23.6702
G01 X14.2000 Y23.6800
G01 X14.2005 Y23.6898
G01 X14.2019 Y23.6995
G01 X14.2043 Y23.7090
G01 X14.2076 Y23.7183
G01 X14.2118 Y23.7271
G01 X14.2169 Y23.7356
G01 X14.2227 Y23.7434
G01 X14.2293 Y23.7507
G01 X14.2366 Y23.7573
G01 X14.2444 Y23.7631
G01 X14.2529 Y23.7682
G01 X14.2617 Y23.7724
G01 X14.2710 Y23.7757
G01 X14.2805 Y23.7781
G01 X14.2902 Y23.7795
G01 X14.3000 Y23.7800
G01 X14.3098 Y23.7795
G01 X14.3195 Y23.7781
G01 X14.3290 Y23.7757
G01 X14.3383 Y23.7724
G01 X14.3471 Y23.7682
G01 X14.3556 Y23.7631
G01 X14.3634 Y23.7573
G01 X14.3707 Y23.7507
G01 X14.3773 Y23.7434
G01 X14.3831 Y23.7356
G01 X14.3882 Y23.7271
G01 X14.3924 Y23.7183
G01 X14.3957 Y23.7090
G01 X14.3981 Y23.6995
G01 X14.3995 Y23.6898
G01 X14.4000 Y23.6800
G00 X14.4000 Y23.6800
G01 F60.00
G01 Z-1.6000
G01 F120.00
G01 X14.3995 Y23.6702
G01 X14.3981 Y23.6605
G01 X14.3957 Y23.6510
G01 X14.3924 Y23.6417
G01 X14.3882 Y23.6329
G01 X14.3831 Y23.6244
G01 X14.3773 Y23.6166
G01 X14.3707 Y23.6093
G01 X14.3634 Y23.6027
G01 X14.3556 Y23.5969
G01 X14.3471 Y23.5918
G01 X14.3383 Y23.5876
G01 X14.3290 Y23.5843
G01 X14.3195 Y23.5819
G01 X14.3098 Y23.5805
G01 X14.3000 Y23.5800
G01 X14.2902 Y23.5805
G01 X14.2805 Y23.5819
G01 X14.2710 Y23.5843
G01 X14.2617 Y23.5876
G01 X14.2529 Y23.5918
G01 X14.2444 Y23.5969
G01 X14.2366 Y23.6027
G01 X14.2293 Y23.6093
G01 X14.2227 Y23.6166
G01 X14.2169 Y23.6244
G01 X14.2118 Y23.6329
G01 X14.2076 Y23.6417
G01 X14.2043 Y23.6510
G01 X14.2019 Y23.6605
G01 X14.2005 Y23.6702
G01 X14.2000 Y23.6800
G01 X14.2005 Y23.6898
G01 X14.2019 Y23.6995
G01 X14.2043 Y23.7090
G01 X14.2076 Y23.7183
G01 X14.2118 Y23.7271
G01 X14.2169 Y23.7356
G01 X14.2227 Y23.7434
G01 X14.2293 Y23.7507
G01 X14.2366 Y23.7573
G01 X14.2444 Y23.7631
G01 X14.2529 Y23.7682
G01 X14.2617 Y23.7724
G01 X14.2710 Y23.7757
G01 X14.2805 Y23.7781
G01 X14.2902 Y23.7795
G01 X14.3000 Y23.7800
G01 X14.3098 Y23.7795
G01 X14.3195 Y23.7781
G01 X14.3290 Y23.7757
G01 X14.3383 Y23.7724
G01 X14.3471 Y23.7682
G01 X14.3556 Y23.7631
G01 X14.3634 Y23.7573
G01 X14.3707 Y23.7507
G01 X14.3773 Y23.7434
G01 X14.3831 Y23.7356
G01 X14.3882 Y23.7271
G01 X14.3924 Y23.7183
G01 X14.3957 Y23.7090
G01 X14.3981 Y23.6995
G01 X14.3995 Y23.6898
G01 X14.4000 Y23.6800
G00 X14.4000 Y23.6800
G01 F60.00
G01 Z-1.8000
G01 F120.00
G01 X14.3995 Y23.6702
G01 X14.3981 Y23.6605
G01 X14.3957 Y23.6510
G01 X14.3924 Y23.6417
G01 X14.3882 Y23.6329
G01 X14.3831 Y23.6244
G01 X14.3773 Y23.6166
G01 X14.3707 Y23.6093
G01 X14.3634 Y23.6027
G01 X14.3556 Y23.5969
G01 X14.3471 Y23.5918
G01 X14.3383 Y23.5876
G01 X14.3290 Y23.5843
G01 X14.3195 Y23.5819
G01 X14.3098 Y23.5805
G01 X14.3000 Y23.5800
G01 X14.2902 Y23.5805
G01 X14.2805 Y23.5819
G01 X14.2710 Y23.5843
G01 X14.2617 Y23.5876
G01 X14.2529 Y23.5918
G01 X14.2444 Y23.5969
G01 X14.2366 Y23.6027
G01 X14.2293 Y23.6093
G01 X14.2227 Y23.6166
G01 X14.2169 Y23.6244
G01 X14.2118 Y23.6329
G01 X14.2076 Y23.6417
G01 X14.2043 Y23.6510
G01 X14.2019 Y23.6605
G01 X14.2005 Y23.6702
G01 X14.2000 Y23.6800
G01 X14.2005 Y23.6898
G01 X14.2019 Y23.6995
G01 X14.2043 Y23.7090
G01 X14.2076 Y23.7183
G01 X14.2118 Y23.7271
G01 X14.2169 Y23.7356
G01 X14.2227 Y23.7434
G01 X14.2293 Y23.7507
G01 X14.2366 Y23.7573
G01 X14.2444 Y23.7631
G01 X14.2529 Y23.7682
G01 X14.2617 Y23.7724
G01 X14.2710 Y23.7757
G01 X14.2805 Y23.7781
G01 X14.2902 Y23.7795
G01 X14.3000 Y23.7800
G01 X14.3098 Y23.7795
G01 X14.3195 Y23.7781
G01 X14.3290 Y23.7757
G01 X14.3383 Y23.7724
G01 X14.3471 Y23.7682
G01 X14.3556 Y23.7631
G01 X14.3634 Y23.7573
G01 X14.3707 Y23.7507
G01 X14.3773 Y23.7434
G01 X14.3831 Y23.7356
G01 X14.3882 Y23.7271
G01 X14.3924 Y23.7183
G01 X14.3957 Y23.7090
G01 X14.3981 Y23.6995
G01 X14.3995 Y23.6898
G01 X14.4000 Y23.6800
G00 Z2.0000
G00 X29.6400 Y16.0600
G01 F60.00
G01 Z-0.4000
G01 F120.00
G01 X29.6395 Y16.0502
G01 X29.6381 Y16.0405
G01 X29.6357 Y16.0310
G01 X29.6324 Y16.0217
G01 X29.6282 Y16.0129
G01 X29.6231 Y16.0044
G01 X29.6173 Y15.9966
G01 X29.6107 Y15.9893
G01 X29.6034 Y15.9827
G01 X29.5956 Y15.9769
G01 X29.5871 Y15.9718
G01 X29.5783 Y15.9676
G01 X29.5690 Y15.9643
G01 X29.5595 Y15.9619
G01 X29.5498 Y15.9605
G01 X29.5400 Y15.9600
G01 X29.5302 Y15.9605
G01 X29.5205 Y15.9619
G01 X29.5110 Y15.9643
G01 X29.5017 Y15.9676
G01 X29.4929 Y15.9718
G01 X29.4844 Y15.9769
G01 X29.4766 Y15.9827
G01 X29.4693 Y15.9893
G01 X29.4627 Y15.9966
G01 X29.4569 Y16.0044
G01 X29.4518 Y16.0129
G01 X29.4476 Y16.0217
G01 X29.4443 Y16.0310
G01 X29.4419 Y16.0405
G01 X29.4405 Y16.0502
G01 X29.4400 Y16.0600
G01 X29.4405 Y16.0698
G01 X29.4419 Y16.0795
G01 X29.4443 Y16.0890
G01 X29.4476 Y16.0983
G01 X29.4518 Y16.1071
G01 X29.4569 Y16.1156
G01 X29.4627 Y16.1234
G01 X29.4693 Y16.1307
G01 X29.4766 Y16.1373
G01 X29.4844 Y16.1431
G01 X29.4929 Y16.1482
G01 X29.5017 Y16.1524
G01 X29.5110 Y16.1557
G01 X29.5205 Y16.1581
G01 X29.5302 Y16.1595
G01 X29.5400 Y16.1600
G01 X29.5498 Y16.1595
G01 X29.5595 Y16.1581
G01 X29.5690 Y16.1557
G01 X29.5783 Y16.1524
G01 X29.5871 Y16.1482
G01 X29.5956 Y16.1431
G01 X29.6034 Y16.1373
G01 X29.6107 Y16.1307
G01 X29.6173 Y16.1234
G01 X29.6231 Y16.1156
G01 X29.6282 Y16.1071
G01 X29.6324 Y16.0983
G01 X29.6357 Y16.0890
G01 X29.6381 Y16.0795
G01 X29.6395 Y16.0698
G01 X29.6400 Y16.0600
G00 X29.6400 Y16.0600
G01 F60.00
G01 Z-0.8000
G01 F120.00
G01 X29.6395 Y16.0502
G01 X29.6381 Y16.0405
G01 X29.6357 Y16.0310
G01 X29.6324 Y16.0217
G01 X29.6282 Y16.0129
G01 X29.6231 Y16.0044
G01 X29.6173 Y15.9966
G01 X29.6107 Y15.9893
G01 X29.6034 Y15.9827
G01 X29.5956 Y15.9769
G01 X29.5871 Y15.9718
G01 X29.5783 Y15.9676
G01 X29.5690 Y15.9643
G01 X29.5595 Y15.9619
G01 X29.5498 Y15.9605
G01 X29.5400 Y15.9600
G01 X29.5302 Y15.9605
G01 X29.5205 Y15.9619
G01 X29.5110 Y15.9643
G01 X29.5017 Y15.9676
G01 X29.4929 Y15.9718
G01 X29.4844 Y15.9769
G01 X29.4766 Y15.9827
G01 X29.4693 Y15.9893
G01 X29.4627 Y15.9966
G01 X29.4569 Y16.0044
G01 X29.4518 Y16.0129
G01 X29.4476 Y16.0217
G01 X29.4443 Y16.0310
G01 X29.4419 Y16.0405
G01 X29.4405 Y16.0502
G01 X29.4400 Y16.0600
G01 X29.4405 Y16.0698
G01 X29.4419 Y16.0795
G01 X29.4443 Y16.0890
G01 X29.4476 Y16.0983
G01 X29.4518 Y16.1071
G01 X29.4569 Y16.1156
G01 X29.4627 Y16.1234
G01 X29.4693 Y16.1307
G01 X29.4766 Y16.1373
G01 X29.4844 Y16.1431
G01 X29.4929 Y16.1482
G01 X29.5017 Y16.1524
G01 X29.5110 Y16.1557
G01 X29.5205 Y16.1581
G01 X29.5302 Y16.1595
G01 X29.5400 Y16.1600
G01 X29.5498 Y16.1595
G01 X29.5595 Y16.1581
G01 X29.5690 Y16.1557
G01 X29.5783 Y16.1524
G01 X29.5871 Y16.1482
G01 X29.5956 Y16.1431
G01 X29.6034 Y16.1373
G01 X29.6107 Y16.1307
G01 X29.6173 Y16.1234
G01 X29.6231 Y16.1156
G01 X29.6282 Y16.1071
G01 X29.6324 Y16.0983
G01 X29.6357 Y16.0890
G01 X29.6381 Y16.0795
G01 X29.6395 Y16.0698
G01 X29.6400 Y16.0600
G00 X29.6400 Y16.0600
G01 F60.00
G01 Z-1.2000
G01 F120.00
G01 X29.6395 Y16.0502
G01 X29.6381 Y16.0405
G01 X29.6357 Y16.0310
G01 X29.6324 Y16.0217
G01 X29.6282 Y16.0129
G01 X29.6231 Y16.0044
G01 X29.6173 Y15.9966
G01 X29.6107 Y15.9893
G01 X29.6034 Y15.9827
G01 X29.5956 Y15.9769
G01 X29.5871 Y15.9718
G01 X29.5783 Y15.9676
G01 X29.5690 Y15.9643
G01 X29.5595 Y15.9619
G01 X29.5498 Y15.9605
G01 X29.5400 Y15.9600
G01 X29.5302 Y15.9605
G01 X29.5205 Y15.9619
G01 X29.5110 Y15.9643
G01 X29.5017 Y15.9676
G01 X29.4929 Y15.9718
G01 X29.4844 Y15.9769
G01 X29.4766 Y15.9827
G01 X29.4693 Y15.9893
G01 X29.4627 Y15.9966
G01 X29.4569 Y16.0044
G01 X29.4518 Y16.0129
G01 X29.4476 Y16.0217
G01 X29.4443 Y16.0310
G01 X29.4419 Y16.0405
G01 X29.4405 Y16.0502
G01 X29.4400 Y16.0600
G01 X29.4405 Y16.0698
G01 X29.4419 Y16.0795
G01 X29.4443 Y16.0890
G01 X29.4476 Y16.0983
G01 X29.4518 Y16.1071
G01 X29.4569 Y16.1156
G01 X29.4627 Y16.1234
G01 X29.4693 Y16.1307
G01 X29.4766 Y16.1373
G01 X29.4844 Y16.1431
G01 X29.4929 Y16.1482
G01 X29.5017 Y16.1524
G01 X29.5110 Y16.1557
G01 X29.5205 Y16.1581
G01 X29.5302 Y16.1595
G01 X29.5400 Y16.1600
G01 X29.5498 Y16.1595
G01 X29.5595 Y16.1581
G01 X29.5690 Y16.1557
G01 X29.5783 Y16.1524
G01 X29.5871 Y16.1482
G01 X29.5956 Y16.1431
G01 X29.6034 Y16.1373
G01 X29.6107 Y16.1307
G01 X29.6173 Y16.1234
G01 X29.6231 Y16.1156
G01 X29.6282 Y16.1071
G01 X29.6324 Y16.0983
G01 X29.6357 Y16.0890
G01 X29.6381 Y16.0795
G01 X29.6395 Y16.0698
G01 X29.6400 Y16.0600
G00 X29.6400 Y16.0600
G01 F60.00
G01 Z-1.6000
G01 F120.00
G01 X29.6395 Y16.0502
G01 X29.6381 Y16.0405
G01 X29.6357 Y16.0310
G01 X29.6324 Y16.0217
G01 X29.6282 Y16.0129
G01 X29.6231 Y16.0044
G01 X29.6173 Y15.9966
G01 X29.6107 Y15.9893
G01 X29.6034 Y15.9827
G01 X29.5956 Y15.9769
G01 X29.5871 Y15.9718
G01 X29.5783 Y15.9676
G01 X29.5690 Y15.9643
G01 X29.5595 Y15.9619
G01 X29.5498 Y15.9605
G01 X29.5400 Y15.9600
G01 X29.5302 Y15.9605
G01 X29.5205 Y15.9619
G01 X29.5110 Y15.9643
G01 X29.5017 Y15.9676
G01 X29.4929 Y15.9718
G01 X29.4844 Y15.9769
G01 X29.4766 Y15.9827
G01 X29.4693 Y15.9893
G01 X29.4627 Y15.9966
G01 X29.4569 Y16.0044
G01 X29.4518 Y16.0129
G01 X29.4476 Y16.0217
G01 X29.4443 Y16.0310
G01 X29.4419 Y16.0405
G01 X29.4405 Y16.0502
G01 X29.4400 Y16.0600
G01 X29.4405 Y16.0698
G01 X29.4419 Y16.0795
G01 X29.4443 Y16.0890
G01 X29.4476 Y16.0983
G01 X29.4518 Y16.1071
G01 X29.4569 Y16.1156
G01 X29.4627 Y16.1234
G01 X29.4693 Y16.1307
G01 X29.4766 Y16.1373
G01 X29.4844 Y16.1431
G01 X29.4929 Y16.1482
G01 X29.5017 Y16.1524
G01 X29.5110 Y16.1557
G01 X29.5205 Y16.1581
G01 X29.5302 Y16.1595
G01 X29.5400 Y16.1600
G01 X29.5498 Y16.1595
G01 X29.5595 Y16.1581
G01 X29.5690 Y16.1557
G01 X29.5783 Y16.1524
G01 X29.5871 Y16.1482
G01 X29.5956 Y16.1431
G01 X29.6034 Y16.1373
G01 X29.6107 Y16.1307
G01 X29.6173 Y16.1234
G01 X29.6231 Y16.1156
G01 X29.6282 Y16.1071
G01 X29.6324 Y16.0983
G01 X29.6357 Y16.0890
G01 X29.6381 Y16.0795
G01 X29.6395 Y16.0698
G01 X29.6400 Y16.0600
G00 X29.6400 Y16.0600
G01 F60.00
G01 Z-1.8000
G01 F120.00
G01 X29.6395 Y16.0502
G01 X29.6381 Y16.0405
G01 X29.6357 Y16.0310
G01 X29.6324 Y16.0217
G01 X29.6282 Y16.0129
G01 X29.6231 Y16.0044
G01 X29.6173 Y15.9966
G01 X29.6107 Y15.9893
G01 X29.6034 Y15.9827
G01 X29.5956 Y15.9769
G01 X29.5871 Y15.9718
G01 X29.5783 Y15.9676
G01 X29.5690 Y15.9643
G01 X29.5595 Y15.9619
G01 X29.5498 Y15.9605
G01 X29.5400 Y15.9600
G01 X29.5302 Y15.9605
G01 X29.5205 Y15.9619
G01 X29.5110 Y15.9643
G01 X29.5017 Y15.9676
G01 X29.4929 Y15.9718
G01 X29.4844 Y15.9769
G01 X29.4766 Y15.9827
G01 X29.4693 Y15.9893
G01 X29.4627 Y15.9966
G01 X29.4569 Y16.0044
G01 X29.4518 Y16.0129
G01 X29.4476 Y16.0217
G01 X29.4443 Y16.0310
G01 X29.4419 Y16.0405
G01 X29.4405 Y16.0502
G01 X29.4400 Y16.0600
G01 X29.4405 Y16.0698
G01 X29.4419 Y16.0795
G01 X29.4443 Y16.0890
G01 X29.4476 Y16.0983
G01 X29.4518 Y16.1071
G01 X29.4569 Y16.1156
G01 X29.4627 Y16.1234
G01 X29.4693 Y16.1307
G01 X29.4766 Y16.1373
G01 X29.4844 Y16.1431
G01 X29.4929 Y16.1482
G01 X29.5017 Y16.1524
G01 X29.5110 Y16.1557
G01 X29.5205 Y16.1581
G01 X29.5302 Y16.1595
G01 X29.5400 Y16.1600
G01 X29.5498 Y16.1595
G01 X29.5595 Y16.1581
G01 X29.5690 Y16.1557
G01 X29.5783 Y16.1524
G01 X29.5871 Y16.1482
G01 X29.5956 Y16.1431
G01 X29.6034 Y16.1373
G01 X29.6107 Y16.1307
G01 X29.6173 Y16.1234
G01 X29.6231 Y16.1156
G01 X29.6282 Y16.1071
G01 X29.6324 Y16.0983
G01 X29.6357 Y16.0890
G01 X29.6381 Y16.0795
G01 X29.6395 Y16.0698
G01 X29.6400 Y16.0600
G00 Z2.0000
G00 X29.6400 Y13.5200
G01 F60.00
G01 Z-0.4000
G01 F120.00
G01 X29.6395 Y13.5102
G01 X29.6381 Y13.5005
G01 X29.6357 Y13.4910
G01 X29.6324 Y13.4817
G01 X29.6282 Y13.4729
G01 X29.6231 Y13.4644
G01 X29.6173 Y13.4566
G01 X29.6107 Y13.4493
G01 X29.6034 Y13.4427
G01 X29.5956 Y13.4369
G01 X29.5871 Y13.4318
G01 X29.5783 Y13.4276
G01 X29.5690 Y13.4243
G01 X29.5595 Y13.4219
G01 X29.5498 Y13.4205
G01 X29.5400 Y13.4200
G01 X29.5302 Y13.4205
G01 X29.5205 Y13.4219
G01 X29.5110 Y13.4243
G01 X29.5017 Y13.4276
G01 X29.4929 Y13.4318
G01 X29.4844 Y13.4369
G01 X29.4766 Y13.4427
G01 X29.4693 Y13.4493
G01 X29.4627 Y13.4566
G01 X29.4569 Y13.4644
G01 X29.4518 Y13.4729
G01 X29.4476 Y13.4817
G01 X29.4443 Y13.4910
G01 X29.4419 Y13.5005
G01 X29.4405 Y13.5102
G01 X29.4400 Y13.5200
G01 X29.4405 Y13.5298
G01 X29.4419 Y13.5395
G01 X29.4443 Y13.5490
G01 X29.4476 Y13.5583
G01 X29.4518 Y13.5671
G01 X29.4569 Y13.5756
G01 X29.4627 Y13.5834
G01 X29.4693 Y13.5907
G01 X29.4766 Y13.5973
G01 X29.4844 Y13.6031
G01 X29.4929 Y13.6082
G01 X29.5017 Y13.6124
G01 X29.5110 Y13.6157
G01 X29.5205 Y13.6181
G01 X29.5302 Y13.6195
G01 X29.5400 Y13.6200
G01 X29.5498 Y13.6195
G01 X29.5595 Y13.6181
G01 X29.5690 Y13.6157
G01 X29.5783 Y13.6124
G01 X29.5871 Y13.6082
G01 X29.5956 Y13.6031
G01 X29.6034 Y13.5973
G01 X29.6107 Y13.5907
G01 X29.6173 Y13.5834
G01 X29.6231 Y13.5756
G01 X29.6282 Y13.5671
G01 X29.6324 Y13.5583
G01 X29.6357 Y13.5490
G01 X29.6381 Y13.5395
G01 X29.6395 Y13.5298
G01 X29.6400 Y13.5200
G00 X29.6400 Y13.5200
G01 F60.00
G01 Z-0.8000
G01 F120.00
G01 X29.6395 Y13.5102
G01 X29.6381 Y13.5005
G01 X29.6357 Y13.4910
G01 X29.6324 Y13.4817
G01 X29.6282 Y13.4729
G01 X29.6231 Y13.4644
G01 X29.6173 Y13.4566
G01 X29.6107 Y13.4493
G01 X29.6034 Y13.4427
G01 X29.5956 Y13.4369
G01 X29.5871 Y13.4318
G01 X29.5783 Y13.4276
G01 X29.5690 Y13.4243
G01 X29.5595 Y13.4219
G01 X29.5498 Y13.4205
G01 X29.5400 Y13.4200
G01 X29.5302 Y13.4205
G01 X29.5205 Y13.4219
G01 X29.5110 Y13.4243
G01 X29.5017 Y13.4276
G01 X29.4929 Y13.4318
G01 X29.4844 Y13.4369
G01 X29.4766 Y13.4427
G01 X29.4693 Y13.4493
G01 X29.4627 Y13.4566
G01 X29.4569 Y13.4644
G01 X29.4518 Y13.4729
G01 X29.4476 Y13.4817
G01 X29.4443 Y13.4910
G01 X29.4419 Y13.5005
G01 X29.4405 Y13.5102
G01 X29.4400 Y13.5200
G01 X29.4405 Y13.5298
G01 X29.4419 Y13.5395
G01 X29.4443 Y13.5490
G01 X29.4476 Y13.5583
G01 X29.4518 Y13.5671
G01 X29.4569 Y13.5756
G01 X29.4627 Y13.5834
G01 X29.4693 Y13.5907
G01 X29.4766 Y13.5973
G01 X29.4844 Y13.6031
G01 X29.4929 Y13.6082
G01 X29.5017 Y13.6124
G01 X29.5110 Y13.6157
G01 X29.5205 Y13.6181
G01 X29.5302 Y13.6195
G01 X29.5400 Y13.6200
G01 X29.5498 Y13.6195
G01 X29.5595 Y13.6181
G01 X29.5690 Y13.6157
G01 X29.5783 Y13.6124
G01 X29.5871 Y13.6082
G01 X29.5956 Y13.6031
G01 X29.6034 Y13.5973
G01 X29.6107 Y13.5907
G01 X29.6173 Y13.5834
G01 X29.6231 Y13.5756
G01 X29.6282 Y13.5671
G01 X29.6324 Y13.5583
G01 X29.6357 Y13.5490
G01 X29.6381 Y13.5395
G01 X29.6395 Y13.5298
G01 X29.6400 Y13.5200
G00 X29.6400 Y13.5200
G01 F60.00
G01 Z-1.2000
G01 F120.00
G01 X29.6395 Y13.5102
G01 X29.6381 Y13.5005
G01 X29.6357 Y13.4910
G01 X29.6324 Y13.4817
G01 X29.6282 Y13.4729
G01 X29.6231 Y13.4644
G01 X29.6173 Y13.4566
G01 X29.6107 Y13.4493
G01 X29.6034 Y13.4427
G01 X29.5956 Y13.4369
G01 X29.5871 Y13.4318
G01 X29.5783 Y13.4276
G01 X29.5690 Y13.4243
G01 X29.5595 Y13.4219
G01 X29.5498 Y13.4205
G01 X29.5400 Y13.4200
G01 X29.5302 Y13.4205
G01 X29.5205 Y13.4219
G01 X29.5110 Y13.4243
G01 X29.5017 Y13.4276
G01 X29.4929 Y13.4318
G01 X29.4844 Y13.4369
G01 X29.4766 Y13.4427
G01 X29.4693 Y13.4493
G01 X29.4627 Y13.4566
G01 X29.4569 Y13.4644
G01 X29.4518 Y13.4729
G01 X29.4476 Y13.4817
G01 X29.4443 Y13.4910
G01 X29.4419 Y13.5005
G01 X29.4405 Y13.5102
G01 X29.4400 Y13.5200
G01 X29.4405 Y13.5298
G01 X29.4419 Y13.5395
G01 X29.4443 Y13.5490
G01 X29.4476 Y13.5583
G01 X29.4518 Y13.5671
G01 X29.4569 Y13.5756
G01 X29.4627 Y13.5834
G01 X29.4693 Y13.5907
G01 X29.4766 Y13.5973
G01 X29.4844 Y13.6031
G01 X29.4929 Y13.6082
G01 X29.5017 Y13.6124
G01 X29.5110 Y13.6157
G01 X29.5205 Y13.6181
G01 X29.5302 Y13.6195
G01 X29.5400 Y13.6200
G01 X29.5498 Y13.6195
G01 X29.5595 Y13.6181
G01 X29.5690 Y13.6157
G01 X29.5783 Y13.6124
G01 X29.5871 Y13.6082
G01 X29.5956 Y13.6031
G01 X29.6034 Y13.5973
G01 X29.6107 Y13.5907
G01 X29.6173 Y13.5834
G01 X29.6231 Y13.5756
G01 X29.6282 Y13.5671
G01 X29.6324 Y13.5583
G01 X29.6357 Y13.5490
G01 X29.6381 Y13.5395
G01 X29.6395 Y13.5298
G01 X29.6400 Y13.5200
G00 X29.6400 Y13.5200
G01 F60.00
G01 Z-1.6000
G01 F120.00
G01 X29.6395 Y13.5102
G01 X29.6381 Y13.5005
G01 X29.6357 Y13.4910
G01 X29.6324 Y13.4817
G01 X29.6282 Y13.4729
G01 X29.6231 Y13.4644
G01 X29.6173 Y13.4566
G01 X29.6107 Y13.4493
G01 X29.6034 Y13.4427
G01 X29.5956 Y13.4369
G01 X29.5871 Y13.4318
G01 X29.5783 Y13.4276
G01 X29.5690 Y13.4243
G01 X29.5595 Y13.4219
G01 X29.5498 Y13.4205
G01 X29.5400 Y13.4200
G01 X29.5302 Y13.4205
G01 X29.5205 Y13.4219
G01 X29.5110 Y13.4243
G01 X29.5017 Y13.4276
G01 X29.4929 Y13.4318
G01 X29.4844 Y13.4369
G01 X29.4766 Y13.4427
G01 X29.4693 Y13.4493
G01 X29.4627 Y13.4566
G01 X29.4569 Y13.4644
G01 X29.4518 Y13.4729
G01 X29.4476 Y13.4817
G01 X29.4443 Y13.4910
G01 X29.4419 Y13.5005
G01 X29.4405 Y13.5102
G01 X29.4400 Y13.5200
G01 X29.4405 Y13.5298
G01 X29.4419 Y13.5395
G01 X29.4443 Y13.5490
G01 X29.4476 Y13.5583
G01 X29.4518 Y13.5671
G01 X29.4569 Y13.5756
G01 X29.4627 Y13.5834
G01 X29.4693 Y13.5907
G01 X29.4766 Y13.5973
G01 X29.4844 Y13.6031
G01 X29.4929 Y13.6082
G01 X29.5017 Y13.6124
G01 X29.5110 Y13.6157
G01 X29.5205 Y13.6181
G01 X29.5302 Y13.6195
G01 X29.5400 Y13.6200
G01 X29.5498 Y13.6195
G01 X29.5595 Y13.6181
G01 X29.5690 Y13.6157
G01 X29.5783 Y13.6124
G01 X29.5871 Y13.6082
G01 X29.5956 Y13.6031
G01 X29.6034 Y13.5973
G01 X29.6107 Y13.5907
G01 X29.6173 Y13.5834
G01 X29.6231 Y13.5756
G01 X29.6282 Y13.5671
G01 X29.6324 Y13.5583
G01 X29.6357 Y13.5490
G01 X29.6381 Y13.5395
G01 X29.6395 Y13.5298
G01 X29.6400 Y13.5200
G00 X29.6400 Y13.5200
G01 F60.00
G01 Z-1.8000
G01 F120.00
G01 X29.6395 Y13.5102
G01 X29.6381 Y13.5005
G01 X29.6357 Y13.4910
G01 X29.6324 Y13.4817
G01 X29.6282 Y13.4729
G01 X29.6231 Y13.4644
G01 X29.6173 Y13.4566
G01 X29.6107 Y13.4493
G01 X29.6034 Y13.4427
G01 X29.5956 Y13.4369
G01 X29.5871 Y13.4318
G01 X29.5783 Y13.4276
G01 X29.5690 Y13.4243
G01 X29.5595 Y13.4219
G01 X29.5498 Y13.4205
G01 X29.5400 Y13.4200
G01 X29.5302 Y13.4205
G01 X29.5205 Y13.4219
G01 X29.5110 Y13.4243
G01 X29.5017 Y13.4276
G01 X29.4929 Y13.4318
G01 X29.4844 Y13.4369
G01 X29.4766 Y13.4427
G01 X29.4693 Y13.4493
G01 X29.4627 Y13.4566
G01 X29.4569 Y13.4644
G01 X29.4518 Y13.4729
G01 X29.4476 Y13.4817
G01 X29.4443 Y13.4910
G01 X29.4419 Y13.5005
G01 X29.4405 Y13.5102
G01 X29.4400 Y13.5200
G01 X29.4405 Y13.5298
G01 X29.4419 Y13.5395
G01 X29.4443 Y13.5490
G01 X29.4476 Y13.5583
G01 X29.4518 Y13.5671
G01 X29.4569 Y13.5756
G01 X29.4627 Y13.5834
G01 X29.4693 Y13.5907
G01 X29.4766 Y13.5973
G01 X29.4844 Y13.6031
G01 X29.4929 Y13.6082
G01 X29.5017 Y13.6124
G01 X29.5110 Y13.6157
G01 X29.5205 Y13.6181
G01 X29.5302 Y13.6195
G01 X29.5400 Y13.6200
G01 X29.5498 Y13.6195
G01 X29.5595 Y13.6181
G01 X29.5690 Y13.6157
G01 X29.5783 Y13.6124
G01 X29.5871 Y13.6082
G01 X29.5956 Y13.6031
G01 X29.6034 Y13.5973
G01 X29.6107 Y13.5907
G01 X29.6173 Y13.5834
G01 X29.6231 Y13.5756
G01 X29.6282 Y13.5671
G01 X29.6324 Y13.5583
G01 X29.6357 Y13.5490
G01 X29.6381 Y13.5395
G01 X29.6395 Y13.5298
G01 X29.6400 Y13.5200
G00 Z2.0000
G00 X29.6400 Y8.4400
G01 F60.00
G01 Z-0.4000
G01 F120.00
G01 X29.6395 Y8.4302
G01 X29.6381 Y8.4205
G01 X29.6357 Y8.4110
G01 X29.6324 Y8.4017
G01 X29.6282 Y8.3929
G01 X29.6231 Y8.3844
G01 X29.6173 Y8.3766
G01 X29.6107 Y8.3693
G01 X29.6034 Y8.3627
G01 X29.5956 Y8.3569
G01 X29.5871 Y8.3518
G01 X29.5783 Y8.3476
G01 X29.5690 Y8.3443
G01 X29.5595 Y8.3419
G01 X29.5498 Y8.3405
G01 X29.5400 Y8.3400
G01 X29.5302 Y8.3405
G01 X29.5205 Y8.3419
G01 X29.5110 Y8.3443
G01 X29.5017 Y8.3476
G01 X29.4929 Y8.3518
G01 X29.4844 Y8.3569
G01 X29.4766 Y8.3627
G01 X29.4693 Y8.3693
G01 X29.4627 Y8.3766
G01 X29.4569 Y8.3844
G01 X29.4518 Y8.3929
G01 X29.4476 Y8.4017
G01 X29.4443 Y8.4110
G01 X29.4419 Y8.4205
G01 X29.4405 Y8.4302
G01 X29.4400 Y8.4400
G01 X29.4405 Y8.4498
G01 X29.4419 Y8.4595
G01 X29.4443 Y8.4690
G01 X29.4476 Y8.4783
G01 X29.4518 Y8.4871
G01 X29.4569 Y8.4956
G01 X29.4627 Y8.5034
G01 X29.4693 Y8.5107
G01 X29.4766 Y8.5173
G01 X29.4844 Y8.5231
G01 X29.4929 Y8.5282
G01 X29.5017 Y8.5324
G01 X29.5110 Y8.5357
G01 X29.5205 Y8.5381
G01 X29.5302 Y8.5395
G01 X29.5400 Y8.5400
G01 X29.5498 Y8.5395
G01 X29.5595 Y8.5381
G01 X29.5690 Y8.5357
G01 X29.5783 Y8.5324
G01 X29.5871 Y8.5282
G01 X29.5956 Y8.5231
G01 X29.6034 Y8.5173
G01 X29.6107 Y8.5107
G01 X29.6173 Y8.5034
G01 X29.6231 Y8.4956
G01 X29.6282 Y8.4871
G01 X29.6324 Y8.4783
G01 X29.6357 Y8.4690
G01 X29.6381 Y8.4595
G01 X29.6395 Y8.4498
G01 X29.6400 Y8.4400
G00 X29.6400 Y8.4400
G01 F60.00
G01 Z-0.8000
G01 F120.00
G01 X29.6395 Y8.4302
G01 X29.6381 Y8.4205
G01 X29.6357 Y8.4110
G01 X29.6324 Y8.4017
G01 X29.6282 Y8.3929
G01 X29.6231 Y8.3844
G01 X29.6173 Y8.3766
G01 X29.6107 Y8.3693
G01 X29.6034 Y8.3627
G01 X29.5956 Y8.3569
G01 X29.5871 Y8.3518
G01 X29.5783 Y8.3476
G01 X29.5690 Y8.3443
G01 X29.5595 Y8.3419
G01 X29.5498 Y8.3405
G01 X29.5400 Y8.3400
G01 X29.5302 Y8.3405
G01 X29.5205 Y8.3419
G01 X29.5110 Y8.3443
G01 X29.5017 Y8.3476
G01 X29.4929 Y8.3518
G01 X29.4844 Y8.3569
G01 X29.4766 Y8.3627
G01 X29.4693 Y8.3693
G01 X29.4627 Y8.3766
G01 X29.4569 Y8.3844
G01 X29.4518 Y8.3929
G01 X29.4476 Y8.4017
G01 X29.4443 Y8.4110
G01 X29.4419 Y8.4205
G01 X29.4405 Y8.4302
G01 X29.4400 Y8.4400
G01 X29.4405 Y8.4498
G01 X29.4419 Y8.4595
G01 X29.4443 Y8.4690
G01 X29.4476 Y8.4783
G01 X29.4518 Y8.4871
G01 X29.4569 Y8.4956
G01 X29.4627 Y8.5034
G01 X29.4693 Y8.5107
G01 X29.4766 Y8.5173
G01 X29.4844 Y8.5231
G01 X29.4929 Y8.5282
G01 X29.5017 Y8.5324
G01 X29.5110 Y8.5357
G01 X29.5205 Y8.5381
G01 X29.5302 Y8.5395
G01 X29.5400 Y8.5400
G01 X29.5498 Y8.5395
G01 X29.5595 Y8.5381
G01 X29.5690 Y8.5357
G01 X29.5783 Y8.5324
G01 X29.5871 Y8.5282
G01 X29.5956 Y8.5231
G01 X29.6034 Y8.5173
G01 X29.6107 Y8.5107
G01 X29.6173 Y8.5034
G01 X29.6231 Y8.4956
G01 X29.6282 Y8.4871
G01 X29.6324 Y8.4783
G01 X29.6357 Y8.4690
G01 X29.6381 Y8.4595
G01 X29.6395 Y8.4498
G01 X29.6400 Y8.4400
G00 X29.6400 Y8.4400
G01 F60.00
G01 Z-1.2000
G01 F120.00
G01 X29.6395 Y8.4302
G01 X29.6381 Y8.4205
G01 X29.6357 Y8.4110
G01 X29.6324 Y8.4017
G01 X29.6282 Y8.3929
G01 X29.6231 Y8.3844
G01 X29.6173 Y8.3766
G01 X29.6107 Y8.3693
G01 X29.6034 Y8.3627
G01 X29.5956 Y8.3569
G01 X29.5871 Y8.3518
G01 X29.5783 Y8.3476
G01 X29.5690 Y8.3443
G01 X29.5595 Y8.3419
G01 X29.5498 Y8.3405
G01 X29.5400 Y8.3400
G01 X29.5302 Y8.3405
G01 X29.5205 Y8.3419
G01 X29.5110 Y8.3443
G01 X29.5017 Y8.3476
G01 X29.4929 Y8.3518
G01 X29.4844 Y8.3569
G01 X29.4766 Y8.3627
G01 X29.4693 Y8.3693
G01 X29.4627 Y8.3766
G01 X29.4569 Y8.3844
G01 X29.4518 Y8.3929
G01 X29.4476 Y8.4017
G01 X29.4443 Y8.4110
G01 X29.4419 Y8.4205
G01 X29.4405 Y8.4302
G01 X29.4400 Y8.4400
G01 X29.4405 Y8.4498
G01 X29.4419 Y8.4595
G01 X29.4443 Y8.4690
G01 X29.4476 Y8.4783
G01 X29.4518 Y8.4871
G01 X29.4569 Y8.4956
G01 X29.4627 Y8.5034
G01 X29.4693 Y8.5107
G01 X29.4766 Y8.5173
G01 X29.4844 Y8.5231
G01 X29.4929 Y8.5282
G01 X29.5017 Y8.5324
G01 X29.5110 Y8.5357
G01 X29.5205 Y8.5381
G01 X29.5302 Y8.5395
G01 X29.5400 Y8.5400
G01 X29.5498 Y8.5395
G01 X29.5595 Y8.5381
G01 X29.5690 Y8.5357
G01 X29.5783 Y8.5324
G01 X29.5871 Y8.5282
G01 X29.5956 Y8.5231
G01 X29.6034 Y8.5173
G01 X29.6107 Y8.5107
G01 X29.6173 Y8.5034
G01 X29.6231 Y8.4956
G01 X29.6282 Y8.4871
G01 X29.6324 Y8.4783
G01 X29.6357 Y8.4690
G01 X29.6381 Y8.4595
G01 X29.6395 Y8.4498
G01 X29.6400 Y8.4400
G00 X29.6400 Y8.4400
G01 F60.00
G01 Z-1.6000
G01 F120.00
G01 X29.6395 Y8.4302
G01 X29.6381 Y8.4205
G01 X29.6357 Y8.4110
G01 X29.6324 Y8.4017
G01 X29.6282 Y8.3929
G01 X29.6231 Y8.3844
G01 X29.6173 Y8.3766
G01 X29.6107 Y8.3693
G01 X29.6034 Y8.3627
G01 X29.5956 Y8.3569
G01 X29.5871 Y8.3518
G01 X29.5783 Y8.3476
G01 X29.5690 Y8.3443
G01 X29.5595 Y8.3419
G01 X29.5498 Y8.3405
G01 X29.5400 Y8.3400
G01 X29.5302 Y8.3405
G01 X29.5205 Y8.3419
G01 X29.5110 Y8.3443
G01 X29.5017 Y8.3476
G01 X29.4929 Y8.3518
G01 X29.4844 Y8.3569
G01 X29.4766 Y8.3627
G01 X29.4693 Y8.3693
G01 X29.4627 Y8.3766
G01 X29.4569 Y8.3844
G01 X29.4518 Y8.3929
G01 X29.4476 Y8.4017
G01 X29.4443 Y8.4110
G01 X29.4419 Y8.4205
G01 X29.4405 Y8.4302
G01 X29.4400 Y8.4400
G01 X29.4405 Y8.4498
G01 X29.4419 Y8.4595
G01 X29.4443 Y8.4690
G01 X29.4476 Y8.4783
G01 X29.4518 Y8.4871
G01 X29.4569 Y8.4956
G01 X29.4627 Y8.5034
G01 X29.4693 Y8.5107
G01 X29.4766 Y8.5173
G01 X29.4844 Y8.5231
G01 X29.4929 Y8.5282
G01 X29.5017 Y8.5324
G01 X29.5110 Y8.5357
G01 X29.5205 Y8.5381
G01 X29.5302 Y8.5395
G01 X29.5400 Y8.5400
G01 X29.5498 Y8.5395
G01 X29.5595 Y8.5381
G01 X29.5690 Y8.5357
G01 X29.5783 Y8.5324
G01 X29.5871 Y8.5282
G01 X29.5956 Y8.5231
G01 X29.6034 Y8.5173
G01 X29.6107 Y8.5107
G01 X29.6173 Y8.5034
G01 X29.6231 Y8.4956
G01 X29.6282 Y8.4871
G01 X29.6324 Y8.4783
G01 X29.6357 Y8.4690
G01 X29.6381 Y8.4595
G01 X29.6395 Y8.4498
G01 X29.6400 Y8.4400
G00 X29.6400 Y8.4400
G01 F60.00
G01 Z-1.8000
G01 F120.00
G01 X29.6395 Y8.4302
G01 X29.6381 Y8.4205
G01 X29.6357 Y8.4110
G01 X29.6324 Y8.4017
G01 X29.6282 Y8.3929
G01 X29.6231 Y8.3844
G01 X29.6173 Y8.3766
G01 X29.6107 Y8.3693
G01 X29.6034 Y8.3627
G01 X29.5956 Y8.3569
G01 X29.5871 Y8.3518
G01 X29.5783 Y8.3476
G01 X29.5690 Y8.3443
G01 X29.5595 Y8.3419
G01 X29.5498 Y8.3405
G01 X29.5400 Y8.3400
G01 X29.5302 Y8.3405
G01 X29.5205 Y8.3419
G01 X29.5110 Y8.3443
G01 X29.5017 Y8.3476
G01 X29.4929 Y8.3518
G01 X29.4844 Y8.3569
G01 X29.4766 Y8.3627
G01 X29.4693 Y8.3693
G01 X29.4627 Y8.3766
G01 X29.4569 Y8.3844
G01 X29.4518 Y8.3929
G01 X29.4476 Y8.4017
G01 X29.4443 Y8.4110
G01 X29.4419 Y8.4205
G01 X29.4405 Y8.4302
G01 X29.4400 Y8.4400
G01 X29.4405 Y8.4498
G01 X29.4419 Y8.4595
G01 X29.4443 Y8.4690
G01 X29.4476 Y8.4783
G01 X29.4518 Y8.4871
G01 X29.4569 Y8.4956
G01 X29.4627 Y8.5034
G01 X29.4693 Y8.5107
G01 X29.4766 Y8.5173
G01 X29.4844 Y8.5231
G01 X29.4929 Y8.5282
G01 X29.5017 Y8.5324
G01 X29.5110 Y8.5357
G01 X29.5205 Y8.5381
G01 X29.5302 Y8.5395
G01 X29.5400 Y8.5400
G01 X29.5498 Y8.5395
G01 X29.5595 Y8.5381
G01 X29.5690 Y8.5357
G01 X29.5783 Y8.5324
G01 X29.5871 Y8.5282
G01 X29.5956 Y8.5231
G01 X29.6034 Y8.5173
G01 X29.6107 Y8.5107
G01 X29.6173 Y8.5034
G01 X29.6231 Y8.4956
G01 X29.6282 Y8.4871
G01 X29.6324 Y8.4783
G01 X29.6357 Y8.4690
G01 X29.6381 Y8.4595
G01 X29.6395 Y8.4498
G01 X29.6400 Y8.4400
G00 Z2.0000
G00 X29.6400 Y5.9000
G01 F60.00
G01 Z-0.4000
G01 F120.00
G01 X29.6395 Y5.8902
G01 X29.6381 Y5.8805
G01 X29.6357 Y5.8710
G01 X29.6324 Y5.8617
G01 X29.6282 Y5.8529
G01 X29.6231 Y5.8444
G01 X29.6173 Y5.8366
G01 X29.6107 Y5.8293
G01 X29.6034 Y5.8227
G01 X29.5956 Y5.8169
G01 X29.5871 Y5.8118
G01 X29.5783 Y5.8076
G01 X29.5690 Y5.8043
G01 X29.5595 Y5.8019
G01 X29.5498 Y5.8005
G01 X29.5400 Y5.8000
G01 X29.5302 Y5.8005
G01 X29.5205 Y5.8019
G01 X29.5110 Y5.8043
G01 X29.5017 Y5.8076
G01 X29.4929 Y5.8118
G01 X29.4844 Y5.8169
G01 X29.4766 Y5.8227
G01 X29.4693 Y5.8293
G01 X29.4627 Y5.8366
G01 X29.4569 Y5.8444
G01 X29.4518 Y5.8529
G01 X29.4476 Y5.8617
G01 X29.4443 Y5.8710
G01 X29.4419 Y5.8805
G01 X29.4405 Y5.8902
G01 X29.4400 Y5.9000
G01 X29.4405 Y5.9098
G01 X29.4419 Y5.9195
G01 X29.4443 Y5.9290
G01 X29.4476 Y5.9383
G01 X29.4518 Y5.9471
G01 X29.4569 Y5.9556
G01 X29.4627 Y5.9634
G01 X29.4693 Y5.9707
G01 X29.4766 Y5.9773
G01 X29.4844 Y5.9831
G01 X29.4929 Y5.9882
G01 X29.5017 Y5.9924
G01 X29.5110 Y5.9957
G01 X29.5205 Y5.9981
G01 X29.5302 Y5.9995
G01 X29.5400 Y6.0000
G01 X29.5498 Y5.9995
G01 X29.5595 Y5.9981
G01 X29.5690 Y5.9957
G01 X29.5783 Y5.9924
G01 X29.5871 Y5.9882
G01 X29.5956 Y5.9831
G01 X29.6034 Y5.9773
G01 X29.6107 Y5.9707
G01 X29.6173 Y5.9634
G01 X29.6231 Y5.9556
G01 X29.6282 Y5.9471
G01 X29.6324 Y5.9383
G01 X29.6357 Y5.9290
G01 X29.6381 Y5.9195
G01 X29.6395 Y5.9098
G01 X29.6400 Y5.9000
G00 X29.6400 Y5.9000
G01 F60.00
G01 Z-0.8000
G01 F120.00
G01 X29.6395 Y5.8902
G01 X29.6381 Y5.8805
G01 X29.6357 Y5.8710
G01 X29.6324 Y5.8617
G01 X29.6282 Y5.8529
G01 X29.6231 Y5.8444
G01 X29.6173 Y5.8366
G01 X29.6107 Y5.8293
G01 X29.6034 Y5.8227
G01 X29.5956 Y5.8169
G01 X29.5871 Y5.8118
G01 X29.5783 Y5.8076
G01 X29.5690 Y5.8043
G01 X29.5595 Y5.8019
G01 X29.5498 Y5.8005
G01 X29.5400 Y5.8000
G01 X29.5302 Y5.8005
G01 X29.5205 Y5.8019
G01 X29.5110 Y5.8043
G01 X29.5017 Y5.8076
G01 X29.4929 Y5.8118
G01 X29.4844 Y5.8169
G01 X29.4766 Y5.8227
G01 X29.4693 Y5.8293
G01 X29.4627 Y5.8366
G01 X29.4569 Y5.8444
G01 X29.4518 Y5.8529
G01 X29.4476 Y5.8617
G01 X29.4443 Y5.8710
G01 X29.4419 Y5.8805
G01 X29.4405 Y5.8902
G01 X29.4400 Y5.9000
G01 X29.4405 Y5.9098
G01 X29.4419 Y5.9195
G01 X29.4443 Y5.9290
G01 X29.4476 Y5.9383
G01 X29.4518 Y5.9471
G01 X29.4569 Y5.9556
G01 X29.4627 Y5.9634
G01 X29.4693 Y5.9707
G01 X29.4766 Y5.9773
G01 X29.4844 Y5.9831
G01 X29.4929 Y5.9882
G01 X29.5017 Y5.9924
G01 X29.5110 Y5.9957
G01 X29.5205 Y5.9981
G01 X29.5302 Y5.9995
G01 X29.5400 Y6.0000
G01 X29.5498 Y5.9995
G01 X29.5595 Y5.9981
G01 X29.5690 Y5.9957
G01 X29.5783 Y5.9924
G01 X29.5871 Y5.9882
G01 X29.5956 Y5.9831
G01 X29.6034 Y5.9773
G01 X29.6107 Y5.9707
G01 X29.6173 Y5.9634
G01 X29.6231 Y5.9556
G01 X29.6282 Y5.9471
G01 X29.6324 Y5.9383
G01 X29.6357 Y5.9290
G01 X29.6381 Y5.9195
G01 X29.6395 Y5.9098
G01 X29.6400 Y5.9000
G00 X29.6400 Y5.9000
G01 F60.00
G01 Z-1.2000
G01 F120.00
G01 X29.6395 Y5.8902
G01 X29.6381 Y5.8805
G01 X29.6357 Y5.8710
G01 X29.6324 Y5.8617
G01 X29.6282 Y5.8529
G01 X29.6231 Y5.8444
G01 X29.6173 Y5.8366
G01 X29.6107 Y5.8293
G01 X29.6034 Y5.8227
G01 X29.5956 Y5.8169
G01 X29.5871 Y5.8118
G01 X29.5783 Y5.8076
G01 X29.5690 Y5.8043
G01 X29.5595 Y5.8019
G01 X29.5498 Y5.8005
G01 X29.5400 Y5.8000
G01 X29.5302 Y5.8005
G01 X29.5205 Y5.8019
G01 X29.5110 Y5.8043
G01 X29.5017 Y5.8076
G01 X29.4929 Y5.8118
G01 X29.4844 Y5.8169
G01 X29.4766 Y5.8227
G01 X29.4693 Y5.8293
G01 X29.4627 Y5.8366
G01 X29.4569 Y5.8444
G01 X29.4518 Y5.8529
G01 X29.4476 Y5.8617
G01 X29.4443 Y5.8710
G01 X29.4419 Y5.8805
G01 X29.4405 Y5.8902
G01 X29.4400 Y5.9000
G01 X29.4405 Y5.9098
G01 X29.4419 Y5.9195
G01 X29.4443 Y5.9290
G01 X29.4476 Y5.9383
G01 X29.4518 Y5.9471
G01 X29.4569 Y5.9556
G01 X29.4627 Y5.9634
G01 X29.4693 Y5.9707
G01 X29.4766 Y5.9773
G01 X29.4844 Y5.9831
G01 X29.4929 Y5.9882
G01 X29.5017 Y5.9924
G01 X29.5110 Y5.9957
G01 X29.5205 Y5.9981
G01 X29.5302 Y5.9995
G01 X29.5400 Y6.0000
G01 X29.5498 Y5.9995
G01 X29.5595 Y5.9981
G01 X29.5690 Y5.9957
G01 X29.5783 Y5.9924
G01 X29.5871 Y5.9882
G01 X29.5956 Y5.9831
G01 X29.6034 Y5.9773
G01 X29.6107 Y5.9707
G01 X29.6173 Y5.9634
G01 X29.6231 Y5.9556
G01 X29.6282 Y5.9471
G01 X29.6324 Y5.9383
G01 X29.6357 Y5.9290
G01 X29.6381 Y5.9195
G01 X29.6395 Y5.9098
G01 X29.6400 Y5.9000
G00 X29.6400 Y5.9000
G01 F60.00
G01 Z-1.6000
G01 F120.00
G01 X29.6395 Y5.8902
G01 X29.6381 Y5.8805
G01 X29.6357 Y5.8710
G01 X29.6324 Y5.8617
G01 X29.6282 Y5.8529
G01 X29.6231 Y5.8444
G01 X29.6173 Y5.8366
G01 X29.6107 Y5.8293
G01 X29.6034 Y5.8227
G01 X29.5956 Y5.8169
G01 X29.5871 Y5.8118
G01 X29.5783 Y5.8076
G01 X29.5690 Y5.8043
G01 X29.5595 Y5.8019
G01 X29.5498 Y5.8005
G01 X29.5400 Y5.8000
G01 X29.5302 Y5.8005
G01 X29.5205 Y5.8019
G01 X29.5110 Y5.8043
G01 X29.5017 Y5.8076
G01 X29.4929 Y5.8118
G01 X29.4844 Y5.8169
G01 X29.4766 Y5.8227
G01 X29.4693 Y5.8293
G01 X29.4627 Y5.8366
G01 X29.4569 Y5.8444
G01 X29.4518 Y5.8529
G01 X29.4476 Y5.8617
G01 X29.4443 Y5.8710
G01 X29.4419 Y5.8805
G01 X29.4405 Y5.8902
G01 X29.4400 Y5.9000
G01 X29.4405 Y5.9098
G01 X29.4419 Y5.9195
G01 X29.4443 Y5.9290
G01 X29.4476 Y5.9383
G01 X29.4518 Y5.9471
G01 X29.4569 Y5.9556
G01 X29.4627 Y5.9634
G01 X29.4693 Y5.9707
G01 X29.4766 Y5.9773
G01 X29.4844 Y5.9831
G01 X29.4929 Y5.9882
G01 X29.5017 Y5.9924
G01 X29.5110 Y5.9957
G01 X29.5205 Y5.9981
G01 X29.5302 Y5.9995
G01 X29.5400 Y6.0000
G01 X29.5498 Y5.9995
G01 X29.5595 Y5.9981
G01 X29.5690 Y5.9957
G01 X29.5783 Y5.9924
G01 X29.5871 Y5.9882
G01 X29.5956 Y5.9831
G01 X29.6034 Y5.9773
G01 X29.6107 Y5.9707
G01 X29.6173 Y5.9634
G01 X29.6231 Y5.9556
G01 X29.6282 Y5.9471
G01 X29.6324 Y5.9383
G01 X29.6357 Y5.9290
G01 X29.6381 Y5.9195
G01 X29.6395 Y5.9098
G01 X29.6400 Y5.9000
G00 X29.6400 Y5.9000
G01 F60.00
G01 Z-1.8000
G01 F120.00
G01 X29.6395 Y5.8902
G01 X29.6381 Y5.8805
G01 X29.6357 Y5.8710
G01 X29.6324 Y5.8617
G01 X29.6282 Y5.8529
G01 X29.6231 Y5.8444
G01 X29.6173 Y5.8366
G01 X29.6107 Y5.8293
G01 X29.6034 Y5.8227
G01 X29.5956 Y5.8169
G01 X29.5871 Y5.8118
G01 X29.5783 Y5.8076
G01 X29.5690 Y5.8043
G01 X29.5595 Y5.8019
G01 X29.5498 Y5.8005
G01 X29.5400 Y5.8000
G01 X29.5302 Y5.8005
G01 X29.5205 Y5.8019
G01 X29.5110 Y5.8043
G01 X29.5017 Y5.8076
G01 X29.4929 Y5.8118
G01 X29.4844 Y5.8169
G01 X29.4766 Y5.8227
G01 X29.4693 Y5.8293
G01 X29.4627 Y5.8366
G01 X29.4569 Y5.8444
G01 X29.4518 Y5.8529
G01 X29.4476 Y5.8617
G01 X29.4443 Y5.8710
G01 X29.4419 Y5.8805
G01 X29.4405 Y5.8902
G01 X29.4400 Y5.9000
G01 X29.4405 Y5.9098
G01 X29.4419 Y5.9195
G01 X29.4443 Y5.9290
G01 X29.4476 Y5.9383
G01 X29.4518 Y5.9471
G01 X29.4569 Y5.9556
G01 X29.4627 Y5.9634
G01 X29.4693 Y5.9707
G01 X29.4766 Y5.9773
G01 X29.4844 Y5.9831
G01 X29.4929 Y5.9882
G01 X29.5017 Y5.9924
G01 X29.5110 Y5.9957
G01 X29.5205 Y5.9981
G01 X29.5302 Y5.9995
G01 X29.5400 Y6.0000
G01 X29.5498 Y5.9995
G01 X29.5595 Y5.9981
G01 X29.5690 Y5.9957
G01 X29.5783 Y5.9924
G01 X29.5871 Y5.9882
G01 X29.5956 Y5.9831
G01 X29.6034 Y5.9773
G01 X29.6107 Y5.9707
G01 X29.6173 Y5.9634
G01 X29.6231 Y5.9556
G01 X29.6282 Y5.9471
G01 X29.6324 Y5.9383
G01 X29.6357 Y5.9290
G01 X29.6381 Y5.9195
G01 X29.6395 Y5.9098
G01 X29.6400 Y5.9000
G00 Z2.0000
G00 X29.6400 Y3.3600
G01 F60.00
G01 Z-0.4000
G01 F120.00
G01 X29.6395 Y3.3502
G01 X29.6381 Y3.3405
G01 X29.6357 Y3.3310
G01 X29.6324 Y3.3217
G01 X29.6282 Y3.3129
G01 X29.6231 Y3.3044
G01 X29.6173 Y3.2966
G01 X29.6107 Y3.2893
G01 X29.6034 Y3.2827
G01 X29.5956 Y3.2769
G01 X29.5871 Y3.2718
G01 X29.5783 Y3.2676
G01 X29.5690 Y3.2643
G01 X29.5595 Y3.2619
G01 X29.5498 Y3.2605
G01 X29.5400 Y3.2600
G01 X29.5302 Y3.2605
G01 X29.5205 Y3.2619
G01 X29.5110 Y3.2643
G01 X29.5017 Y3.2676
G01 X29.4929 Y3.2718
G01 X29.4844 Y3.2769
G01 X29.4766 Y3.2827
G01 X29.4693 Y3.2893
G01 X29.4627 Y3.2966
G01 X29.4569 Y3.3044
G01 X29.4518 Y3.3129
G01 X29.4476 Y3.3217
G01 X29.4443 Y3.3310
G01 X29.4419 Y3.3405
G01 X29.4405 Y3.3502
G01 X29.4400 Y3.3600
G01 X29.4405 Y3.3698
G01 X29.4419 Y3.3795
G01 X29.4443 Y3.3890
G01 X29.4476 Y3.3983
G01 X29.4518 Y3.4071
G01 X29.4569 Y3.4156
G01 X29.4627 Y3.4234
G01 X29.4693 Y3.4307
G01 X29.4766 Y3.4373
G01 X29.4844 Y3.4431
G01 X29.4929 Y3.4482
G01 X29.5017 Y3.4524
G01 X29.5110 Y3.4557
G01 X29.5205 Y3.4581
G01 X29.5302 Y3.4595
G01 X29.5400 Y3.4600
G01 X29.5498 Y3.4595
G01 X29.5595 Y3.4581
G01 X29.5690 Y3.4557
G01 X29.5783 Y3.4524
G01 X29.5871 Y3.4482
G01 X29.5956 Y3.4431
G01 X29.6034 Y3.4373
G01 X29.6107 Y3.4307
G01 X29.6173 Y3.4234
G01 X29.6231 Y3.4156
G01 X29.6282 Y3.4071
G01 X29.6324 Y3.3983
G01 X29.6357 Y3.3890
G01 X29.6381 Y3.3795
G01 X29.6395 Y3.3698
G01 X29.6400 Y3.3600
G00 X29.6400 Y3.3600
G01 F60.00
G01 Z-0.8000
G01 F120.00
G01 X29.6395 Y3.3502
G01 X29.6381 Y3.3405
G01 X29.6357 Y3.3310
G01 X29.6324 Y3.3217
G01 X29.6282 Y3.3129
G01 X29.6231 Y3.3044
G01 X29.6173 Y3.2966
G01 X29.6107 Y3.2893
G01 X29.6034 Y3.2827
G01 X29.5956 Y3.2769
G01 X29.5871 Y3.2718
G01 X29.5783 Y3.2676
G01 X29.5690 Y3.2643
G01 X29.5595 Y3.2619
G01 X29.5498 Y3.2605
G01 X29.5400 Y3.2600
G01 X29.5302 Y3.2605
G01 X29.5205 Y3.2619
G01 X29.5110 Y3.2643
G01 X29.5017 Y3.2676
G01 X29.4929 Y3.2718
G01 X29.4844 Y3.2769
G01 X29.4766 Y3.2827
G01 X29.4693 Y3.2893
G01 X29.4627 Y3.2966
G01 X29.4569 Y3.3044
G01 X29.4518 Y3.3129
G01 X29.4476 Y3.3217
G01 X29.4443 Y3.3310
G01 X29.4419 Y3.3405
G01 X29.4405 Y3.3502
G01 X29.4400 Y3.3600
G01 X29.4405 Y3.3698
G01 X29.4419 Y3.3795
G01 X29.4443 Y3.3890
G01 X29.4476 Y3.3983
G01 X29.4518 Y3.4071
G01 X29.4569 Y3.4156
G01 X29.4627 Y3.4234
G01 X29.4693 Y3.4307
G01 X29.4766 Y3.4373
G01 X29.4844 Y3.4431
G01 X29.4929 Y3.4482
G01 X29.5017 Y3.4524
G01 X29.5110 Y3.4557
G01 X29.5205 Y3.4581
G01 X29.5302 Y3.4595
G01 X29.5400 Y3.4600
G01 X29.5498 Y3.4595
G01 X29.5595 Y3.4581
G01 X29.5690 Y3.4557
G01 X29.5783 Y3.4524
G01 X29.5871 Y3.4482
G01 X29.5956 Y3.4431
G01 X29.6034 Y3.4373
G01 X29.6107 Y3.4307
G01 X29.6173 Y3.4234
G01 X29.6231 Y3.4156
G01 X29.6282 Y3.4071
G01 X29.6324 Y3.3983
G01 X29.6357 Y3.3890
G01 X29.6381 Y3.3795
G01 X29.6395 Y3.3698
G01 X29.6400 Y3.3600
G00 X29.6400 Y3.3600
G01 F60.00
G01 Z-1.2000
G01 F120.00
G01 X29.6395 Y3.3502
G01 X29.6381 Y3.3405
G01 X29.6357 Y3.3310
G01 X29.6324 Y3.3217
G01 X29.6282 Y3.3129
G01 X29.6231 Y3.3044
G01 X29.6173 Y3.2966
G01 X29.6107 Y3.2893
G01 X29.6034 Y3.2827
G01 X29.5956 Y3.2769
G01 X29.5871 Y3.2718
G01 X29.5783 Y3.2676
G01 X29.5690 Y3.2643
G01 X29.5595 Y3.2619
G01 X29.5498 Y3.2605
G01 X29.5400 Y3.2600
G01 X29.5302 Y3.2605
G01 X29.5205 Y3.2619
G01 X29.5110 Y3.2643
G01 X29.5017 Y3.2676
G01 X29.4929 Y3.2718
G01 X29.4844 Y3.2769
G01 X29.4766 Y3.2827
G01 X29.4693 Y3.2893
G01 X29.4627 Y3.2966
G01 X29.4569 Y3.3044
G01 X29.4518 Y3.3129
G01 X29.4476 Y3.3217
G01 X29.4443 Y3.3310
G01 X29.4419 Y3.3405
G01 X29.4405 Y3.3502
G01 X29.4400 Y3.3600
G01 X29.4405 Y3.3698
G01 X29.4419 Y3.3795
G01 X29.4443 Y3.3890
G01 X29.4476 Y3.3983
G01 X29.4518 Y3.4071
G01 X29.4569 Y3.4156
G01 X29.4627 Y3.4234
G01 X29.4693 Y3.4307
G01 X29.4766 Y3.4373
G01 X29.4844 Y3.4431
G01 X29.4929 Y3.4482
G01 X29.5017 Y3.4524
G01 X29.5110 Y3.4557
G01 X29.5205 Y3.4581
G01 X29.5302 Y3.4595
G01 X29.5400 Y3.4600
G01 X29.5498 Y3.4595
G01 X29.5595 Y3.4581
G01 X29.5690 Y3.4557
G01 X29.5783 Y3.4524
G01 X29.5871 Y3.4482
G01 X29.5956 Y3.4431
G01 X29.6034 Y3.4373
G01 X29.6107 Y3.4307
G01 X29.6173 Y3.4234
G01 X29.6231 Y3.4156
G01 X29.6282 Y3.4071
G01 X29.6324 Y3.3983
G01 X29.6357 Y3.3890
G01 X29.6381 Y3.3795
G01 X29.6395 Y3.3698
G01 X29.6400 Y3.3600
G00 X29.6400 Y3.3600
G01 F60.00
G01 Z-1.6000
G01 F120.00
G01 X29.6395 Y3.3502
G01 X29.6381 Y3.3405
G01 X29.6357 Y3.3310
G01 X29.6324 Y3.3217
G01 X29.6282 Y3.3129
G01 X29.6231 Y3.3044
G01 X29.6173 Y3.2966
G01 X29.6107 Y3.2893
G01 X29.6034 Y3.2827
G01 X29.5956 Y3.2769
G01 X29.5871 Y3.2718
G01 X29.5783 Y3.2676
G01 X29.5690 Y3.2643
G01 X29.5595 Y3.2619
G01 X29.5498 Y3.2605
G01 X29.5400 Y3.2600
G01 X29.5302 Y3.2605
G01 X29.5205 Y3.2619
G01 X29.5110 Y3.2643
G01 X29.5017 Y3.2676
G01 X29.4929 Y3.2718
G01 X29.4844 Y3.2769
G01 X29.4766 Y3.2827
G01 X29.4693 Y3.2893
G01 X29.4627 Y3.2966
G01 X29.4569 Y3.3044
G01 X29.4518 Y3.3129
G01 X29.4476 Y3.3217
G01 X29.4443 Y3.3310
G01 X29.4419 Y3.3405
G01 X29.4405 Y3.3502
G01 X29.4400 Y3.3600
G01 X29.4405 Y3.3698
G01 X29.4419 Y3.3795
G01 X29.4443 Y3.3890
G01 X29.4476 Y3.3983
G01 X29.4518 Y3.4071
G01 X29.4569 Y3.4156
G01 X29.4627 Y3.4234
G01 X29.4693 Y3.4307
G01 X29.4766 Y3.4373
G01 X29.4844 Y3.4431
G01 X29.4929 Y3.4482
G01 X29.5017 Y3.4524
G01 X29.5110 Y3.4557
G01 X29.5205 Y3.4581
G01 X29.5302 Y3.4595
G01 X29.5400 Y3.4600
G01 X29.5498 Y3.4595
G01 X29.5595 Y3.4581
G01 X29.5690 Y3.4557
G01 X29.5783 Y3.4524
G01 X29.5871 Y3.4482
G01 X29.5956 Y3.4431
G01 X29.6034 Y3.4373
G01 X29.6107 Y3.4307
G01 X29.6173 Y3.4234
G01 X29.6231 Y3.4156
G01 X29.6282 Y3.4071
G01 X29.6324 Y3.3983
G01 X29.6357 Y3.3890
G01 X29.6381 Y3.3795
G01 X29.6395 Y3.3698
G01 X29.6400 Y3.3600
G00 X29.6400 Y3.3600
G01 F60.00
G01 Z-1.8000
G01 F120.00
G01 X29.6395 Y3.3502
G01 X29.6381 Y3.3405
G01 X29.6357 Y3.3310
G01 X29.6324 Y3.3217
G01 X29.6282 Y3.3129
G01 X29.6231 Y3.3044
G01 X29.6173 Y3.2966
G01 X29.6107 Y3.2893
G01 X29.6034 Y3.2827
G01 X29.5956 Y3.2769
G01 X29.5871 Y3.2718
G01 X29.5783 Y3.2676
G01 X29.5690 Y3.2643
G01 X29.5595 Y3.2619
G01 X29.5498 Y3.2605
G01 X29.5400 Y3.2600
G01 X29.5302 Y3.2605
G01 X29.5205 Y3.2619
G01 X29.5110 Y3.2643
G01 X29.5017 Y3.2676
G01 X29.4929 Y3.2718
G01 X29.4844 Y3.2769
G01 X29.4766 Y3.2827
G01 X29.4693 Y3.2893
G01 X29.4627 Y3.2966
G01 X29.4569 Y3.3044
G01 X29.4518 Y3.3129
G01 X29.4476 Y3.3217
G01 X29.4443 Y3.3310
G01 X29.4419 Y3.3405
G01 X29.4405 Y3.3502
G01 X29.4400 Y3.3600
G01 X29.4405 Y3.3698
G01 X29.4419 Y3.3795
G01 X29.4443 Y3.3890
G01 X29.4476 Y3.3983
G01 X29.4518 Y3.4071
G01 X29.4569 Y3.4156
G01 X29.4627 Y3.4234
G01 X29.4693 Y3.4307
G01 X29.4766 Y3.4373
G01 X29.4844 Y3.4431
G01 X29.4929 Y3.4482
G01 X29.5017 Y3.4524
G01 X29.5110 Y3.4557
G01 X29.5205 Y3.4581
G01 X29.5302 Y3.4595
G01 X29.5400 Y3.4600
G01 X29.5498 Y3.4595
G01 X29.5595 Y3.4581
G01 X29.5690 Y3.4557
G01 X29.5783 Y3.4524
G01 X29.5871 Y3.4482
G01 X29.5956 Y3.4431
G01 X29.6034 Y3.4373
G01 X29.6107 Y3.4307
G01 X29.6173 Y3.4234
G01 X29.6231 Y3.4156
G01 X29.6282 Y3.4071
G01 X29.6324 Y3.3983
G01 X29.6357 Y3.3890
G01 X29.6381 Y3.3795
G01 X29.6395 Y3.3698
G01 X29.6400 Y3.3600
G00 Z2.0000
G00 X37.6000 Y5.8600
G01 F60.00
G01 Z-0.4000
G01 F120.00
G01 X37.5995 Y5.8502
G01 X37.5981 Y5.8405
G01 X37.5957 Y5.8310
G01 X37.5924 Y5.8217
G01 X37.5882 Y5.8129
G01 X37.5831 Y5.8044
G01 X37.5773 Y5.7966
G01 X37.5707 Y5.7893
G01 X37.5634 Y5.7827
G01 X37.5556 Y5.7769
G01 X37.5471 Y5.7718
G01 X37.5383 Y5.7676
G01 X37.5290 Y5.7643
G01 X37.5195 Y5.7619
G01 X37.5098 Y5.7605
G01 X37.5000 Y5.7600
G01 X37.4902 Y5.7605
G01 X37.4805 Y5.7619
G01 X37.4710 Y5.7643
G01 X37.4617 Y5.7676
G01 X37.4529 Y5.7718
G01 X37.4444 Y5.7769
G01 X37.4366 Y5.7827
G01 X37.4293 Y5.7893
G01 X37.4227 Y5.7966
G01 X37.4169 Y5.8044
G01 X37.4118 Y5.8129
G01 X37.4076 Y5.8217
G01 X37.4043 Y5.8310
G01 X37.4019 Y5.8405
G01 X37.4005 Y5.8502
G01 X37.4000 Y5.8600
G01 X37.4005 Y5.8698
G01 X37.4019 Y5.8795
G01 X37.4043 Y5.8890
G01 X37.4076 Y5.8983
G01 X37.4118 Y5.9071
G01 X37.4169 Y5.9156
G01 X37.4227 Y5.9234
G01 X37.4293 Y5.9307
G01 X37.4366 Y5.9373
G01 X37.4444 Y5.9431
G01 X37.4529 Y5.9482
G01 X37.4617 Y5.9524
G01 X37.4710 Y5.9557
G01 X37.4805 Y5.9581
G01 X37.4902 Y5.9595
G01 X37.5000 Y5.9600
G01 X37.5098 Y5.9595
G01 X37.5195 Y5.9581
G01 X37.5290 Y5.9557
G01 X37.5383 Y5.9524
G01 X37.5471 Y5.9482
G01 X37.5556 Y5.9431
G01 X37.5634 Y5.9373
G01 X37.5707 Y5.9307
G01 X37.5773 Y5.9234
G01 X37.5831 Y5.9156
G01 X37.5882 Y5.9071
G01 X37.5924 Y5.8983
G01 X37.5957 Y5.8890
G01 X37.5981 Y5.8795
G01 X37.5995 Y5.8698
G01 X37.6000 Y5.8600
G00 X37.6000 Y5.8600
G01 F60.00
G01 Z-0.8000
G01 F120.00
G01 X37.5995 Y5.8502
G01 X37.5981 Y5.8405
G01 X37.5957 Y5.8310
G01 X37.5924 Y5.8217
G01 X37.5882 Y5.8129
G01 X37.5831 Y5.8044
G01 X37.5773 Y5.7966
G01 X37.5707 Y5.7893
G01 X37.5634 Y5.7827
G01 X37.5556 Y5.7769
G01 X37.5471 Y5.7718
G01 X37.5383 Y5.7676
G01 X37.5290 Y5.7643
G01 X37.5195 Y5.7619
G01 X37.5098 Y5.7605
G01 X37.5000 Y5.7600
G01 X37.4902 Y5.7605
G01 X37.4805 Y5.7619
G01 X37.4710 Y5.7643
G01 X37.4617 Y5.7676
G01 X37.4529 Y5.7718
G01 X37.4444 Y5.7769
G01 X37.4366 Y5.7827
G01 X37.4293 Y5.7893
G01 X37.4227 Y5.7966
G01 X37.4169 Y5.8044
