(G-CODE GENERATED BY FLATCAM v8.994 - www.flatcam.org - Version Date: 2020/11/7)

(Name: QWIIC STM32 breakout-Edge_Cuts.gbr_cutout_1_cnc)
(Type: G-code from Geometry)
(Units: MM)

(Created on Monday, 05 August 2024 at 21:09)

(This preprocessor is the default preprocessor used by FlatCAM.)
(It is made to work with MACH3 compatible motion controllers.)

(TOOL DIAMETER: 0.8 mm)
(Feedrate_XY: 120.0 mm/min)
(Feedrate_Z: 60.0 mm/min)
(Feedrate rapids 1500.0 mm/min)

(Z_Cut: -1.8 mm)
(DepthPerCut: 0.4 mm <=>5 passes)
(Z_Move: 2.0 mm)
(Z Start: None mm)
(Z End: 15.0 mm)
(X,Y End: None mm)
(Steps per circle: 64)
(Preprocessor Geometry: default)

(X range:   -0.5500 ...   19.5500  mm)
(Y range:   -0.5500 ...   14.2500  mm)

(Spindle Speed: 0.0 RPM)
G21
G90
G94

G01 F120.00

M5
G00 Z15.0000
G00 X0.0000 Y0.0000
T1
M6    
(MSG, Change to Tool Dia = 0.800)
M0
G00 Z15.0000

M03
G01 F120.00
G00 X-0.5500 Y5.5500
G01 F60.00
G01 Z-0.4000
G01 F120.00
G01 X-0.5500 Y0.0000
G01 X-0.5492 Y-0.0294
G01 X-0.5437 Y-0.0831
G01 X-0.5341 Y-0.1312
G01 X-0.5170 Y-0.1876
G01 X-0.4961 Y-0.2374
G01 X-0.4730 Y-0.2806
G01 X-0.4403 Y-0.3296
G01 X-0.4058 Y-0.3712
G01 X-0.3712 Y-0.4058
G01 X-0.3256 Y-0.4432
G01 X-0.2848 Y-0.4705
G01 X-0.2374 Y-0.4961
G01 X-0.1830 Y-0.5186
G01 X-0.1312 Y-0.5341
G01 X-0.0831 Y-0.5437
G01 X-0.0294 Y-0.5492
G01 X0.0000 Y-0.5500
G01 X19.0000 Y-0.5500
G01 X19.0294 Y-0.5492
G01 X19.0783 Y-0.5444
G01 X19.1312 Y-0.5341
G01 X19.1830 Y-0.5186
G01 X19.2329 Y-0.4982
G01 X19.2848 Y-0.4705
G01 X19.3256 Y-0.4432
G01 X19.3675 Y-0.4091
G01 X19.4091 Y-0.3675
G01 X19.4432 Y-0.3256
G01 X19.4705 Y-0.2848
G01 X19.4982 Y-0.2329
G01 X19.5170 Y-0.1876
G01 X19.5329 Y-0.1360
G01 X19.5444 Y-0.0783
G01 X19.5494 Y-0.0245
G01 X19.5500 Y0.0000
G01 X19.5500 Y4.8000
G01 X19.5492 Y4.8294
G01 X19.5444 Y4.8783
G01 X19.5341 Y4.9312
G01 X19.5186 Y4.9830
G01 X19.4982 Y5.0329
G01 X19.4730 Y5.0806
G01 X19.4403 Y5.1296
G01 X19.4058 Y5.1712
G01 X19.3712 Y5.2058
G01 X19.3296 Y5.2403
G01 X19.2848 Y5.2705
G01 X19.2329 Y5.2982
G01 X19.1830 Y5.3186
G01 X19.1360 Y5.3329
G01 X19.0831 Y5.3437
G01 X19.0294 Y5.3492
G01 X19.0000 Y5.3500
G01 X16.6278 Y5.3500
G01 X16.4279 Y5.5500
G00 X16.4279 Y5.5500
G01 F60.00
G01 Z-0.8000
G01 F120.00
G01 X16.6278 Y5.3500
G01 X19.0000 Y5.3500
G01 X19.0294 Y5.3492
G01 X19.0831 Y5.3437
G01 X19.1360 Y5.3329
G01 X19.1830 Y5.3186
G01 X19.2329 Y5.2982
G01 X19.2848 Y5.2705
G01 X19.3296 Y5.2403
G01 X19.3712 Y5.2058
G01 X19.4058 Y5.1712
G01 X19.4403 Y5.1296
G01 X19.4730 Y5.0806
G01 X19.4982 Y5.0329
G01 X19.5186 Y4.9830
G01 X19.5341 Y4.9312
G01 X19.5444 Y4.8783
G01 X19.5492 Y4.8294
G01 X19.5500 Y4.8000
G01 X19.5500 Y0.0000
G01 X19.5494 Y-0.0245
G01 X19.5444 Y-0.0783
G01 X19.5329 Y-0.1360
G01 X19.5170 Y-0.1876
G01 X19.4982 Y-0.2329
G01 X19.4705 Y-0.2848
G01 X19.4432 Y-0.3256
G01 X19.4091 Y-0.3675
G01 X19.3675 Y-0.4091
G01 X19.3256 Y-0.4432
G01 X19.2848 Y-0.4705
G01 X19.2329 Y-0.4982
G01 X19.1830 Y-0.5186
G01 X19.1312 Y-0.5341
G01 X19.0783 Y-0.5444
G01 X19.0294 Y-0.5492
G01 X19.0000 Y-0.5500
G01 X0.0000 Y-0.5500
G01 X-0.0294 Y-0.5492
G01 X-0.0831 Y-0.5437
G01 X-0.1312 Y-0.5341
G01 X-0.1830 Y-0.5186
G01 X-0.2374 Y-0.4961
G01 X-0.2848 Y-0.4705
G01 X-0.3256 Y-0.4432
G01 X-0.3712 Y-0.4058
G01 X-0.4058 Y-0.3712
G01 X-0.4403 Y-0.3296
G01 X-0.4730 Y-0.2806
G01 X-0.4961 Y-0.2374
G01 X-0.5170 Y-0.1876
G01 X-0.5341 Y-0.1312
G01 X-0.5437 Y-0.0831
G01 X-0.5492 Y-0.0294
G01 X-0.5500 Y0.0000
G01 X-0.5500 Y5.5500
G00 X-0.5500 Y5.5500
G01 F60.00
G01 Z-1.2000
G01 F120.00
G01 X-0.5500 Y0.0000
G01 X-0.5492 Y-0.0294
G01 X-0.5437 Y-0.0831
G01 X-0.5341 Y-0.1312
G01 X-0.5170 Y-0.1876
G01 X-0.4961 Y-0.2374
G01 X-0.4730 Y-0.2806
G01 X-0.4403 Y-0.3296
G01 X-0.4058 Y-0.3712
G01 X-0.3712 Y-0.4058
G01 X-0.3256 Y-0.4432
G01 X-0.2848 Y-0.4705
G01 X-0.2374 Y-0.4961
G01 X-0.1830 Y-0.5186
G01 X-0.1312 Y-0.5341
G01 X-0.0831 Y-0.5437
G01 X-0.0294 Y-0.5492
G01 X0.0000 Y-0.5500
G01 X19.0000 Y-0.5500
G01 X19.0294 Y-0.5492
G01 X19.0783 Y-0.5444
G01 X19.1312 Y-0.5341
G01 X19.1830 Y-0.5186
G01 X19.2329 Y-0.4982
G01 X19.2848 Y-0.4705
G01 X19.3256 Y-0.4432
G01 X19.3675 Y-0.4091
G01 X19.4091 Y-0.3675
G01 X19.4432 Y-0.3256
G01 X19.4705 Y-0.2848
G01 X19.4982 Y-0.2329
G01 X19.5170 Y-0.1876
G01 X19.5329 Y-0.1360
G01 X19.5444 Y-0.0783
G01 X19.5494 Y-0.0245
G01 X19.5500 Y0.0000
G01 X19.5500 Y4.8000
G01 X19.5492 Y4.8294
G01 X19.5444 Y4.8783
G01 X19.5341 Y4.9312
G01 X19.5186 Y4.9830
G01 X19.4982 Y5.0329
G01 X19.4730 Y5.0806
G01 X19.4403 Y5.1296
G01 X19.4058 Y5.1712
G01 X19.3712 Y5.2058
G01 X19.3296 Y5.2403
G01 X19.2848 Y5.2705
G01 X19.2329 Y5.2982
G01 X19.1830 Y5.3186
G01 X19.1360 Y5.3329
G01 X19.0831 Y5.3437
G01 X19.0294 Y5.3492
G01 X19.0000 Y5.3500
G01 X16.6278 Y5.3500
G01 X16.4279 Y5.5500
G00 X16.4279 Y5.5500
G01 F60.00
G01 Z-1.6000
G01 F120.00
G01 X16.6278 Y5.3500
G01 X19.0000 Y5.3500
G01 X19.0294 Y5.3492
G01 X19.0831 Y5.3437
G01 X19.1360 Y5.3329
G01 X19.1830 Y5.3186
G01 X19.2329 Y5.2982
G01 X19.2848 Y5.2705
G01 X19.3296 Y5.2403
G01 X19.3712 Y5.2058
G01 X19.4058 Y5.1712
G01 X19.4403 Y5.1296
G01 X19.4730 Y5.0806
G01 X19.4982 Y5.0329
G01 X19.5186 Y4.9830
G01 X19.5341 Y4.9312
G01 X19.5444 Y4.8783
G01 X19.5492 Y4.8294
G01 X19.5500 Y4.8000
G01 X19.5500 Y0.0000
G01 X19.5494 Y-0.0245
G01 X19.5444 Y-0.0783
G01 X19.5329 Y-0.1360
G01 X19.5170 Y-0.1876
G01 X19.4982 Y-0.2329
G01 X19.4705 Y-0.2848
G01 X19.4432 Y-0.3256
G01 X19.4091 Y-0.3675
G01 X19.3675 Y-0.4091
G01 X19.3256 Y-0.4432
G01 X19.2848 Y-0.4705
G01 X19.2329 Y-0.4982
G01 X19.1830 Y-0.5186
G01 X19.1312 Y-0.5341
G01 X19.0783 Y-0.5444
G01 X19.0294 Y-0.5492
G01 X19.0000 Y-0.5500
G01 X0.0000 Y-0.5500
G01 X-0.0294 Y-0.5492
G01 X-0.0831 Y-0.5437
G01 X-0.1312 Y-0.5341
G01 X-0.1830 Y-0.5186
G01 X-0.2374 Y-0.4961
G01 X-0.2848 Y-0.4705
G01 X-0.3256 Y-0.4432
G01 X-0.3712 Y-0.4058
G01 X-0.4058 Y-0.3712
G01 X-0.4403 Y-0.3296
G01 X-0.4730 Y-0.2806
G01 X-0.4961 Y-0.2374
G01 X-0.5170 Y-0.1876
G01 X-0.5341 Y-0.1312
G01 X-0.5437 Y-0.0831
G01 X-0.5492 Y-0.0294
G01 X-0.5500 Y0.0000
G01 X-0.5500 Y5.5500
G00 X-0.5500 Y5.5500
G01 F60.00
G01 Z-1.8000
G01 F120.00
G01 X-0.5500 Y0.0000
G01 X-0.5492 Y-0.0294
G01 X-0.5437 Y-0.0831
G01 X-0.5341 Y-0.1312
G01 X-0.5170 Y-0.1876
G01 X-0.4961 Y-0.2374
G01 X-0.4730 Y-0.2806
G01 X-0.4403 Y-0.3296
G01 X-0.4058 Y-0.3712
G01 X-0.3712 Y-0.4058
G01 X-0.3256 Y-0.4432
G01 X-0.2848 Y-0.4705
G01 X-0.2374 Y-0.4961
G01 X-0.1830 Y-0.5186
G01 X-0.1312 Y-0.5341
G01 X-0.0831 Y-0.5437
G01 X-0.0294 Y-0.5492
G01 X0.0000 Y-0.5500
G01 X19.0000 Y-0.5500
G01 X19.0294 Y-0.5492
G01 X19.0783 Y-0.5444
G01 X19.1312 Y-0.5341
G01 X19.1830 Y-0.5186
G01 X19.2329 Y-0.4982
G01 X19.2848 Y-0.4705
G01 X19.3256 Y-0.4432
G01 X19.3675 Y-0.4091
G01 X19.4091 Y-0.3675
G01 X19.4432 Y-0.3256
G01 X19.4705 Y-0.2848
G01 X19.4982 Y-0.2329
G01 X19.5170 Y-0.1876
G01 X19.5329 Y-0.1360
G01 X19.5444 Y-0.0783
G01 X19.5494 Y-0.0245
G01 X19.5500 Y0.0000
G01 X19.5500 Y4.8000
G01 X19.5492 Y4.8294
G01 X19.5444 Y4.8783
G01 X19.5341 Y4.9312
G01 X19.5186 Y4.9830
G01 X19.4982 Y5.0329
G01 X19.4730 Y5.0806
G01 X19.4403 Y5.1296
G01 X19.4058 Y5.1712
G01 X19.3712 Y5.2058
G01 X19.3296 Y5.2403
G01 X19.2848 Y5.2705
G01 X19.2329 Y5.2982
G01 X19.1830 Y5.3186
G01 X19.1360 Y5.3329
G01 X19.0831 Y5.3437
G01 X19.0294 Y5.3492
G01 X19.0000 Y5.3500
G01 X16.6278 Y5.3500
G01 X16.4279 Y5.5500
G00 Z2.0000
G00 X-0.5500 Y8.3500
G01 F60.00
G01 Z-0.4000
G01 F120.00
G01 X-0.5500 Y13.7000
G01 X-0.5492 Y13.7294
G01 X-0.5437 Y13.7831
G01 X-0.5341 Y13.8312
G01 X-0.5186 Y13.8830
G01 X-0.4982 Y13.9329
G01 X-0.4730 Y13.9806
G01 X-0.4432 Y14.0256
G01 X-0.4091 Y14.0675
G01 X-0.3712 Y14.1058
G01 X-0.3296 Y14.1403
G01 X-0.2848 Y14.1705
G01 X-0.2374 Y14.1961
G01 X-0.1876 Y14.2170
G01 X-0.1360 Y14.2329
G01 X-0.0831 Y14.2437
G01 X-0.0294 Y14.2492
G01 X0.0000 Y14.2500
G01 X7.5000 Y14.2500
G01 X7.5294 Y14.2492
G01 X7.5783 Y14.2444
G01 X7.6312 Y14.2341
G01 X7.6830 Y14.2186
G01 X7.7329 Y14.1982
G01 X7.7806 Y14.1730
G01 X7.8256 Y14.1432
G01 X7.8675 Y14.1091
G01 X7.8889 Y14.0889
G01 X13.6279 Y8.3500
G00 X13.6279 Y8.3500
G01 F60.00
G01 Z-0.8000
G01 F120.00
G01 X7.8889 Y14.0889
G01 X7.8675 Y14.1091
G01 X7.8256 Y14.1432
G01 X7.7806 Y14.1730
G01 X7.7329 Y14.1982
G01 X7.6830 Y14.2186
G01 X7.6312 Y14.2341
G01 X7.5783 Y14.2444
G01 X7.5294 Y14.2492
G01 X7.5000 Y14.2500
G01 X0.0000 Y14.2500
G01 X-0.0294 Y14.2492
G01 X-0.0831 Y14.2437
G01 X-0.1360 Y14.2329
G01 X-0.1876 Y14.2170
G01 X-0.2374 Y14.1961
G01 X-0.2848 Y14.1705
G01 X-0.3296 Y14.1403
G01 X-0.3712 Y14.1058
G01 X-0.4091 Y14.0675
G01 X-0.4432 Y14.0256
G01 X-0.4730 Y13.9806
G01 X-0.4982 Y13.9329
G01 X-0.5186 Y13.8830
G01 X-0.5341 Y13.8312
G01 X-0.5437 Y13.7831
G01 X-0.5492 Y13.7294
G01 X-0.5500 Y13.7000
G01 X-0.5500 Y8.3500
G00 X-0.5500 Y8.3500
G01 F60.00
G01 Z-1.2000
G01 F120.00
G01 X-0.5500 Y13.7000
G01 X-0.5492 Y13.7294
G01 X-0.5437 Y13.7831
G01 X-0.5341 Y13.8312
G01 X-0.5186 Y13.8830
G01 X-0.4982 Y13.9329
G01 X-0.4730 Y13.9806
G01 X-0.4432 Y14.0256
G01 X-0.4091 Y14.0675
G01 X-0.3712 Y14.1058
G01 X-0.3296 Y14.1403
G01 X-0.2848 Y14.1705
G01 X-0.2374 Y14.1961
G01 X-0.1876 Y14.2170
G01 X-0.1360 Y14.2329
G01 X-0.0831 Y14.2437
G01 X-0.0294 Y14.2492
G01 X0.0000 Y14.2500
G01 X7.5000 Y14.2500
G01 X7.5294 Y14.2492
G01 X7.5783 Y14.2444
G01 X7.6312 Y14.2341
G01 X7.6830 Y14.2186
G01 X7.7329 Y14.1982
G01 X7.7806 Y14.1730
G01 X7.8256 Y14.1432
G01 X7.8675 Y14.1091
G01 X7.8889 Y14.0889
G01 X13.6279 Y8.3500
G00 X13.6279 Y8.3500
G01 F60.00
G01 Z-1.6000
G01 F120.00
G01 X7.8889 Y14.0889
G01 X7.8675 Y14.1091
G01 X7.8256 Y14.1432
G01 X7.7806 Y14.1730
G01 X7.7329 Y14.1982
G01 X7.6830 Y14.2186
G01 X7.6312 Y14.2341
G01 X7.5783 Y14.2444
G01 X7.5294 Y14.2492
G01 X7.5000 Y14.2500
G01 X0.0000 Y14.2500
G01 X-0.0294 Y14.2492
G01 X-0.0831 Y14.2437
G01 X-0.1360 Y14.2329
G01 X-0.1876 Y14.2170
G01 X-0.2374 Y14.1961
G01 X-0.2848 Y14.1705
G01 X-0.3296 Y14.1403
G01 X-0.3712 Y14.1058
G01 X-0.4091 Y14.0675
G01 X-0.4432 Y14.0256
G01 X-0.4730 Y13.9806
G01 X-0.4982 Y13.9329
G01 X-0.5186 Y13.8830
G01 X-0.5341 Y13.8312
G01 X-0.5437 Y13.7831
G01 X-0.5492 Y13.7294
G01 X-0.5500 Y13.7000
G01 X-0.5500 Y8.3500
G00 X-0.5500 Y8.3500
G01 F60.00
G01 Z-1.8000
G01 F120.00
G01 X-0.5500 Y13.7000
G01 X-0.5492 Y13.7294
G01 X-0.5437 Y13.7831
G01 X-0.5341 Y13.8312
G01 X-0.5186 Y13.8830
G01 X-0.4982 Y13.9329
G01 X-0.4730 Y13.9806
G01 X-0.4432 Y14.0256
G01 X-0.4091 Y14.0675
G01 X-0.3712 Y14.1058
G01 X-0.3296 Y14.1403
G01 X-0.2848 Y14.1705
G01 X-0.2374 Y14.1961
G01 X-0.1876 Y14.2170
G01 X-0.1360 Y14.2329
G01 X-0.0831 Y14.2437
G01 X-0.0294 Y14.2492
G01 X0.0000 Y14.2500
G01 X7.5000 Y14.2500
G01 X7.5294 Y14.2492
G01 X7.5783 Y14.2444
G01 X7.6312 Y14.2341
G01 X7.6830 Y14.2186
G01 X7.7329 Y14.1982
G01 X7.7806 Y14.1730
G01 X7.8256 Y14.1432
G01 X7.8675 Y14.1091
G01 X7.8889 Y14.0889
G01 X13.6279 Y8.3500
G00 Z2.0000
M05
G00 Z2.0000
G00 Z15.00


