(G-CODE GENERATED BY FLATCAM v8.994 - www.flatcam.org - Version Date: 2020/11/7)

(Name: QWIIC STM32 breakout-B_Cu.gbr_iso_combined_cnc)
(Type: G-code from Geometry)
(Units: MM)

(Created on Monday, 05 August 2024 at 21:03)

(This preprocessor is the default preprocessor used by FlatCAM.)
(It is made to work with MACH3 compatible motion controllers.)

(TOOL DIAMETER: 0.1 mm)
(Feedrate_XY: 120.0 mm/min)
(Feedrate_Z: 60.0 mm/min)
(Feedrate rapids 1500.0 mm/min)

(Z_Cut: 0.0 mm)
(Z_Move: 2.0 mm)
(Z Start: None mm)
(Z End: 15.0 mm)
(X,Y End: None mm)
(Steps per circle: 64)
(Preprocessor Geometry: default)

(X range:    0.0005 ...   18.9995  mm)
(Y range:   -0.2501 ...   13.7000  mm)

(Spindle Speed: 14000.0 RPM)
G21
G90
G94

G01 F120.00

M5
G00 Z15.0000
G00 X0.0000 Y0.0000
T1
M6    
(MSG, Change to Tool Dia = 0.100)
M0
G00 Z15.0000

M03 S14000.0
G4 P4.0
G01 F120.00
G00 X1.0450 Y3.2250
G01 F60.00
G00 Z2.0000
G01 Z-0.120
G01 F120.00
G01 X1.0352 Y3.2240
G01 X1.0259 Y3.2212
G01 X1.0172 Y3.2166
G01 X1.0096 Y3.2104
G01 X1.0034 Y3.2028
G01 X0.9988 Y3.1941
G01 X0.9960 Y3.1848
G01 X0.9950 Y3.1762
G01 X0.9950 Y1.4750
G01 X0.9954 Y1.4689
G01 X0.9965 Y1.4629
G01 X0.9984 Y1.4570
G01 X1.0003 Y1.4525
G01 X1.0034 Y1.4472
G01 X1.0080 Y1.4414
G01 X1.0123 Y1.4371
G01 X1.0172 Y1.4334
G01 X1.0236 Y1.4298
G01 X1.0293 Y1.4275
G01 X1.0352 Y1.4260
G01 X1.0425 Y1.4251
G01 X1.5949 Y1.4250
G01 X1.5949 Y1.3038
G01 X1.5963 Y1.2756
G01 X1.6009 Y1.2452
G01 X1.6086 Y1.2155
G01 X1.6177 Y1.1901
G01 X1.6292 Y1.1657
G01 X1.6455 Y1.1383
G01 X1.6630 Y1.1146
G01 X1.6828 Y1.0928
G01 X2.3887 Y0.3869
G01 X2.4115 Y0.3665
G01 X2.4333 Y0.3505
G01 X2.4564 Y0.3365
G01 X2.4851 Y0.3227
G01 X2.5129 Y0.3128
G01 X2.5414 Y0.3056
G01 X2.5681 Y0.3016
G01 X2.6000 Y0.2999
G01 X5.1000 Y0.2999
G01 X5.1319 Y0.3016
G01 X5.1586 Y0.3056
G01 X5.1871 Y0.3128
G01 X5.2149 Y0.3227
G01 X5.2436 Y0.3365
G01 X5.2667 Y0.3505
G01 X5.2885 Y0.3665
G01 X5.3113 Y0.3869
G01 X6.4122 Y1.4878
G01 X6.4320 Y1.5096
G01 X6.4495 Y1.5333
G01 X6.4647 Y1.5585
G01 X6.4763 Y1.5829
G01 X6.4872 Y1.6129
G01 X6.4944 Y1.6414
G01 X6.4984 Y1.6681
G01 X6.5001 Y1.7000
G01 X6.5001 Y5.7723
G01 X6.4987 Y5.8017
G01 X6.4948 Y5.8284
G01 X6.4868 Y5.8606
G01 X6.4763 Y5.8894
G01 X6.4647 Y5.9138
G01 X6.4509 Y5.9370
G01 X6.4320 Y5.9627
G01 X6.4122 Y5.9845
G01 X4.3751 Y8.0216
G01 X4.3751 Y9.6507
G01 X4.6744 Y9.9500
G01 X5.9262 Y9.9500
G01 X5.9470 Y9.9513
G01 X5.9640 Y9.9538
G01 X5.9807 Y9.9580
G01 X6.0015 Y9.9652
G01 X6.0204 Y9.9742
G01 X6.0361 Y9.9837
G01 X6.0499 Y9.9939
G01 X6.0664 Y10.0086
G01 X6.0811 Y10.0251
G01 X6.0913 Y10.0389
G01 X6.1002 Y10.0536
G01 X6.1098 Y10.0735
G01 X6.1170 Y10.0943
G01 X6.1212 Y10.1110
G01 X6.1237 Y10.1280
G01 X6.1250 Y10.1488
G01 X6.1250 Y10.4500
G01 X6.1240 Y10.4696
G01 X6.1212 Y10.4890
G01 X6.1164 Y10.5081
G01 X6.1098 Y10.5265
G01 X6.1014 Y10.5443
G01 X6.0913 Y10.5611
G01 X6.0796 Y10.5769
G01 X6.0664 Y10.5914
G01 X6.0519 Y10.6046
G01 X6.0361 Y10.6163
G01 X6.0171 Y10.6275
G01 X6.0015 Y10.6348
G01 X5.9831 Y10.6414
G01 X5.9616 Y10.6466
G01 X5.9446 Y10.6490
G01 X5.9262 Y10.6500
G01 X4.6750 Y10.6500
G01 X4.6554 Y10.6490
G01 X4.6360 Y10.6462
G01 X4.6169 Y10.6414
G01 X4.6008 Y10.6357
G01 X4.5807 Y10.6264
G01 X4.5639 Y10.6163
G01 X4.5481 Y10.6046
G01 X4.5350 Y10.5928
G01 X4.5129 Y10.5872
G01 X4.4874 Y10.5782
G01 X4.4607 Y10.5658
G01 X4.4333 Y10.5495
G01 X4.4087 Y10.5312
G01 X4.3878 Y10.5122
G01 X3.8619 Y9.9863
G01 X3.8430 Y9.9654
G01 X3.8255 Y9.9417
G01 X3.8103 Y9.9165
G01 X3.7977 Y9.8899
G01 X3.7878 Y9.8621
G01 X3.7806 Y9.8336
G01 X3.7763 Y9.8044
G01 X3.7749 Y9.7762
G01 X3.7749 Y7.8961
G01 X3.7763 Y7.8679
G01 X3.7812 Y7.8364
G01 X3.7878 Y7.8102
G01 X3.7968 Y7.7848
G01 X3.8097 Y7.7569
G01 X3.8269 Y7.7286
G01 X3.8430 Y7.7069
G01 X3.8628 Y7.6851
G01 X5.8999 Y5.6480
G01 X5.8999 Y1.8243
G01 X4.9757 Y0.9001
G01 X2.7243 Y0.9001
G01 X2.1994 Y1.4250
G01 X2.7475 Y1.4251
G01 X2.7548 Y1.4260
G01 X2.7618 Y1.4279
G01 X2.7686 Y1.4309
G01 X2.7758 Y1.4356
G01 X2.7812 Y1.4405
G01 X2.7859 Y1.4462
G01 X2.7897 Y1.4525
G01 X2.7925 Y1.4593
G01 X2.7943 Y1.4665
G01 X2.7950 Y1.4750
G01 X2.7950 Y3.1750
G01 X2.7943 Y3.1835
G01 X2.7925 Y3.1907
G01 X2.7897 Y3.1975
G01 X2.7859 Y3.2038
G01 X2.7820 Y3.2086
G01 X2.7777 Y3.2129
G01 X2.7728 Y3.2166
G01 X2.7675 Y3.2197
G01 X2.7630 Y3.2216
G01 X2.7571 Y3.2235
G01 X2.7511 Y3.2246
G01 X2.7450 Y3.2250
G01 X1.0450 Y3.2250
G00 Z2.0000
G00 X3.0650 Y2.9924
G01 F60.00
G00 Z2.0000
G01 Z-0.120
G01 F120.00
G01 X3.0650 Y1.4750
G01 X3.0641 Y1.4515
G01 X3.0626 Y1.4358
G01 X3.0589 Y1.4126
G01 X3.0534 Y1.3897
G01 X3.0463 Y1.3672
G01 X3.0375 Y1.3453
G01 X3.0272 Y1.3242
G01 X3.0154 Y1.3038
G01 X3.0066 Y1.2907
G01 X2.9924 Y1.2720
G01 X2.9768 Y1.2543
G01 X2.9599 Y1.2379
G01 X2.9419 Y1.2227
G01 X2.9228 Y1.2089
G01 X2.9027 Y1.1966
G01 X2.8818 Y1.1857
G01 X2.8602 Y1.1764
G01 X2.8421 Y1.1701
G01 X4.2537 Y1.1701
G01 X4.2145 Y1.1760
G01 X4.1991 Y1.1791
G01 X4.1029 Y1.2032
G01 X4.0805 Y1.2103
G01 X3.9946 Y1.2411
G01 X3.9729 Y1.2504
G01 X3.8975 Y1.2861
G01 X3.8835 Y1.2932
G01 X3.8698 Y1.3009
G01 X3.7916 Y1.3479
G01 X3.7721 Y1.3612
G01 X3.7051 Y1.4109
G01 X3.6928 Y1.4206
G01 X3.6809 Y1.4308
G01 X3.6191 Y1.4869
G01 X3.6077 Y1.4977
G01 X3.5969 Y1.5091
G01 X3.5408 Y1.5709
G01 X3.5306 Y1.5828
G01 X3.5209 Y1.5951
G01 X3.4712 Y1.6621
G01 X3.4622 Y1.6750
G01 X3.4538 Y1.6883
G01 X3.4109 Y1.7598
G01 X3.4032 Y1.7735
G01 X3.3961 Y1.7875
G01 X3.3604 Y1.8629
G01 X3.3541 Y1.8773
G01 X3.3484 Y1.8919
G01 X3.3203 Y1.9705
G01 X3.3154 Y1.9854
G01 X3.3112 Y2.0005
G01 X3.2909 Y2.0814
G01 X3.2875 Y2.0967
G01 X3.2848 Y2.1122
G01 X3.2726 Y2.1947
G01 X3.2706 Y2.2103
G01 X3.2695 Y2.2260
G01 X3.2654 Y2.3093
G01 X3.2650 Y2.3250
G01 X3.2654 Y2.3407
G01 X3.2695 Y2.4240
G01 X3.2715 Y2.4475
G01 X3.2848 Y2.5378
G01 X3.2875 Y2.5533
G01 X3.2909 Y2.5686
G01 X3.3112 Y2.6495
G01 X3.3154 Y2.6646
G01 X3.3203 Y2.6795
G01 X3.3484 Y2.7581
G01 X3.3541 Y2.7727
G01 X3.3604 Y2.7871
G01 X3.3961 Y2.8625
G01 X3.4032 Y2.8765
G01 X3.4120 Y2.8921
G01 X3.3899 Y2.8882
G01 X3.3741 Y2.8863
G01 X3.3503 Y2.8851
G01 X3.3344 Y2.8852
G01 X3.3185 Y2.8862
G01 X3.2949 Y2.8891
G01 X3.2715 Y2.8937
G01 X3.2561 Y2.8977
G01 X3.2335 Y2.9052
G01 X3.1680 Y2.9296
G01 X3.1533 Y2.9356
G01 X3.1389 Y2.9422
G01 X3.1179 Y2.9535
G01 X3.0978 Y2.9663
G01 X3.0787 Y2.9806
G01 X3.0650 Y2.9924
G00 Z2.0000
G00 X3.1550 Y2.8385
G01 F60.00
G00 Z2.0000
G01 Z-0.120
G01 F120.00
G01 X3.1550 Y1.4750
G01 X3.1545 Y1.4549
G01 X3.1519 Y1.4248
G01 X3.1490 Y1.4049
G01 X3.1427 Y1.3754
G01 X3.1373 Y1.3560
G01 X3.1275 Y1.3274
G01 X3.1198 Y1.3089
G01 X3.1066 Y1.2817
G01 X3.0941 Y1.2601
G01 X3.7628 Y1.2601
G01 X3.7434 Y1.2719
G01 X3.7267 Y1.2830
G01 X3.6515 Y1.3386
G01 X3.6280 Y1.3575
G01 X3.5586 Y1.4202
G01 X3.5440 Y1.4340
G01 X3.5302 Y1.4486
G01 X3.4742 Y1.5104
G01 X3.4610 Y1.5257
G01 X3.4486 Y1.5415
G01 X3.3989 Y1.6085
G01 X3.3873 Y1.6250
G01 X3.3766 Y1.6420
G01 X3.3337 Y1.7135
G01 X3.3238 Y1.7310
G01 X3.3147 Y1.7490
G01 X3.2791 Y1.8244
G01 X3.2672 Y1.8522
G01 X3.2356 Y1.9401
G01 X3.2293 Y1.9592
G01 X3.2239 Y1.9786
G01 X3.2036 Y2.0596
G01 X3.1992 Y2.0792
G01 X3.1958 Y2.0990
G01 X3.1835 Y2.1815
G01 X3.1811 Y2.2015
G01 X3.1796 Y2.2216
G01 X3.1755 Y2.3049
G01 X3.1750 Y2.3250
G01 X3.1755 Y2.3451
G01 X3.1796 Y2.4284
G01 X3.1811 Y2.4485
G01 X3.1835 Y2.4685
G01 X3.1958 Y2.5510
G01 X3.1992 Y2.5708
G01 X3.2036 Y2.5904
G01 X3.2239 Y2.6714
G01 X3.2293 Y2.6908
G01 X3.2356 Y2.7099
G01 X3.2637 Y2.7884
G01 X3.2689 Y2.8022
G01 X3.2409 Y2.8086
G01 X3.2213 Y2.8143
G01 X3.2021 Y2.8209
G01 X3.1550 Y2.8385
G00 Z2.0000
G00 X3.2450 Y1.6875
G01 F60.00
G00 Z2.0000
G01 Z-0.120
G01 F120.00
G01 X3.2450 Y1.4750
G01 X3.2444 Y1.4505
G01 X3.2426 Y1.4260
G01 X3.2396 Y1.4016
G01 X3.2354 Y1.3775
G01 X3.2291 Y1.3501
G01 X3.5019 Y1.3501
G01 X3.4804 Y1.3704
G01 X3.4635 Y1.3882
G01 X3.4075 Y1.4500
G01 X3.3914 Y1.4686
G01 X3.3838 Y1.4781
G01 X3.3266 Y1.5549
G01 X3.3125 Y1.5750
G01 X3.2994 Y1.5957
G01 X3.2565 Y1.6673
G01 X3.2450 Y1.6875
G00 Z2.0000
G00 X4.6163 Y1.1701
G01 F60.00
G00 Z2.0000
G01 Z-0.120
G01 F120.00
G01 X4.8638 Y1.1701
G01 X4.9873 Y1.2936
G01 X4.9725 Y1.2861
G01 X4.8971 Y1.2504
G01 X4.8827 Y1.2441
G01 X4.8681 Y1.2384
G01 X4.7821 Y1.2078
G01 X4.7595 Y1.2012
G01 X4.6709 Y1.1791
G01 X4.6555 Y1.1760
G01 X4.6163 Y1.1701
G00 Z2.0000
G00 X5.4664 Y1.7727
G01 F60.00
G00 Z2.0000
G01 Z-0.120
G01 F120.00
G01 X5.6299 Y1.9362
G01 X5.6299 Y3.1837
G01 X5.6162 Y3.1693
G01 X5.6047 Y3.1582
G01 X5.5928 Y3.1478
G01 X5.5803 Y3.1380
G01 X5.5607 Y3.1244
G01 X5.5471 Y3.1161
G01 X5.5331 Y3.1086
G01 X5.5188 Y3.1018
G01 X5.5041 Y3.0957
G01 X5.4891 Y3.0903
G01 X5.4663 Y3.0836
G01 X5.3908 Y3.0648
G01 X5.3673 Y3.0604
G01 X5.3466 Y3.0581
G01 X5.3988 Y2.9879
G01 X5.4078 Y2.9750
G01 X5.4162 Y2.9617
G01 X5.4591 Y2.8902
G01 X5.4668 Y2.8765
G01 X5.4739 Y2.8625
G01 X5.5096 Y2.7871
G01 X5.5159 Y2.7727
G01 X5.5216 Y2.7581
G01 X5.5497 Y2.6795
G01 X5.5546 Y2.6646
G01 X5.5588 Y2.6495
G01 X5.5791 Y2.5686
G01 X5.5825 Y2.5533
G01 X5.5852 Y2.5378
G01 X5.5974 Y2.4553
G01 X5.5994 Y2.4397
G01 X5.6005 Y2.4240
G01 X5.6046 Y2.3407
G01 X5.6050 Y2.3250
G01 X5.6046 Y2.3093
G01 X5.6005 Y2.2260
G01 X5.5994 Y2.2103
G01 X5.5974 Y2.1947
G01 X5.5852 Y2.1122
G01 X5.5825 Y2.0967
G01 X5.5791 Y2.0814
G01 X5.5588 Y2.0005
G01 X5.5546 Y1.9854
G01 X5.5497 Y1.9705
G01 X5.5216 Y1.8919
G01 X5.5159 Y1.8773
G01 X5.5096 Y1.8629
G01 X5.4739 Y1.7875
G01 X5.4664 Y1.7727
G00 Z2.0000
G00 X5.5399 Y2.9303
G01 F60.00
G00 Z2.0000
G01 Z-0.120
G01 F120.00
G01 X5.5399 Y3.0131
G01 X5.5175 Y3.0049
G01 X5.4987 Y2.9991
G01 X5.5399 Y2.9303
G00 Z2.0000
G00 X4.6008 Y8.6357
G01 F60.00
G00 Z2.0000
G01 Z-0.120
G01 F120.00
G01 X4.5786 Y8.6252
G01 X4.5639 Y8.6163
G01 X4.5481 Y8.6046
G01 X4.5319 Y8.5896
G01 X4.5204 Y8.5769
G01 X4.5087 Y8.5611
G01 X4.4986 Y8.5443
G01 X4.4912 Y8.5288
G01 X4.4836 Y8.5081
G01 X4.4788 Y8.4890
G01 X4.4763 Y8.4720
G01 X4.4750 Y8.4500
G01 X4.4750 Y8.1488
G01 X4.4763 Y8.1280
G01 X4.4788 Y8.1110
G01 X4.4830 Y8.0943
G01 X4.4902 Y8.0735
G01 X4.4986 Y8.0557
G01 X4.5087 Y8.0389
G01 X4.5220 Y8.0213
G01 X4.5354 Y8.0069
G01 X4.5481 Y7.9954
G01 X4.5619 Y7.9851
G01 X4.5807 Y7.9736
G01 X4.5985 Y7.9652
G01 X4.6169 Y7.9586
G01 X4.6360 Y7.9538
G01 X4.6554 Y7.9510
G01 X4.6750 Y7.9500
G01 X5.9262 Y7.9500
G01 X5.9446 Y7.9510
G01 X5.9640 Y7.9538
G01 X5.9831 Y7.9586
G01 X6.0004 Y7.9648
G01 X6.0193 Y7.9736
G01 X6.0351 Y7.9830
G01 X6.0509 Y7.9946
G01 X6.0569 Y7.9999
G01 X6.1757 Y7.9999
G01 X13.8878 Y0.2878
G01 X13.9096 Y0.2680
G01 X13.9313 Y0.2519
G01 X13.9596 Y0.2347
G01 X13.9874 Y0.2218
G01 X14.0129 Y0.2128
G01 X14.0391 Y0.2062
G01 X14.0706 Y0.2013
G01 X14.1000 Y0.1999
G01 X16.5000 Y0.1999
G01 X16.5294 Y0.2013
G01 X16.5586 Y0.2056
G01 X16.5871 Y0.2128
G01 X16.6149 Y0.2227
G01 X16.6415 Y0.2353
G01 X16.6667 Y0.2505
G01 X16.6904 Y0.2680
G01 X16.7113 Y0.2869
G01 X17.3472 Y0.9228
G01 X17.3678 Y0.9456
G01 X17.3845 Y0.9683
G01 X17.3985 Y0.9914
G01 X17.4123 Y1.0201
G01 X17.4229 Y1.0502
G01 X17.4294 Y1.0764
G01 X17.4335 Y1.1044
G01 X17.4351 Y1.1350
G01 X17.4351 Y1.4776
G01 X17.4805 Y1.4940
G01 X17.5603 Y1.5319
G01 X17.6350 Y1.5767
G01 X17.7069 Y1.6301
G01 X17.7714 Y1.6886
G01 X17.8307 Y1.7540
G01 X17.8833 Y1.8250
G01 X17.9293 Y1.9018
G01 X17.9665 Y1.9806
G01 X17.9955 Y2.0614
G01 X18.0177 Y2.1494
G01 X18.0308 Y2.2392
G01 X18.0350 Y2.3250
G01 X18.0307 Y2.4132
G01 X18.0177 Y2.5006
G01 X17.9969 Y2.5839
G01 X17.9665 Y2.6694
G01 X17.9275 Y2.7514
G01 X17.8833 Y2.8250
G01 X17.8307 Y2.8960
G01 X17.7696 Y2.9631
G01 X17.7060 Y3.0207
G01 X17.6350 Y3.0733
G01 X17.5571 Y3.1198
G01 X17.4794 Y3.1565
G01 X17.3963 Y3.1862
G01 X17.3082 Y3.2081
G01 X17.2232 Y3.2207
G01 X17.1350 Y3.2250
G01 X17.0468 Y3.2207
G01 X16.9618 Y3.2081
G01 X16.8737 Y3.1862
G01 X16.7883 Y3.1555
G01 X16.7107 Y3.1187
G01 X16.6371 Y3.0746
G01 X16.5640 Y3.0207
G01 X16.4969 Y2.9596
G01 X16.4393 Y2.8960
G01 X16.3881 Y2.8270
G01 X16.3413 Y2.7493
G01 X16.3026 Y2.6671
G01 X16.2738 Y2.5863
G01 X16.2523 Y2.5006
G01 X16.2393 Y2.4132
G01 X16.2350 Y2.3250
G01 X16.2393 Y2.2368
G01 X16.2519 Y2.1518
G01 X16.2745 Y2.0614
G01 X16.3035 Y1.9806
G01 X16.3419 Y1.8997
G01 X16.3867 Y1.8250
G01 X16.4393 Y1.7540
G01 X16.4986 Y1.6886
G01 X16.5631 Y1.6301
G01 X16.6350 Y1.5767
G01 X16.7097 Y1.5319
G01 X16.7895 Y1.4940
G01 X16.8349 Y1.4776
G01 X16.8349 Y1.2593
G01 X16.3757 Y0.8001
G01 X14.2243 Y0.8001
G01 X6.5122 Y8.5122
G01 X6.4904 Y8.5320
G01 X6.4667 Y8.5495
G01 X6.4393 Y8.5658
G01 X6.4149 Y8.5773
G01 X6.3895 Y8.5864
G01 X6.3598 Y8.5941
G01 X6.3294 Y8.5987
G01 X6.3012 Y8.6001
G01 X6.0569 Y8.6001
G01 X6.0509 Y8.6054
G01 X6.0351 Y8.6170
G01 X6.0193 Y8.6264
G01 X6.0015 Y8.6348
G01 X5.9831 Y8.6414
G01 X5.9664 Y8.6456
G01 X5.9422 Y8.6492
G01 X5.9250 Y8.6500
G01 X4.6750 Y8.6500
G01 X4.6554 Y8.6490
G01 X4.6360 Y8.6462
G01 X4.6169 Y8.6414
G01 X4.6008 Y8.6357
G00 Z2.0000
G00 X4.5704 Y8.7204
G01 F60.00
G00 Z2.0000
G01 Z-0.120
G01 F120.00
G01 X4.5609 Y8.7166
G01 X4.5413 Y8.7073
G01 X4.5323 Y8.7024
G01 X4.5139 Y8.6911
G01 X4.4964 Y8.6784
G01 X4.4884 Y8.6720
G01 X4.4724 Y8.6575
G01 X4.4651 Y8.6500
G01 X4.4651 Y8.9500
G01 X4.4724 Y8.9425
G01 X4.4884 Y8.9280
G01 X4.4964 Y8.9216
G01 X4.5111 Y8.9108
G01 X4.5197 Y8.9052
G01 X4.5383 Y8.8942
G01 X4.5609 Y8.8834
G01 X4.5704 Y8.8796
G01 X4.5908 Y8.8725
G01 X4.6184 Y8.8656
G01 X4.6466 Y8.8614
G01 X4.6716 Y8.8600
G01 X5.9284 Y8.8600
G01 X5.9534 Y8.8614
G01 X5.9748 Y8.8644
G01 X5.9849 Y8.8663
G01 X6.0092 Y8.8725
G01 X6.0360 Y8.8821
G01 X6.0556 Y8.8912
G01 X6.0677 Y8.8976
G01 X6.0876 Y8.9099
G01 X7.4384 Y8.9099
G01 X13.6708 Y2.6775
G01 X13.6476 Y2.6124
G01 X13.6240 Y2.5181
G01 X13.6098 Y2.4220
G01 X13.6052 Y2.3319
G01 X13.6052 Y2.3181
G01 X13.6093 Y2.2348
G01 X13.6106 Y2.2211
G01 X13.6240 Y2.1319
G01 X13.6458 Y2.0442
G01 X13.6498 Y2.0311
G01 X13.6779 Y1.9526
G01 X13.6831 Y1.9399
G01 X13.7219 Y1.8583
G01 X13.7718 Y1.7750
G01 X13.8255 Y1.7024
G01 X13.8342 Y1.6917
G01 X13.8950 Y1.6250
G01 X13.9643 Y1.5619
G01 X13.9724 Y1.5555
G01 X14.0450 Y1.5018
G01 X14.1223 Y1.4553
G01 X14.1345 Y1.4488
G01 X14.2161 Y1.4104
G01 X14.3011 Y1.3798
G01 X14.3142 Y1.3758
G01 X14.4019 Y1.3540
G01 X14.4980 Y1.3398
G01 X14.5881 Y1.3352
G01 X14.6019 Y1.3352
G01 X14.6920 Y1.3398
G01 X14.7814 Y1.3528
G01 X14.7948 Y1.3555
G01 X14.8824 Y1.3776
G01 X14.9674 Y1.4079
G01 X14.9801 Y1.4131
G01 X15.0617 Y1.4519
G01 X15.1392 Y1.4982
G01 X15.1506 Y1.5058
G01 X15.2230 Y1.5597
G01 X15.2950 Y1.6250
G01 X15.3558 Y1.6917
G01 X15.3645 Y1.7024
G01 X15.4182 Y1.7750
G01 X15.4647 Y1.8523
G01 X15.4712 Y1.8645
G01 X15.5096 Y1.9461
G01 X15.5402 Y2.0311
G01 X15.5442 Y2.0442
G01 X15.5660 Y2.1319
G01 X15.5794 Y2.2211
G01 X15.5807 Y2.2348
G01 X15.5850 Y2.3250
G01 X15.5807 Y2.4152
G01 X15.5794 Y2.4289
G01 X15.5660 Y2.5181
G01 X15.5442 Y2.6058
G01 X15.5402 Y2.6189
G01 X15.5096 Y2.7039
G01 X15.4712 Y2.7855
G01 X15.4647 Y2.7977
G01 X15.4182 Y2.8750
G01 X15.3645 Y2.9476
G01 X15.3558 Y2.9583
G01 X15.2950 Y3.0250
G01 X15.2230 Y3.0903
G01 X15.1506 Y3.1442
G01 X15.1392 Y3.1518
G01 X15.0617 Y3.1981
G01 X14.9739 Y3.2396
G01 X14.8889 Y3.2702
G01 X14.8758 Y3.2742
G01 X14.7881 Y3.2960
G01 X14.6989 Y3.3094
G01 X14.6852 Y3.3107
G01 X14.5950 Y3.3150
G01 X14.4980 Y3.3102
G01 X14.4019 Y3.2960
G01 X14.3142 Y3.2742
G01 X14.3011 Y3.2702
G01 X14.2226 Y3.2421
G01 X14.2133 Y3.2384
G01 X7.8759 Y9.5759
G01 X7.8527 Y9.5971
G01 X7.8448 Y9.6037
G01 X7.8167 Y9.6244
G01 X7.7839 Y9.6441
G01 X7.7493 Y9.6604
G01 X7.7198 Y9.6712
G01 X7.7066 Y9.6752
G01 X7.6828 Y9.6811
G01 X7.6727 Y9.6833
G01 X7.6382 Y9.6882
G01 X7.6034 Y9.6901
G01 X6.0876 Y9.6901
G01 X6.0677 Y9.7024
G01 X6.0556 Y9.7088
G01 X6.0360 Y9.7179
G01 X6.0092 Y9.7275
G01 X5.9816 Y9.7344
G01 X5.9602 Y9.7378
G01 X5.9500 Y9.7389
G01 X5.9250 Y9.7400
G01 X4.6716 Y9.7400
G01 X4.6466 Y9.7386
G01 X4.6184 Y9.7344
G01 X4.5941 Y9.7285
G01 X4.5731 Y9.7213
G01 X4.7117 Y9.8600
G01 X5.9250 Y9.8600
G01 X5.9466 Y9.8609
G01 X5.9568 Y9.8618
G01 X5.9782 Y9.8649
G01 X5.9883 Y9.8671
G01 X6.0092 Y9.8725
G01 X6.0360 Y9.8821
G01 X6.0617 Y9.8942
G01 X6.0803 Y9.9052
G01 X6.0917 Y9.9128
G01 X6.1116 Y9.9280
G01 X6.1301 Y9.9449
G01 X6.1470 Y9.9634
G01 X6.1622 Y9.9833
G01 X6.1698 Y9.9947
G01 X6.1808 Y10.0133
G01 X6.1929 Y10.0390
G01 X6.2025 Y10.0658
G01 X6.2079 Y10.0867
G01 X6.2106 Y10.1002
G01 X6.2139 Y10.1250
G01 X6.2150 Y10.1500
G01 X6.2150 Y10.4534
G01 X6.2136 Y10.4784
G01 X6.2106 Y10.4998
G01 X6.2087 Y10.5099
G01 X6.2025 Y10.5342
G01 X6.1954 Y10.5546
G01 X6.1916 Y10.5641
G01 X6.1823 Y10.5837
G01 X6.1774 Y10.5927
G01 X6.1661 Y10.6111
G01 X6.1534 Y10.6286
G01 X6.1470 Y10.6366
G01 X6.1348 Y10.6501
G01 X6.1276 Y10.6575
G01 X6.1116 Y10.6720
G01 X6.1036 Y10.6784
G01 X6.0861 Y10.6911
G01 X6.0617 Y10.7058
G01 X6.0423 Y10.7151
G01 X6.0328 Y10.7192
G01 X6.0092 Y10.7275
G01 X5.9816 Y10.7344
G01 X5.9534 Y10.7386
G01 X5.9284 Y10.7400
G01 X4.6750 Y10.7400
G01 X4.6500 Y10.7389
G01 X4.6398 Y10.7378
G01 X4.6184 Y10.7344
G01 X4.5908 Y10.7275
G01 X4.5640 Y10.7179
G01 X4.5444 Y10.7088
G01 X4.5353 Y10.7041
G01 X4.5168 Y10.6930
G01 X4.5083 Y10.6872
G01 X4.4917 Y10.6747
G01 X4.4802 Y10.6712
G01 X4.4507 Y10.6604
G01 X4.4222 Y10.6471
G01 X4.4131 Y10.6424
G01 X4.3891 Y10.6281
G01 X4.3804 Y10.6224
G01 X4.3552 Y10.6037
G01 X4.3473 Y10.5971
G01 X4.3241 Y10.5759
G01 X3.7944 Y10.0459
G01 X3.7756 Y10.0251
G01 X3.7692 Y10.0171
G01 X3.7506 Y9.9917
G01 X3.7343 Y9.9649
G01 X3.7294 Y9.9559
G01 X3.7159 Y9.9275
G01 X3.7121 Y9.9179
G01 X3.7027 Y9.8915
G01 X3.6998 Y9.8816
G01 X3.6939 Y9.8578
G01 X3.6912 Y9.8443
G01 X3.6868 Y9.8132
G01 X3.6849 Y9.7750
G01 X3.6849 Y7.8973
G01 X3.6862 Y7.8659
G01 X3.6871 Y7.8557
G01 X3.6924 Y7.8212
G01 X3.7017 Y7.7841
G01 X3.7146 Y7.7480
G01 X3.7279 Y7.7196
G01 X3.7343 Y7.7074
G01 X3.7469 Y7.6864
G01 X3.7526 Y7.6777
G01 X3.7734 Y7.6498
G01 X3.7967 Y7.6239
G01 X5.8099 Y5.6107
G01 X5.8099 Y1.8616
G01 X4.9384 Y0.9901
G01 X2.7616 Y0.9901
G01 X2.4167 Y1.3350
G01 X2.7450 Y1.3350
G01 X2.7587 Y1.3357
G01 X2.7689 Y1.3371
G01 X2.7757 Y1.3384
G01 X2.7856 Y1.3410
G01 X2.7954 Y1.3444
G01 X2.8049 Y1.3484
G01 X2.8140 Y1.3532
G01 X2.8228 Y1.3586
G01 X2.8311 Y1.3646
G01 X2.8364 Y1.3690
G01 X2.8440 Y1.3760
G01 X2.8487 Y1.3810
G01 X2.8554 Y1.3889
G01 X2.8614 Y1.3972
G01 X2.8668 Y1.4060
G01 X2.8716 Y1.4151
G01 X2.8756 Y1.4246
G01 X2.8790 Y1.4344
G01 X2.8816 Y1.4443
G01 X2.8839 Y1.4579
G01 X2.8848 Y1.4681
G01 X2.8850 Y1.4750
G01 X2.8850 Y3.1784
G01 X2.8843 Y3.1887
G01 X2.8823 Y3.2023
G01 X2.8799 Y3.2123
G01 X2.8768 Y3.2222
G01 X2.8730 Y3.2317
G01 X2.8668 Y3.2440
G01 X2.8614 Y3.2528
G01 X2.8554 Y3.2611
G01 X2.8510 Y3.2664
G01 X2.8440 Y3.2740
G01 X2.8338 Y3.2832
G01 X2.8284 Y3.2874
G01 X2.8199 Y3.2933
G01 X2.8079 Y3.3001
G01 X2.8017 Y3.3030
G01 X2.7922 Y3.3068
G01 X2.7790 Y3.3108
G01 X2.7655 Y3.3135
G01 X2.7587 Y3.3143
G01 X2.7484 Y3.3150
G01 X1.0450 Y3.3150
G01 X1.0313 Y3.3143
G01 X1.0211 Y3.3129
G01 X1.0143 Y3.3116
G01 X1.0011 Y3.3079
G01 X0.9914 Y3.3043
G01 X0.9851 Y3.3016
G01 X0.9760 Y3.2968
G01 X0.9701 Y3.2933
G01 X0.9616 Y3.2874
G01 X0.9536 Y3.2810
G01 X0.9485 Y3.2764
G01 X0.9413 Y3.2690
G01 X0.9346 Y3.2611
G01 X0.9286 Y3.2528
G01 X0.9232 Y3.2440
G01 X0.9184 Y3.2349
G01 X0.9144 Y3.2254
G01 X0.9110 Y3.2156
G01 X0.9084 Y3.2057
G01 X0.9071 Y3.1989
G01 X0.9057 Y3.1887
G01 X0.9050 Y3.1784
G01 X0.9050 Y1.4750
G01 X0.9057 Y1.4613
G01 X0.9071 Y1.4511
G01 X0.9084 Y1.4443
G01 X0.9110 Y1.4344
G01 X0.9132 Y1.4278
G01 X0.9184 Y1.4151
G01 X0.9232 Y1.4060
G01 X0.9267 Y1.4001
G01 X0.9326 Y1.3916
G01 X0.9368 Y1.3862
G01 X0.9413 Y1.3810
G01 X0.9485 Y1.3736
G01 X0.9562 Y1.3668
G01 X0.9616 Y1.3626
G01 X0.9672 Y1.3586
G01 X0.9760 Y1.3532
G01 X0.9851 Y1.3484
G01 X0.9914 Y1.3457
G01 X1.0011 Y1.3421
G01 X1.0077 Y1.3401
G01 X1.0143 Y1.3384
G01 X1.0245 Y1.3365
G01 X1.0347 Y1.3354
G01 X1.0450 Y1.3350
G01 X1.5049 Y1.3350
G01 X1.5049 Y1.3016
G01 X1.5062 Y1.2736
G01 X1.5071 Y1.2633
G01 X1.5124 Y1.2289
G01 X1.5198 Y1.1984
G01 X1.5227 Y1.1885
G01 X1.5346 Y1.1557
G01 X1.5509 Y1.1211
G01 X1.5706 Y1.0883
G01 X1.5892 Y1.0629
G01 X1.5956 Y1.0549
G01 X1.6191 Y1.0291
G01 X2.3266 Y0.3217
G01 X2.3525 Y0.2984
G01 X2.3776 Y0.2796
G01 X2.3891 Y0.2719
G01 X2.4101 Y0.2593
G01 X2.4191 Y0.2544
G01 X2.4475 Y0.2409
G01 X2.4571 Y0.2371
G01 X2.4868 Y0.2267
G01 X2.5172 Y0.2189
G01 X2.5307 Y0.2162
G01 X2.5618 Y0.2118
G01 X2.6000 Y0.2099
G01 X5.1000 Y0.2099
G01 X5.1382 Y0.2118
G01 X5.1693 Y0.2162
G01 X5.1828 Y0.2189
G01 X5.2066 Y0.2248
G01 X5.2165 Y0.2277
G01 X5.2461 Y0.2383
G01 X5.2556 Y0.2424
G01 X5.2839 Y0.2559
G01 X5.3109 Y0.2719
G01 X5.3196 Y0.2776
G01 X5.3448 Y0.2963
G01 X5.3527 Y0.3029
G01 X5.3734 Y0.3217
G01 X6.4759 Y1.4241
G01 X6.5016 Y1.4525
G01 X6.5204 Y1.4776
G01 X6.5281 Y1.4891
G01 X6.5441 Y1.5161
G01 X6.5576 Y1.5444
G01 X6.5629 Y1.5571
G01 X6.5733 Y1.5868
G01 X6.5826 Y1.6239
G01 X6.5874 Y1.6549
G01 X6.5888 Y1.6686
G01 X6.5901 Y1.7000
G01 X6.5901 Y5.7723
G01 X6.5888 Y5.8037
G01 X6.5874 Y5.8174
G01 X6.5826 Y5.8484
G01 X6.5733 Y5.8856
G01 X6.5604 Y5.9216
G01 X6.5471 Y5.9501
G01 X6.5407 Y5.9622
G01 X6.5244 Y5.9891
G01 X6.5058 Y6.0144
G01 X6.4994 Y6.0224
G01 X6.4783 Y6.0457
G01 X4.6636 Y7.8604
G01 X4.6750 Y7.8600
G01 X5.9284 Y7.8600
G01 X5.9534 Y7.8614
G01 X5.9748 Y7.8644
G01 X5.9849 Y7.8663
G01 X6.0092 Y7.8725
G01 X6.0360 Y7.8821
G01 X6.0556 Y7.8912
G01 X6.0677 Y7.8976
G01 X6.0876 Y7.9099
G01 X6.1384 Y7.9099
G01 X13.8241 Y0.2241
G01 X13.8525 Y0.1984
G01 X13.8833 Y0.1756
G01 X13.9161 Y0.1559
G01 X13.9475 Y0.1409
G01 X13.9571 Y0.1371
G01 X13.9868 Y0.1267
G01 X14.0239 Y0.1174
G01 X14.0618 Y0.1118
G01 X14.1000 Y0.1099
G01 X16.5000 Y0.1099
G01 X16.5382 Y0.1118
G01 X16.5761 Y0.1174
G01 X16.6132 Y0.1267
G01 X16.6493 Y0.1396
G01 X16.6839 Y0.1559
G01 X16.7167 Y0.1756
G01 X16.7475 Y0.1984
G01 X16.7734 Y0.2217
G01 X17.4109 Y0.8591
G01 X17.4321 Y0.8823
G01 X17.4387 Y0.8902
G01 X17.4574 Y0.9154
G01 X17.4631 Y0.9241
G01 X17.4791 Y0.9511
G01 X17.4926 Y0.9794
G01 X17.4979 Y0.9921
G01 X17.5083 Y1.0218
G01 X17.5161 Y1.0522
G01 X17.5183 Y1.0623
G01 X17.5232 Y1.0968
G01 X17.5251 Y1.1316
G01 X17.5251 Y1.4155
G01 X17.6017 Y1.4519
G01 X17.6850 Y1.5018
G01 X17.7630 Y1.5597
G01 X17.8301 Y1.6202
G01 X17.8398 Y1.6299
G01 X17.8958 Y1.6917
G01 X17.9045 Y1.7024
G01 X17.9582 Y1.7750
G01 X18.0047 Y1.8523
G01 X18.0097 Y1.8614
G01 X18.0496 Y1.9461
G01 X18.0802 Y2.0311
G01 X18.0842 Y2.0442
G01 X18.1060 Y2.1319
G01 X18.1194 Y2.2211
G01 X18.1207 Y2.2348
G01 X18.1250 Y2.3250
G01 X18.1202 Y2.4220
G01 X18.1060 Y2.5181
G01 X18.0842 Y2.6058
G01 X18.0802 Y2.6189
G01 X18.0496 Y2.7039
G01 X18.0112 Y2.7855
G01 X18.0047 Y2.7977
G01 X17.9582 Y2.8750
G01 X17.9003 Y2.9530
G01 X17.8398 Y3.0201
G01 X17.8301 Y3.0298
G01 X17.7630 Y3.0903
G01 X17.6850 Y3.1482
G01 X17.6077 Y3.1947
G01 X17.5955 Y3.2012
G01 X17.5139 Y3.2396
G01 X17.4224 Y3.2724
G01 X17.3348 Y3.2945
G01 X17.3214 Y3.2972
G01 X17.2320 Y3.3102
G01 X17.1350 Y3.3150
G01 X17.0448 Y3.3107
G01 X17.0311 Y3.3094
G01 X16.9419 Y3.2960
G01 X16.8542 Y3.2742
G01 X16.8411 Y3.2702
G01 X16.7626 Y3.2421
G01 X16.7499 Y3.2369
G01 X16.6683 Y3.1981
G01 X16.5908 Y3.1518
G01 X16.5794 Y3.1442
G01 X16.5070 Y3.0903
G01 X16.4399 Y3.0298
G01 X16.4302 Y3.0201
G01 X16.3697 Y2.9530
G01 X16.3158 Y2.8806
G01 X16.3082 Y2.8692
G01 X16.2619 Y2.7917
G01 X16.2231 Y2.7101
G01 X16.2179 Y2.6974
G01 X16.1876 Y2.6124
G01 X16.1647 Y2.5215
G01 X16.1628 Y2.5114
G01 X16.1498 Y2.4220
G01 X16.1452 Y2.3319
G01 X16.1452 Y2.3181
G01 X16.1493 Y2.2348
G01 X16.1506 Y2.2211
G01 X16.1640 Y2.1319
G01 X16.1876 Y2.0376
G01 X16.2204 Y1.9461
G01 X16.2619 Y1.8583
G01 X16.3118 Y1.7750
G01 X16.3655 Y1.7024
G01 X16.3742 Y1.6917
G01 X16.4302 Y1.6299
G01 X16.4399 Y1.6202
G01 X16.5070 Y1.5597
G01 X16.5850 Y1.5018
G01 X16.6683 Y1.4519
G01 X16.7449 Y1.4155
G01 X16.7449 Y1.2966
G01 X16.3384 Y0.8901
G01 X14.2616 Y0.8901
G01 X6.5759 Y8.5759
G01 X6.5475 Y8.6016
G01 X6.5167 Y8.6244
G01 X6.4899 Y8.6407
G01 X6.4778 Y8.6471
G01 X6.4493 Y8.6604
G01 X6.4198 Y8.6712
G01 X6.4099 Y8.6743
G01 X6.3795 Y8.6819
G01 X6.3693 Y8.6838
G01 X6.3382 Y8.6882
G01 X6.3034 Y8.6901
G01 X6.0876 Y8.6901
G01 X6.0677 Y8.7024
G01 X6.0587 Y8.7073
G01 X6.0360 Y8.7179
G01 X6.0157 Y8.7254
G01 X6.0059 Y8.7285
G01 X5.9816 Y8.7344
G01 X5.9568 Y8.7382
G01 X5.9466 Y8.7391
G01 X5.9250 Y8.7400
G01 X4.6716 Y8.7400
G01 X4.6466 Y8.7386
G01 X4.6184 Y8.7344
G01 X4.5908 Y8.7275
G01 X4.5704 Y8.7204
G00 Z2.0000
G00 X4.6008 Y9.6357
G01 F60.00
G00 Z2.0000
G01 Z-0.120
G01 F120.00
G01 X4.5807 Y9.6264
G01 X4.5619 Y9.6149
G01 X4.5481 Y9.6046
G01 X4.5354 Y9.5931
G01 X4.5204 Y9.5769
G01 X4.5087 Y9.5611
G01 X4.4975 Y9.5421
G01 X4.4893 Y9.5242
G01 X4.4836 Y9.5081
G01 X4.4794 Y9.4914
G01 X4.4760 Y9.4696
G01 X4.4750 Y9.4500
G01 X4.4750 Y9.1500
G01 X4.4758 Y9.1328
G01 X4.4794 Y9.1086
G01 X4.4836 Y9.0919
G01 X4.4902 Y9.0735
G01 X4.4986 Y9.0557
G01 X4.5074 Y9.0410
G01 X4.5220 Y9.0213
G01 X4.5336 Y9.0086
G01 X4.5481 Y8.9954
G01 X4.5639 Y8.9837
G01 X4.5786 Y8.9748
G01 X4.6008 Y8.9643
G01 X4.6169 Y8.9586
G01 X4.6348 Y8.9541
G01 X4.6554 Y8.9510
G01 X4.6750 Y8.9500
G01 X5.9262 Y8.9500
G01 X5.9446 Y8.9510
G01 X5.9640 Y8.9538
G01 X5.9831 Y8.9586
G01 X6.0004 Y8.9648
G01 X6.0193 Y8.9736
G01 X6.0351 Y8.9830
G01 X6.0509 Y8.9946
G01 X6.0569 Y8.9999
G01 X7.4757 Y8.9999
G01 X13.7772 Y2.6984
G01 X13.7631 Y2.6683
G01 X13.7334 Y2.5851
G01 X13.7123 Y2.5006
G01 X13.6995 Y2.4144
G01 X13.6951 Y2.3225
G01 X13.6993 Y2.2368
G01 X13.7121 Y2.1506
G01 X13.7345 Y2.0614
G01 X13.7635 Y1.9806
G01 X13.8013 Y1.9007
G01 X13.8467 Y1.8250
G01 X13.8978 Y1.7560
G01 X13.9604 Y1.6869
G01 X14.0240 Y1.6293
G01 X14.0971 Y1.5754
G01 X14.1729 Y1.5302
G01 X14.2506 Y1.4935
G01 X14.3314 Y1.4645
G01 X14.4194 Y1.4423
G01 X14.5068 Y1.4293
G01 X14.5950 Y1.4250
G01 X14.6832 Y1.4293
G01 X14.7706 Y1.4423
G01 X14.8563 Y1.4638
G01 X14.9394 Y1.4935
G01 X15.0214 Y1.5325
G01 X15.0970 Y1.5781
G01 X15.1660 Y1.6293
G01 X15.2296 Y1.6869
G01 X15.2907 Y1.7540
G01 X15.3419 Y1.8230
G01 X15.3887 Y1.9007
G01 X15.4255 Y1.9783
G01 X15.4569 Y2.0661
G01 X15.4777 Y2.1494
G01 X15.4907 Y2.2368
G01 X15.4950 Y2.3250
G01 X15.4907 Y2.4132
G01 X15.4777 Y2.5006
G01 X15.4562 Y2.5863
G01 X15.4265 Y2.6694
G01 X15.3898 Y2.7471
G01 X15.3419 Y2.8270
G01 X15.2907 Y2.8960
G01 X15.2314 Y2.9614
G01 X15.1660 Y3.0207
G01 X15.0970 Y3.0719
G01 X15.0193 Y3.1187
G01 X14.9394 Y3.1565
G01 X14.8586 Y3.1855
G01 X14.7694 Y3.2079
G01 X14.6832 Y3.2207
G01 X14.5975 Y3.2249
G01 X14.5056 Y3.2205
G01 X14.4194 Y3.2077
G01 X14.3337 Y3.1862
G01 X14.2506 Y3.1565
G01 X14.1944 Y3.1300
G01 X7.8122 Y9.5122
G01 X7.7904 Y9.5320
G01 X7.7687 Y9.5481
G01 X7.7393 Y9.5658
G01 X7.7149 Y9.5773
G01 X7.6895 Y9.5864
G01 X7.6586 Y9.5944
G01 X7.6270 Y9.5989
G01 X7.6000 Y9.6001
G01 X6.0569 Y9.6001
G01 X6.0509 Y9.6054
G01 X6.0351 Y9.6170
G01 X6.0193 Y9.6264
G01 X6.0004 Y9.6352
G01 X5.9831 Y9.6414
G01 X5.9640 Y9.6462
G01 X5.9446 Y9.6490
G01 X5.9262 Y9.6500
G01 X4.6750 Y9.6500
G01 X4.6554 Y9.6490
G01 X4.6360 Y9.6462
G01 X4.6169 Y9.6414
G01 X4.6008 Y9.6357
G00 Z2.0000
G00 X6.0729 Y8.8000
G01 F60.00
G00 Z2.0000
G01 Z-0.120
G01 F120.00
G01 X6.0991 Y8.8123
G01 X6.1130 Y8.8199
G01 X7.4011 Y8.8199
G01 X13.5668 Y2.6542
G01 X13.5615 Y2.6385
G01 X13.5585 Y2.6276
G01 X13.5382 Y2.5467
G01 X13.5358 Y2.5357
G01 X13.5338 Y2.5246
G01 X13.5202 Y2.4309
G01 X13.5153 Y2.3363
G01 X13.5150 Y2.3250
G01 X13.5153 Y2.3137
G01 X13.5202 Y2.2191
G01 X13.5216 Y2.2079
G01 X13.5358 Y2.1143
G01 X13.5585 Y2.0224
G01 X13.5615 Y2.0115
G01 X13.5931 Y1.9222
G01 X13.5994 Y1.9065
G01 X13.6374 Y1.8260
G01 X13.6425 Y1.8159
G01 X13.6481 Y1.8061
G01 X13.6970 Y1.7250
G01 X13.7532 Y1.6488
G01 X13.7601 Y1.6399
G01 X13.7675 Y1.6313
G01 X13.8313 Y1.5613
G01 X13.8395 Y1.5535
G01 X13.9099 Y1.4901
G01 X13.9858 Y1.4335
G01 X13.9950 Y1.4270
G01 X14.0045 Y1.4210
G01 X14.0859 Y1.3725
G01 X14.1714 Y1.3318
G01 X14.1817 Y1.3272
G01 X14.1922 Y1.3231
G01 X14.2708 Y1.2950
G01 X14.2815 Y1.2915
G01 X14.2924 Y1.2885
G01 X14.3843 Y1.2658
G01 X14.3954 Y1.2638
G01 X14.4891 Y1.2502
G01 X14.5837 Y1.2453
G01 X14.5950 Y1.2450
G01 X14.6896 Y1.2494
G01 X14.7009 Y1.2502
G01 X14.7121 Y1.2516
G01 X14.7946 Y1.2638
G01 X14.8057 Y1.2658
G01 X14.8167 Y1.2682
G01 X14.9085 Y1.2915
G01 X14.9978 Y1.3231
G01 X15.0083 Y1.3272
G01 X15.0186 Y1.3318
G01 X15.1041 Y1.3725
G01 X15.1855 Y1.4210
G01 X15.1950 Y1.4270
G01 X15.2042 Y1.4335
G01 X15.2801 Y1.4901
G01 X15.3505 Y1.5535
G01 X15.3587 Y1.5613
G01 X15.3665 Y1.5695
G01 X15.4225 Y1.6313
G01 X15.4299 Y1.6399
G01 X15.4368 Y1.6488
G01 X15.4930 Y1.7250
G01 X15.4990 Y1.7345
G01 X15.5475 Y1.8159
G01 X15.5882 Y1.9014
G01 X15.5928 Y1.9117
G01 X15.6250 Y2.0008
G01 X15.6285 Y2.0115
G01 X15.6315 Y2.0224
G01 X15.6518 Y2.1033
G01 X15.6542 Y2.1143
G01 X15.6562 Y2.1254
G01 X15.6698 Y2.2191
G01 X15.6706 Y2.2304
G01 X15.6750 Y2.3250
G01 X15.6706 Y2.4196
G01 X15.6698 Y2.4309
G01 X15.6684 Y2.4421
G01 X15.6542 Y2.5357
G01 X15.6315 Y2.6276
G01 X15.6285 Y2.6385
G01 X15.5969 Y2.7278
G01 X15.5928 Y2.7383
G01 X15.5882 Y2.7486
G01 X15.5526 Y2.8240
G01 X15.5475 Y2.8341
G01 X15.5419 Y2.8439
G01 X15.4930 Y2.9250
G01 X15.4368 Y3.0012
G01 X15.4262 Y3.0145
G01 X15.3665 Y3.0805
G01 X15.3587 Y3.0887
G01 X15.2887 Y3.1525
G01 X15.2801 Y3.1599
G01 X15.2712 Y3.1668
G01 X15.1950 Y3.2230
G01 X15.1855 Y3.2290
G01 X15.1041 Y3.2775
G01 X15.0186 Y3.3182
G01 X15.0083 Y3.3228
G01 X14.9978 Y3.3269
G01 X14.9192 Y3.3550
G01 X14.9031 Y3.3601
G01 X14.8167 Y3.3818
G01 X14.8057 Y3.3842
G01 X14.7121 Y3.3984
G01 X14.7009 Y3.3998
G01 X14.6896 Y3.4006
G01 X14.6063 Y3.4047
G01 X14.5894 Y3.4049
G01 X14.5004 Y3.4006
G01 X14.4891 Y3.3998
G01 X14.4779 Y3.3984
G01 X14.3899 Y3.3853
G01 X14.3733 Y3.3818
G01 X14.2869 Y3.3601
G01 X14.2708 Y3.3550
G01 X14.2364 Y3.3426
G01 X7.9395 Y9.6395
G01 X7.9131 Y9.6638
G01 X7.9046 Y9.6711
G01 X7.8760 Y9.6927
G01 X7.8667 Y9.6992
G01 X7.8572 Y9.7052
G01 X7.8313 Y9.7207
G01 X7.8213 Y9.7260
G01 X7.7837 Y9.7436
G01 X7.7501 Y9.7559
G01 X7.7340 Y9.7610
G01 X7.6937 Y9.7709
G01 X7.6527 Y9.7772
G01 X7.6358 Y9.7786
G01 X7.6000 Y9.7801
G01 X6.1130 Y9.7801
G01 X6.0991 Y9.7877
G01 X6.0729 Y9.8000
G01 X6.1041 Y9.8149
G01 X6.1266 Y9.8280
G01 X6.1408 Y9.8372
G01 X6.1617 Y9.8527
G01 X6.1704 Y9.8599
G01 X6.1897 Y9.8774
G01 X6.2015 Y9.8895
G01 X6.2187 Y9.9089
G01 X6.2345 Y9.9297
G01 X6.2440 Y9.9436
G01 X6.2546 Y9.9610
G01 X6.2627 Y9.9759
G01 X6.2739 Y9.9994
G01 X6.2782 Y10.0098
G01 X6.2851 Y10.0290
G01 X6.2886 Y10.0397
G01 X6.2916 Y10.0506
G01 X6.2965 Y10.0703
G01 X6.2987 Y10.0814
G01 X6.3032 Y10.1128
G01 X6.3047 Y10.1387
G01 X6.3050 Y10.1500
G01 X6.3050 Y10.4500
G01 X6.3037 Y10.4816
G01 X6.3018 Y10.4985
G01 X6.2987 Y10.5186
G01 X6.2965 Y10.5297
G01 X6.2886 Y10.5603
G01 X6.2782 Y10.5902
G01 X6.2739 Y10.6006
G01 X6.2652 Y10.6190
G01 X6.2574 Y10.6341
G01 X6.2410 Y10.6611
G01 X6.2223 Y10.6867
G01 X6.2151 Y10.6954
G01 X6.2015 Y10.7105
G01 X6.1897 Y10.7226
G01 X6.1661 Y10.7437
G01 X6.1408 Y10.7628
G01 X6.1266 Y10.7720
G01 X6.1041 Y10.7851
G01 X6.0729 Y10.8000
G01 X6.1041 Y10.8149
G01 X6.1290 Y10.8295
G01 X6.1420 Y10.8272
G01 X6.1766 Y10.8223
G01 X6.1928 Y10.8206
G01 X6.2091 Y10.8200
G01 X6.2649 Y10.8200
G01 X6.2637 Y10.8028
G01 X6.2637 Y10.7916
G01 X6.2641 Y10.7805
G01 X6.2651 Y10.7693
G01 X6.2667 Y10.7583
G01 X6.2688 Y10.7473
G01 X6.2714 Y10.7365
G01 X6.2901 Y10.6726
G01 X6.2936 Y10.6617
G01 X6.2976 Y10.6510
G01 X6.3022 Y10.6405
G01 X6.3073 Y10.6303
G01 X6.3140 Y10.6183
G01 X6.3452 Y10.5110
G01 X6.3455 Y10.5067
G01 X6.3456 Y10.1690
G01 X6.3465 Y10.1526
G01 X6.3478 Y10.1418
G01 X6.3508 Y10.1256
G01 X6.3533 Y10.1150
G01 X6.3745 Y10.0427
G01 X6.3799 Y10.0264
G01 X6.3866 Y10.0106
G01 X6.3916 Y10.0004
G01 X6.4002 Y9.9855
G01 X6.4065 Y9.9760
G01 X6.4132 Y9.9668
G01 X6.4204 Y9.9579
G01 X6.4320 Y9.9453
G01 X6.4403 Y9.9374
G01 X6.5018 Y9.8842
G01 X6.5155 Y9.8737
G01 X6.5299 Y9.8643
G01 X6.5399 Y9.8587
G01 X6.5554 Y9.8511
G01 X6.5715 Y9.8448
G01 X6.5879 Y9.8397
G01 X6.5991 Y9.8370
G01 X6.6560 Y9.8247
G01 X6.6722 Y9.8221
G01 X6.6886 Y9.8208
G01 X6.6995 Y9.8205
G01 X7.6513 Y9.8205
G01 X7.7518 Y9.8005
G01 X7.8465 Y9.7613
G01 X7.9318 Y9.7043
G01 X14.1025 Y3.5336
G01 X14.1145 Y3.5224
G01 X14.1229 Y3.5155
G01 X14.1317 Y3.5089
G01 X14.1454 Y3.4999
G01 X14.2162 Y3.4609
G01 X14.2261 Y3.4558
G01 X14.2363 Y3.4512
G01 X14.2519 Y3.4452
G01 X14.2679 Y3.4404
G01 X14.2842 Y3.4367
G01 X14.2952 Y3.4349
G01 X14.3118 Y3.4332
G01 X14.3490 Y3.4309
G01 X14.3606 Y3.4304
G01 X14.3721 Y3.4306
G01 X14.3836 Y3.4313
G01 X14.5950 Y3.4498
G01 X14.7903 Y3.4327
G01 X14.9797 Y3.3819
G01 X15.1574 Y3.2991
G01 X15.3180 Y3.1866
G01 X15.4566 Y3.0480
G01 X15.5782 Y2.8745
G01 X15.5849 Y2.8658
G01 X15.5920 Y2.8575
G01 X15.5995 Y2.8495
G01 X15.6074 Y2.8419
G01 X15.6198 Y2.8312
G01 X15.6789 Y2.7840
G01 X15.6929 Y2.7742
G01 X15.7076 Y2.7654
G01 X15.7178 Y2.7602
G01 X15.7282 Y2.7555
G01 X15.7388 Y2.7513
G01 X15.7496 Y2.7476
G01 X15.7606 Y2.7445
G01 X15.7717 Y2.7419
G01 X15.7830 Y2.7399
G01 X15.7943 Y2.7384
G01 X15.8638 Y2.7312
G01 X15.8809 Y2.7301
G01 X15.8923 Y2.7301
G01 X15.9037 Y2.7306
G01 X15.9208 Y2.7324
G01 X15.9320 Y2.7344
G01 X15.9487 Y2.7383
G01 X15.9596 Y2.7416
G01 X15.9704 Y2.7455
G01 X15.9809 Y2.7499
G01 X16.0536 Y2.7863
G01 X16.0683 Y2.7944
G01 X16.0777 Y2.8004
G01 X16.0869 Y2.8068
G01 X16.0957 Y2.8137
G01 X16.1041 Y2.8210
G01 X16.1122 Y2.8287
G01 X16.1200 Y2.8368
G01 X16.1442 Y2.8648
G01 X16.1550 Y2.8789
G01 X16.2734 Y3.0480
G01 X16.4120 Y3.1866
G01 X16.5726 Y3.2991
G01 X16.7503 Y3.3819
G01 X16.9397 Y3.4327
G01 X17.1350 Y3.4498
G01 X17.3303 Y3.4327
G01 X17.5197 Y3.3819
G01 X17.6974 Y3.2991
G01 X17.8580 Y3.1866
G01 X17.9966 Y3.0480
G01 X18.0887 Y2.9166
G01 X18.0954 Y2.9079
G01 X18.1025 Y2.8996
G01 X18.1100 Y2.8916
G01 X18.1219 Y2.8803
G01 X18.1894 Y2.8262
G01 X18.1987 Y2.8195
G01 X18.2083 Y2.8133
G01 X18.2232 Y2.8049
G01 X18.2335 Y2.7999
G01 X18.2440 Y2.7954
G01 X18.2601 Y2.7897
G01 X18.2767 Y2.7853
G01 X18.2879 Y2.7830
G01 X18.2991 Y2.7812
G01 X18.3743 Y2.7734
G01 X18.3914 Y2.7722
G01 X18.4085 Y2.7724
G01 X18.4199 Y2.7732
G01 X18.4369 Y2.7755
G01 X18.4481 Y2.7777
G01 X18.4592 Y2.7804
G01 X18.4701 Y2.7838
G01 X18.4809 Y2.7876
G01 X18.4914 Y2.7920
G01 X18.5018 Y2.7969
G01 X18.5641 Y2.8284
G01 X18.5791 Y2.8367
G01 X18.5887 Y2.8428
G01 X18.6026 Y2.8529
G01 X18.6114 Y2.8602
G01 X18.6239 Y2.8719
G01 X18.6317 Y2.8803
G01 X18.6427 Y2.8934
G01 X18.6494 Y2.9027
G01 X18.6557 Y2.9122
G01 X18.6968 Y2.9821
G01 X18.7019 Y2.9919
G01 X18.7066 Y3.0019
G01 X18.7108 Y3.0122
G01 X18.7161 Y3.0279
G01 X18.7190 Y3.0385
G01 X18.7214 Y3.0493
G01 X18.7233 Y3.0602
G01 X18.7278 Y3.0959
G01 X18.7289 Y3.1071
G01 X18.7294 Y3.1184
G01 X18.7295 Y4.1755
G01 X18.7292 Y4.1864
G01 X18.7285 Y4.1974
G01 X18.7272 Y4.2082
G01 X18.7253 Y4.2190
G01 X18.7230 Y4.2297
G01 X18.7005 Y4.3073
G01 X18.6970 Y4.3182
G01 X18.6930 Y4.3289
G01 X18.6860 Y4.3445
G01 X18.6806 Y4.3546
G01 X18.6748 Y4.3645
G01 X18.6685 Y4.3740
G01 X18.6618 Y4.3832
G01 X18.6508 Y4.3964
G01 X18.6430 Y4.4047
G01 X18.6347 Y4.4126
G01 X18.5776 Y4.4621
G01 X18.5688 Y4.4694
G01 X18.5595 Y4.4763
G01 X18.5451 Y4.4857
G01 X18.5351 Y4.4913
G01 X18.5248 Y4.4965
G01 X18.5143 Y4.5011
G01 X18.5035 Y4.5052
G01 X18.4926 Y4.5087
G01 X18.4815 Y4.5117
G01 X18.4190 Y4.5253
G01 X18.4082 Y4.5272
G01 X18.3919 Y4.5289
G01 X18.3755 Y4.5295
G01 X16.3644 Y4.5295
G01 X16.2956 Y4.5479
G01 X16.2339 Y4.5835
G01 X7.4916 Y13.3258
G01 X7.4837 Y13.3334
G01 X7.4754 Y13.3405
G01 X7.4668 Y13.3473
G01 X7.4579 Y13.3537
G01 X7.4487 Y13.3596
G01 X7.4392 Y13.3650
G01 X7.3779 Y13.3985
G01 X7.3628 Y13.4061
G01 X7.3471 Y13.4125
G01 X7.3364 Y13.4162
G01 X7.3256 Y13.4193
G01 X7.3146 Y13.4218
G01 X7.3035 Y13.4239
G01 X7.2659 Y13.4282
G01 X7.2475 Y13.4294
G01 X2.9424 Y13.4295
G01 X2.9315 Y13.4292
G01 X2.9206 Y13.4285
G01 X2.9043 Y13.4263
G01 X2.8882 Y13.4230
G01 X2.8776 Y13.4202
G01 X2.8106 Y13.4005
G01 X2.7943 Y13.3951
G01 X2.7786 Y13.3884
G01 X2.7633 Y13.3806
G01 X2.7487 Y13.3717
G01 X2.7347 Y13.3618
G01 X2.7259 Y13.3546
G01 X2.7174 Y13.3469
G01 X2.7054 Y13.3347
G01 X2.6558 Y13.2776
G01 X2.6450 Y13.2642
G01 X2.6352 Y13.2499
G01 X2.6266 Y13.2350
G01 X2.6190 Y13.2195
G01 X2.6147 Y13.2088
G01 X2.6108 Y13.1979
G01 X2.6061 Y13.1813
G01 X2.6027 Y13.1644
G01 X2.5913 Y13.0948
G01 X2.5896 Y13.0783
G01 X2.5891 Y13.0672
G01 X2.5892 Y13.0561
G01 X2.5898 Y13.0450
G01 X2.5955 Y12.9883
G01 X2.5955 Y12.2117
G01 X2.5887 Y12.1456
G01 X2.5499 Y12.0285
G01 X2.4861 Y11.9250
G01 X2.4000 Y11.8389
G01 X2.2965 Y11.7751
G01 X2.1794 Y11.7362
G01 X2.1133 Y11.7295
G01 X0.7367 Y11.7295
G01 X0.6605 Y11.7373
G01 X0.6441 Y11.7384
G01 X0.6331 Y11.7384
G01 X0.6222 Y11.7380
G01 X0.6059 Y11.7363
G01 X0.5951 Y11.7346
G01 X0.5208 Y11.7207
G01 X0.5042 Y11.7166
G01 X0.4879 Y11.7112
G01 X0.4721 Y11.7046
G01 X0.4618 Y11.6995
G01 X0.4518 Y11.6940
G01 X0.4421 Y11.6879
G01 X0.4328 Y11.6814
G01 X0.4237 Y11.6745
G01 X0.4150 Y11.6671
G01 X0.3599 Y11.6153
G01 X0.3517 Y11.6072
G01 X0.3402 Y11.5943
G01 X0.3331 Y11.5853
G01 X0.3265 Y11.5759
G01 X0.3203 Y11.5662
G01 X0.3146 Y11.5561
G01 X0.3095 Y11.5459
G01 X0.3048 Y11.5353
G01 X0.3007 Y11.5246
G01 X0.2956 Y11.5081
G01 X0.2785 Y11.4454
G01 X0.2759 Y11.4346
G01 X0.2729 Y11.4183
G01 X0.2711 Y11.4017
G01 X0.2705 Y11.3851
G01 X0.2705 Y8.2149
G01 X0.2708 Y8.2039
G01 X0.2721 Y8.1876
G01 X0.2737 Y8.1767
G01 X0.2770 Y8.1607
G01 X0.3012 Y8.0776
G01 X0.3070 Y8.0615
G01 X0.3116 Y8.0510
G01 X0.3194 Y8.0357
G01 X0.3283 Y8.0211
G01 X0.3382 Y8.0072
G01 X0.3454 Y7.9983
G01 X0.3531 Y7.9898
G01 X0.3611 Y7.9817
G01 X0.3696 Y7.9740
G01 X0.4224 Y7.9283
G01 X0.4358 Y7.9175
G01 X0.4501 Y7.9077
G01 X0.4600 Y7.9018
G01 X0.4753 Y7.8939
G01 X0.4912 Y7.8871
G01 X0.5076 Y7.8816
G01 X0.5187 Y7.8786
G01 X0.5299 Y7.8762
G01 X0.6052 Y7.8637
G01 X0.6162 Y7.8625
G01 X0.6273 Y7.8617
G01 X0.6383 Y7.8615
G01 X0.6494 Y7.8619
G01 X0.7367 Y7.8705
G01 X2.1133 Y7.8705
G01 X2.1794 Y7.8637
G01 X2.2965 Y7.8249
G01 X2.4000 Y7.7611
G01 X2.4861 Y7.6750
G01 X2.5499 Y7.5715
G01 X2.5888 Y7.4544
G01 X2.5955 Y7.3883
G01 X2.5955 Y6.6117
G01 X2.5887 Y6.5456
G01 X2.5499 Y6.4285
G01 X2.4861 Y6.3250
G01 X2.4000 Y6.2389
G01 X2.2965 Y6.1751
G01 X2.1794 Y6.1362
G01 X2.1133 Y6.1295
G01 X0.7367 Y6.1295
G01 X0.6550 Y6.1378
G01 X0.6441 Y6.1384
G01 X0.6331 Y6.1384
G01 X0.6167 Y6.1376
G01 X0.6059 Y6.1363
G01 X0.5951 Y6.1346
G01 X0.5152 Y6.1195
G01 X0.5042 Y6.1166
G01 X0.4879 Y6.1112
G01 X0.4773 Y6.1069
G01 X0.4618 Y6.0995
G01 X0.4470 Y6.0910
G01 X0.4374 Y6.0848
G01 X0.4237 Y6.0745
G01 X0.4150 Y6.0671
G01 X0.3558 Y6.0113
G01 X0.3478 Y6.0030
G01 X0.3366 Y5.9899
G01 X0.3297 Y5.9806
G01 X0.3233 Y5.9711
G01 X0.3146 Y5.9561
G01 X0.3071 Y5.9406
G01 X0.3027 Y5.9300
G01 X0.2989 Y5.9191
G01 X0.2956 Y5.9081
G01 X0.2759 Y5.8346
G01 X0.2738 Y5.8237
G01 X0.2722 Y5.8128
G01 X0.2711 Y5.8017
G01 X0.2706 Y5.7907
G01 X0.2705 Y3.6403
G01 X0.2708 Y3.6294
G01 X0.2721 Y3.6130
G01 X0.2747 Y3.5968
G01 X0.2770 Y3.5861
G01 X0.2995 Y3.5085
G01 X0.3030 Y3.4976
G01 X0.3070 Y3.4869
G01 X0.3140 Y3.4713
G01 X0.3194 Y3.4612
G01 X0.3252 Y3.4513
G01 X0.3315 Y3.4418
G01 X0.3418 Y3.4281
G01 X0.3492 Y3.4194
G01 X0.3570 Y3.4111
G01 X0.3696 Y3.3995
G01 X0.4267 Y3.3500
G01 X0.4357 Y3.3430
G01 X0.4451 Y3.3364
G01 X0.4547 Y3.3303
G01 X0.4646 Y3.3246
G01 X0.4749 Y3.3195
G01 X0.4853 Y3.3149
G01 X0.4960 Y3.3108
G01 X0.5068 Y3.3072
G01 X0.5234 Y3.3029
G01 X0.5403 Y3.2999
G01 X0.6094 Y3.2899
G01 X0.6205 Y3.2886
G01 X0.6317 Y3.2878
G01 X0.6485 Y3.2877
G01 X0.6652 Y3.2887
G01 X0.6819 Y3.2910
G01 X0.6983 Y3.2945
G01 X0.7144 Y3.2992
G01 X0.7250 Y3.3030
G01 X0.7868 Y3.3286
G01 X0.7973 Y3.3332
G01 X0.8076 Y3.3384
G01 X0.8176 Y3.3441
G01 X0.8273 Y3.3503
G01 X0.8366 Y3.3569
G01 X0.9140 Y3.4149
G01 X0.9908 Y3.4435
G01 X1.0095 Y3.4455
G01 X2.7805 Y3.4455
G01 X2.7992 Y3.4435
G01 X2.8760 Y3.4149
G01 X2.9382 Y3.3682
G01 X2.9849 Y3.3060
G01 X3.0245 Y3.1999
G01 X3.0311 Y3.1849
G01 X3.0361 Y3.1752
G01 X3.0416 Y3.1657
G01 X3.0475 Y3.1565
G01 X3.0539 Y3.1476
G01 X3.0992 Y3.0871
G01 X3.1065 Y3.0783
G01 X3.1142 Y3.0699
G01 X3.1266 Y3.0580
G01 X3.1398 Y3.0471
G01 X3.1490 Y3.0403
G01 X3.1585 Y3.0341
G01 X3.1684 Y3.0283
G01 X3.1785 Y3.0230
G01 X3.1942 Y3.0160
G01 X3.2650 Y2.9896
G01 X3.2812 Y2.9842
G01 X3.2923 Y2.9813
G01 X3.3091 Y2.9779
G01 X3.3204 Y2.9764
G01 X3.3318 Y2.9755
G01 X3.3432 Y2.9751
G01 X3.3546 Y2.9752
G01 X3.3660 Y2.9760
G01 X3.3774 Y2.9773
G01 X3.3942 Y2.9803
G01 X3.4625 Y2.9952
G01 X3.4793 Y2.9995
G01 X3.4958 Y3.0051
G01 X3.5118 Y3.0119
G01 X3.5272 Y3.0199
G01 X3.5420 Y3.0291
G01 X3.5514 Y3.0358
G01 X3.5840 Y3.0603
G01 X3.5966 Y3.0709
G01 X3.7123 Y3.1862
G01 X3.8729 Y3.2987
G01 X3.9550 Y3.3370
G01 X3.9550 Y3.2915
G01 X3.9309 Y3.2801
G01 X3.9209 Y3.2748
G01 X3.8397 Y3.2261
G01 X3.8258 Y3.2165
G01 X3.7588 Y3.1668
G01 X3.7455 Y3.1562
G01 X3.6795 Y3.0965
G01 X3.6713 Y3.0887
G01 X3.6635 Y3.0805
G01 X3.6001 Y3.0101
G01 X3.5932 Y3.0012
G01 X3.5402 Y2.9297
G01 X3.5310 Y2.9155
G01 X3.4825 Y2.8341
G01 X3.4418 Y2.7486
G01 X3.4372 Y2.7383
G01 X3.4331 Y2.7278
G01 X3.4015 Y2.6385
G01 X3.3782 Y2.5467
G01 X3.3747 Y2.5301
G01 X3.3616 Y2.4421
G01 X3.3602 Y2.4309
G01 X3.3594 Y2.4196
G01 X3.3550 Y2.3250
G01 X3.3594 Y2.2304
G01 X3.3602 Y2.2191
G01 X3.3616 Y2.2079
G01 X3.3758 Y2.1143
G01 X3.3985 Y2.0224
G01 X3.4015 Y2.0115
G01 X3.4050 Y2.0008
G01 X3.4372 Y1.9117
G01 X3.4774 Y1.8260
G01 X3.4825 Y1.8159
G01 X3.4881 Y1.8061
G01 X3.5370 Y1.7250
G01 X3.5932 Y1.6488
G01 X3.6001 Y1.6399
G01 X3.6075 Y1.6313
G01 X3.6674 Y1.5654
G01 X3.6795 Y1.5535
G01 X3.7499 Y1.4901
G01 X3.8258 Y1.4335
G01 X3.8350 Y1.4270
G01 X3.8445 Y1.4210
G01 X3.9161 Y1.3781
G01 X3.9259 Y1.3725
G01 X3.9360 Y1.3674
G01 X4.0217 Y1.3272
G01 X4.1108 Y1.2950
G01 X4.1215 Y1.2915
G01 X4.1324 Y1.2885
G01 X4.2243 Y1.2658
G01 X4.2354 Y1.2638
G01 X4.3291 Y1.2502
G01 X4.4237 Y1.2453
G01 X4.4350 Y1.2450
G01 X4.5296 Y1.2494
G01 X4.5409 Y1.2502
G01 X4.5521 Y1.2516
G01 X4.6346 Y1.2638
G01 X4.6457 Y1.2658
G01 X4.6567 Y1.2682
G01 X4.7485 Y1.2915
G01 X4.8378 Y1.3231
G01 X4.8483 Y1.3272
G01 X4.8586 Y1.3318
G01 X4.9441 Y1.3725
G01 X5.0255 Y1.4210
G01 X5.0350 Y1.4270
G01 X5.0442 Y1.4335
G01 X5.1201 Y1.4901
G01 X5.1905 Y1.5535
G01 X5.1987 Y1.5613
G01 X5.2065 Y1.5695
G01 X5.2699 Y1.6399
G01 X5.3265 Y1.7158
G01 X5.3330 Y1.7250
G01 X5.3390 Y1.7345
G01 X5.3848 Y1.8109
G01 X5.3926 Y1.8260
G01 X5.4328 Y1.9117
G01 X5.4369 Y1.9222
G01 X5.4685 Y2.0115
G01 X5.4918 Y2.1033
G01 X5.4942 Y2.1143
G01 X5.5084 Y2.2079
G01 X5.5098 Y2.2191
G01 X5.5106 Y2.2304
G01 X5.5150 Y2.3250
G01 X5.5106 Y2.4196
G01 X5.5098 Y2.4309
G01 X5.5084 Y2.4421
G01 X5.4942 Y2.5357
G01 X5.4715 Y2.6276
G01 X5.4685 Y2.6385
G01 X5.4650 Y2.6492
G01 X5.4328 Y2.7383
G01 X5.3926 Y2.8240
G01 X5.3875 Y2.8341
G01 X5.3819 Y2.8439
G01 X5.3330 Y2.9250
G01 X5.3265 Y2.9342
G01 X5.2734 Y3.0057
G01 X5.2625 Y3.0187
G01 X5.1987 Y3.0887
G01 X5.1287 Y3.1525
G01 X5.1157 Y3.1634
G01 X5.0442 Y3.2165
G01 X5.0303 Y3.2261
G01 X4.9491 Y3.2748
G01 X4.9391 Y3.2801
G01 X4.9150 Y3.2915
G01 X4.9150 Y3.3370
G01 X4.9971 Y3.2987
G01 X5.1270 Y3.2078
G01 X5.1410 Y3.1992
G01 X5.1506 Y3.1941
G01 X5.1605 Y3.1893
G01 X5.1706 Y3.1851
G01 X5.1809 Y3.1814
G01 X5.2471 Y3.1590
G01 X5.2635 Y3.1542
G01 X5.2803 Y3.1505
G01 X5.2972 Y3.1482
G01 X5.3143 Y3.1471
G01 X5.3314 Y3.1472
G01 X5.3485 Y3.1487
G01 X5.3598 Y3.1504
G01 X5.3710 Y3.1526
G01 X5.4443 Y3.1709
G01 X5.4553 Y3.1740
G01 X5.4715 Y3.1796
G01 X5.4873 Y3.1864
G01 X5.5025 Y3.1943
G01 X5.5170 Y3.2033
G01 X5.5263 Y3.2100
G01 X5.5353 Y3.2170
G01 X5.5439 Y3.2246
G01 X5.5521 Y3.2325
G01 X5.6039 Y3.2875
G01 X5.6151 Y3.3004
G01 X5.6220 Y3.3094
G01 X5.6285 Y3.3188
G01 X5.6373 Y3.3334
G01 X5.6450 Y3.3486
G01 X5.6495 Y3.3591
G01 X5.6535 Y3.3698
G01 X5.6585 Y3.3861
G01 X5.6744 Y3.4528
G01 X5.6764 Y3.4634
G01 X5.6779 Y3.4740
G01 X5.6789 Y3.4848
G01 X5.6794 Y3.4955
G01 X5.6795 Y5.4101
G01 X5.6792 Y5.4210
G01 X5.6779 Y5.4374
G01 X5.6763 Y5.4482
G01 X5.6742 Y5.4590
G01 X5.6702 Y5.4749
G01 X5.6505 Y5.5419
G01 X5.6451 Y5.5580
G01 X5.6386 Y5.5736
G01 X5.6336 Y5.5837
G01 X5.6252 Y5.5984
G01 X5.6190 Y5.6079
G01 X5.6089 Y5.6214
G01 X5.5883 Y5.6468
G01 X5.5758 Y5.6604
G01 X3.6707 Y7.5655
G01 X3.6137 Y7.6508
G01 X3.5745 Y7.7455
G01 X3.5545 Y7.8460
G01 X3.5545 Y9.8263
G01 X3.5745 Y9.9268
G01 X3.6137 Y10.0215
G01 X3.6707 Y10.1068
G01 X4.1968 Y10.6329
G01 X4.2044 Y10.6408
G01 X4.2115 Y10.6491
G01 X4.2215 Y10.6621
G01 X4.2277 Y10.6712
G01 X4.2334 Y10.6805
G01 X4.2746 Y10.7566
G01 X4.2814 Y10.7719
G01 X4.2870 Y10.7877
G01 X4.2915 Y10.8038
G01 X4.2947 Y10.8200
G01 X4.4018 Y10.8203
G01 X4.4126 Y10.8210
G01 X4.4234 Y10.8223
G01 X4.4580 Y10.8272
G01 X4.4710 Y10.8295
G01 X4.4959 Y10.8149
G01 X4.5271 Y10.8000
G01 X4.5060 Y10.7902
G01 X4.4909 Y10.7824
G01 X4.4686 Y10.7690
G01 X4.4498 Y10.7559
G01 X4.4215 Y10.7457
G01 X4.4111 Y10.7414
G01 X4.3787 Y10.7260
G01 X4.3638 Y10.7179
G01 X4.3333 Y10.6992
G01 X4.3043 Y10.6781
G01 X4.2911 Y10.6675
G01 X4.2645 Y10.6434
G01 X3.7355 Y10.1145
G01 X3.7112 Y10.0881
G01 X3.7003 Y10.0752
G01 X3.6790 Y10.0464
G01 X3.6698 Y10.0322
G01 X3.6543 Y10.0063
G01 X3.6465 Y9.9912
G01 X3.6314 Y9.9587
G01 X3.6274 Y9.9482
G01 X3.6155 Y9.9144
G01 X3.6066 Y9.8797
G01 X3.6041 Y9.8687
G01 X3.5986 Y9.8333
G01 X3.5967 Y9.8164
G01 X3.5949 Y9.7750
G01 X3.5949 Y7.8973
G01 X3.5967 Y7.8559
G01 X3.5986 Y7.8391
G01 X3.6041 Y7.8036
G01 X3.6125 Y7.7688
G01 X3.6155 Y7.7579
G01 X3.6274 Y7.7241
G01 X3.6314 Y7.7136
G01 X3.6465 Y7.6811
G01 X3.6516 Y7.6710
G01 X3.6571 Y7.6612
G01 X3.6727 Y7.6353
G01 X3.6790 Y7.6259
G01 X3.7039 Y7.5927
G01 X3.7316 Y7.5619
G01 X5.7199 Y5.5734
G01 X5.7199 Y1.8989
G01 X4.9011 Y1.0801
G01 X2.7989 Y1.0801
G01 X2.6340 Y1.2450
G01 X2.7506 Y1.2451
G01 X2.7619 Y1.2456
G01 X2.7732 Y1.2467
G01 X2.7843 Y1.2484
G01 X2.7954 Y1.2506
G01 X2.8063 Y1.2533
G01 X2.8171 Y1.2566
G01 X2.8278 Y1.2604
G01 X2.8382 Y1.2647
G01 X2.8484 Y1.2696
G01 X2.8584 Y1.2749
G01 X2.8680 Y1.2807
G01 X2.8774 Y1.2870
G01 X2.8909 Y1.2972
G01 X2.8995 Y1.3046
G01 X2.9116 Y1.3164
G01 X2.9192 Y1.3248
G01 X2.9297 Y1.3380
G01 X2.9362 Y1.3472
G01 X2.9423 Y1.3568
G01 X2.9478 Y1.3666
G01 X2.9529 Y1.3767
G01 X2.9596 Y1.3922
G01 X2.9634 Y1.4029
G01 X2.9667 Y1.4137
G01 X2.9694 Y1.4246
G01 X2.9725 Y1.4413
G01 X2.9744 Y1.4581
G01 X2.9750 Y1.4750
G01 X2.9749 Y3.1806
G01 X2.9739 Y3.1975
G01 X2.9716 Y3.2143
G01 X2.9694 Y3.2254
G01 X2.9667 Y3.2363
G01 X2.9616 Y3.2525
G01 X2.9575 Y3.2630
G01 X2.9529 Y3.2733
G01 X2.9451 Y3.2884
G01 X2.9362 Y3.3028
G01 X2.9297 Y3.3120
G01 X2.9228 Y3.3209
G01 X2.9154 Y3.3295
G01 X2.9076 Y3.3376
G01 X2.8995 Y3.3454
G01 X2.8865 Y3.3563
G01 X2.8774 Y3.3630
G01 X2.8632 Y3.3723
G01 X2.8534 Y3.3778
G01 X2.8433 Y3.3829
G01 X2.8330 Y3.3875
G01 X2.8225 Y3.3916
G01 X2.8118 Y3.3951
G01 X2.8009 Y3.3981
G01 X2.7899 Y3.4006
G01 X2.7787 Y3.4025
G01 X2.7675 Y3.4039
G01 X2.7506 Y3.4049
G01 X1.0394 Y3.4049
G01 X1.0225 Y3.4039
G01 X1.0113 Y3.4025
G01 X1.0001 Y3.4006
G01 X0.9891 Y3.3981
G01 X0.9782 Y3.3951
G01 X0.9675 Y3.3916
G01 X0.9570 Y3.3875
G01 X0.9416 Y3.3804
G01 X0.9268 Y3.3723
G01 X0.9172 Y3.3662
G01 X0.9035 Y3.3563
G01 X0.8905 Y3.3454
G01 X0.8784 Y3.3336
G01 X0.8672 Y3.3209
G01 X0.8603 Y3.3120
G01 X0.8507 Y3.2980
G01 X0.8449 Y3.2884
G01 X0.8371 Y3.2733
G01 X0.8304 Y3.2578
G01 X0.8266 Y3.2471
G01 X0.8219 Y3.2309
G01 X0.8194 Y3.2199
G01 X0.8167 Y3.2032
G01 X0.8153 Y3.1863
G01 X0.8150 Y3.1750
G01 X0.8150 Y1.4750
G01 X0.8153 Y1.4637
G01 X0.8161 Y1.4525
G01 X0.8175 Y1.4413
G01 X0.8194 Y1.4301
G01 X0.8219 Y1.4191
G01 X0.8266 Y1.4029
G01 X0.8304 Y1.3922
G01 X0.8347 Y1.3818
G01 X0.8396 Y1.3716
G01 X0.8477 Y1.3568
G01 X0.8538 Y1.3472
G01 X0.8603 Y1.3380
G01 X0.8672 Y1.3291
G01 X0.8784 Y1.3164
G01 X0.8905 Y1.3046
G01 X0.8991 Y1.2972
G01 X0.9126 Y1.2870
G01 X0.9220 Y1.2807
G01 X0.9316 Y1.2749
G01 X0.9467 Y1.2671
G01 X0.9622 Y1.2604
G01 X0.9729 Y1.2566
G01 X0.9837 Y1.2533
G01 X0.9946 Y1.2506
G01 X1.0057 Y1.2484
G01 X1.0168 Y1.2467
G01 X1.0281 Y1.2456
G01 X1.0394 Y1.2451
G01 X1.4188 Y1.2450
G01 X1.4241 Y1.2113
G01 X1.4340 Y1.1710
G01 X1.4373 Y1.1602
G01 X1.4474 Y1.1318
G01 X1.4536 Y1.1161
G01 X1.4716 Y1.0787
G01 X1.4898 Y1.0478
G01 X1.4958 Y1.0383
G01 X1.5023 Y1.0290
G01 X1.5203 Y1.0048
G01 X1.5275 Y0.9961
G01 X1.5555 Y0.9655
G01 X2.2605 Y0.2605
G01 X2.2687 Y0.2527
G01 X2.2954 Y0.2289
G01 X2.3286 Y0.2040
G01 X2.3380 Y0.1977
G01 X2.3638 Y0.1821
G01 X2.3737 Y0.1766
G01 X2.3838 Y0.1715
G01 X2.4163 Y0.1564
G01 X2.4268 Y0.1524
G01 X2.4606 Y0.1405
G01 X2.5008 Y0.1303
G01 X2.5175 Y0.1272
G01 X2.5529 Y0.1222
G01 X2.5944 Y0.1199
G01 X5.1000 Y0.1199
G01 X5.1414 Y0.1217
G01 X5.1583 Y0.1236
G01 X5.1937 Y0.1291
G01 X5.2047 Y0.1316
G01 X5.2394 Y0.1405
G01 X5.2785 Y0.1543
G01 X5.2941 Y0.1610
G01 X5.3263 Y0.1766
G01 X5.3572 Y0.1948
G01 X5.3714 Y0.2040
G01 X5.4002 Y0.2253
G01 X5.4131 Y0.2362
G01 X5.4395 Y0.2605
G01 X6.5434 Y1.3645
G01 X6.5638 Y1.3869
G01 X6.5747 Y1.3998
G01 X6.5960 Y1.4286
G01 X6.6052 Y1.4428
G01 X6.6234 Y1.4737
G01 X6.6390 Y1.5059
G01 X6.6457 Y1.5215
G01 X6.6577 Y1.5552
G01 X6.6610 Y1.5660
G01 X6.6684 Y1.5953
G01 X6.6709 Y1.6063
G01 X6.6728 Y1.6175
G01 X6.6778 Y1.6529
G01 X6.6798 Y1.6887
G01 X6.6801 Y1.7000
G01 X6.6801 Y5.7723
G01 X6.6783 Y5.8138
G01 X6.6764 Y5.8306
G01 X6.6709 Y5.8660
G01 X6.6610 Y5.9063
G01 X6.6559 Y5.9224
G01 X6.6436 Y5.9561
G01 X6.6260 Y5.9936
G01 X6.6179 Y6.0085
G01 X6.5992 Y6.0391
G01 X6.5781 Y6.0680
G01 X6.5675 Y6.0812
G01 X6.5434 Y6.1078
G01 X4.8813 Y7.7700
G01 X5.9250 Y7.7700
G01 X5.9363 Y7.7703
G01 X5.9622 Y7.7718
G01 X5.9880 Y7.7754
G01 X6.0047 Y7.7785
G01 X6.0299 Y7.7848
G01 X6.0460 Y7.7899
G01 X6.0704 Y7.7989
G01 X6.0940 Y7.8098
G01 X6.1054 Y7.8156
G01 X13.7605 Y0.1605
G01 X13.7911 Y0.1325
G01 X13.8043 Y0.1219
G01 X13.8333 Y0.1008
G01 X13.8428 Y0.0948
G01 X13.8737 Y0.0766
G01 X13.9059 Y0.0610
G01 X13.9215 Y0.0543
G01 X13.9552 Y0.0423
G01 X13.9715 Y0.0375
G01 X14.0063 Y0.0291
G01 X14.0417 Y0.0236
G01 X14.0586 Y0.0217
G01 X14.0944 Y0.0199
G01 X16.5000 Y0.0199
G01 X16.5113 Y0.0202
G01 X16.5471 Y0.0222
G01 X16.5825 Y0.0272
G01 X16.5992 Y0.0303
G01 X16.6394 Y0.0405
G01 X16.6732 Y0.0524
G01 X16.6889 Y0.0586
G01 X16.7213 Y0.0740
G01 X16.7362 Y0.0821
G01 X16.7667 Y0.1008
G01 X16.8002 Y0.1253
G01 X16.8131 Y0.1362
G01 X16.8395 Y0.1605
G01 X17.4745 Y0.7955
G01 X17.4823 Y0.8037
G01 X17.5061 Y0.8304
G01 X17.5310 Y0.8636
G01 X17.5402 Y0.8778
G01 X17.5584 Y0.9087
G01 X17.5740 Y0.9409
G01 X17.5786 Y0.9513
G01 X17.5826 Y0.9618
G01 X17.5945 Y0.9956
G01 X17.6034 Y1.0303
G01 X17.6069 Y1.0469
G01 X17.6128 Y1.0879
G01 X17.6151 Y1.1294
G01 X17.6151 Y1.3585
G01 X17.6391 Y1.3699
G01 X17.6491 Y1.3752
G01 X17.7303 Y1.4239
G01 X17.7442 Y1.4335
G01 X17.8112 Y1.4832
G01 X17.8245 Y1.4938
G01 X17.8905 Y1.5535
G01 X17.8987 Y1.5613
G01 X17.9065 Y1.5695
G01 X17.9699 Y1.6399
G01 X17.9768 Y1.6488
G01 X18.0298 Y1.7203
G01 X18.0390 Y1.7345
G01 X18.0875 Y1.8159
G01 X18.1282 Y1.9014
G01 X18.1328 Y1.9117
G01 X18.1369 Y1.9222
G01 X18.1685 Y2.0115
G01 X18.1918 Y2.1033
G01 X18.1942 Y2.1143
G01 X18.1962 Y2.1254
G01 X18.2098 Y2.2191
G01 X18.2147 Y2.3137
G01 X18.2150 Y2.3250
G01 X18.2147 Y2.3363
G01 X18.2098 Y2.4309
G01 X18.1962 Y2.5246
G01 X18.1942 Y2.5357
G01 X18.1918 Y2.5467
G01 X18.1685 Y2.6385
G01 X18.1369 Y2.7278
G01 X18.1328 Y2.7383
G01 X18.1282 Y2.7486
G01 X18.0875 Y2.8341
G01 X18.0390 Y2.9155
G01 X18.0330 Y2.9250
G01 X18.0265 Y2.9342
G01 X17.9699 Y3.0101
G01 X17.9065 Y3.0805
G01 X17.8987 Y3.0887
G01 X17.8905 Y3.0965
G01 X17.8201 Y3.1599
G01 X17.8112 Y3.1668
G01 X17.7397 Y3.2198
G01 X17.7255 Y3.2290
G01 X17.6441 Y3.2775
G01 X17.6340 Y3.2826
G01 X17.5483 Y3.3228
G01 X17.4592 Y3.3550
G01 X17.4485 Y3.3585
G01 X17.3567 Y3.3818
G01 X17.3457 Y3.3842
G01 X17.3346 Y3.3862
G01 X17.2409 Y3.3998
G01 X17.1463 Y3.4047
G01 X17.1350 Y3.4050
G01 X17.1237 Y3.4047
G01 X17.0291 Y3.3998
G01 X16.9354 Y3.3862
G01 X16.9243 Y3.3842
G01 X16.8324 Y3.3615
G01 X16.8215 Y3.3585
G01 X16.7322 Y3.3269
G01 X16.7217 Y3.3228
G01 X16.6360 Y3.2826
G01 X16.6259 Y3.2775
G01 X16.5445 Y3.2290
G01 X16.5350 Y3.2230
G01 X16.5258 Y3.2165
G01 X16.4499 Y3.1599
G01 X16.3795 Y3.0965
G01 X16.3713 Y3.0887
G01 X16.3635 Y3.0805
G01 X16.3001 Y3.0101
G01 X16.2435 Y2.9342
G01 X16.2339 Y2.9203
G01 X16.1881 Y2.8439
G01 X16.1825 Y2.8341
G01 X16.1418 Y2.7486
G01 X16.1372 Y2.7383
G01 X16.1331 Y2.7278
G01 X16.1015 Y2.6385
G01 X16.0782 Y2.5467
G01 X16.0758 Y2.5357
G01 X16.0738 Y2.5246
G01 X16.0616 Y2.4421
G01 X16.0602 Y2.4309
G01 X16.0594 Y2.4196
G01 X16.0550 Y2.3250
G01 X16.0594 Y2.2304
G01 X16.0602 Y2.2191
G01 X16.0616 Y2.2079
G01 X16.0758 Y2.1143
G01 X16.0782 Y2.1033
G01 X16.0999 Y2.0169
G01 X16.1050 Y2.0008
G01 X16.1372 Y1.9117
G01 X16.1774 Y1.8260
G01 X16.1825 Y1.8159
G01 X16.1881 Y1.8061
G01 X16.2370 Y1.7250
G01 X16.2932 Y1.6488
G01 X16.3038 Y1.6355
G01 X16.3635 Y1.5695
G01 X16.3713 Y1.5613
G01 X16.4413 Y1.4975
G01 X16.4543 Y1.4866
G01 X16.5258 Y1.4335
G01 X16.5397 Y1.4239
G01 X16.6209 Y1.3752
G01 X16.6309 Y1.3699
G01 X16.6549 Y1.3585
G01 X16.6549 Y1.3339
G01 X16.3011 Y0.9801
G01 X14.2989 Y0.9801
G01 X6.6355 Y8.6434
G01 X6.6089 Y8.6675
G01 X6.5957 Y8.6781
G01 X6.5667 Y8.6992
G01 X6.5362 Y8.7179
G01 X6.5213 Y8.7260
G01 X6.4837 Y8.7436
G01 X6.4501 Y8.7559
G01 X6.4340 Y8.7610
G01 X6.4047 Y8.7684
G01 X6.3881 Y8.7719
G01 X6.3527 Y8.7772
G01 X6.3358 Y8.7786
G01 X6.3000 Y8.7801
G01 X6.1130 Y8.7801
G01 X6.0991 Y8.7877
G01 X6.0729 Y8.8000
G00 Z2.0000
G00 X6.6742 Y8.7299
G01 F60.00
G00 Z2.0000
G01 Z-0.120
G01 F120.00
G01 X6.7031 Y8.7031
G01 X13.5051 Y1.9012
G01 X13.4803 Y1.9705
G01 X13.4754 Y1.9854
G01 X13.4712 Y2.0005
G01 X13.4491 Y2.0891
G01 X13.4448 Y2.1122
G01 X13.4326 Y2.1947
G01 X13.4306 Y2.2103
G01 X13.4295 Y2.2260
G01 X13.4254 Y2.3093
G01 X13.4250 Y2.3250
G01 X13.4254 Y2.3407
G01 X13.4295 Y2.4240
G01 X13.4306 Y2.4397
G01 X13.4326 Y2.4553
G01 X13.4448 Y2.5378
G01 X13.4475 Y2.5533
G01 X13.4509 Y2.5686
G01 X13.4658 Y2.6279
G01 X7.3638 Y8.7299
G01 X6.6742 Y8.7299
G00 Z2.0000
G00 X6.8937 Y8.6399
G01 F60.00
G00 Z2.0000
G01 Z-0.120
G01 F120.00
G01 X13.3422 Y2.1914
G01 X13.3411 Y2.2015
G01 X13.3396 Y2.2216
G01 X13.3355 Y2.3049
G01 X13.3350 Y2.3250
G01 X13.3355 Y2.3451
G01 X13.3396 Y2.4284
G01 X13.3422 Y2.4585
G01 X13.3558 Y2.5510
G01 X13.3592 Y2.5708
G01 X13.3661 Y2.6003
G01 X7.3266 Y8.6399
G01 X6.8937 Y8.6399
G00 Z2.0000
G00 X7.1110 Y8.5499
G01 F60.00
G00 Z2.0000
G01 Z-0.120
G01 F120.00
G01 X13.2487 Y2.4122
G01 X13.2504 Y2.4451
G01 X13.2529 Y2.4695
G01 X13.2679 Y2.5713
G01 X7.2893 Y8.5499
G01 X7.1110 Y8.5499
G00 Z2.0000
G00 X6.3353 Y9.9208
G01 F60.00
G00 Z2.0000
G01 Z-0.120
G01 F120.00
G01 X6.3201 Y9.8955
G01 X6.3113 Y9.8824
G01 X6.3024 Y9.8701
G01 X6.3806 Y9.8701
G01 X6.3682 Y9.8819
G01 X6.3573 Y9.8934
G01 X6.3470 Y9.9055
G01 X6.3353 Y9.9208
G00 Z2.0000
G00 X5.9854 Y11.6406
G01 F60.00
G00 Z2.0000
G01 Z-0.120
G01 F120.00
G01 X6.0015 Y11.6348
G01 X6.0204 Y11.6258
G01 X6.0371 Y11.6156
G01 X6.0509 Y11.6054
G01 X6.0570 Y11.6000
G01 X6.5062 Y11.6000
G01 X6.4800 Y11.6902
G01 X6.4029 Y11.8207
G01 X6.2957 Y11.9279
G01 X6.1652 Y12.0050
G01 X6.0185 Y12.0477
G01 X5.9887 Y12.0500
G01 X5.6000 Y12.0500
G01 X5.6000 Y11.6500
G01 X5.9262 Y11.6500
G01 X5.9446 Y11.6490
G01 X5.9616 Y11.6466
G01 X5.9854 Y11.6406
G00 Z2.0000
G00 X6.0157 Y11.7254
G01 F60.00
G00 Z2.0000
G01 Z-0.120
G01 F120.00
G01 X6.0360 Y11.7179
G01 X6.0587 Y11.7073
G01 X6.0677 Y11.7024
G01 X6.0878 Y11.6900
G01 X6.3756 Y11.6900
G01 X6.3312 Y11.7651
G01 X6.2401 Y11.8562
G01 X6.1292 Y11.9218
G01 X6.0022 Y11.9587
G01 X5.9851 Y11.9600
G01 X5.6900 Y11.9600
G01 X5.6900 Y11.7400
G01 X5.9319 Y11.7398
G01 X5.9534 Y11.7386
G01 X5.9782 Y11.7351
G01 X6.0026 Y11.7293
G01 X6.0157 Y11.7254
G00 Z2.0000
G00 X6.0460 Y11.8101
G01 F60.00
G00 Z2.0000
G01 Z-0.120
G01 F120.00
G01 X6.0652 Y11.8032
G01 X6.0756 Y11.7989
G01 X6.0991 Y11.7877
G01 X6.1132 Y11.7800
G01 X6.1890 Y11.7800
G01 X6.1845 Y11.7845
G01 X6.0931 Y11.8385
G01 X5.9860 Y11.8697
G01 X5.9816 Y11.8700
G01 X5.7800 Y11.8700
G01 X5.7800 Y11.8300
G01 X5.9250 Y11.8300
G01 X5.9566 Y11.8287
G01 X5.9735 Y11.8268
G01 X5.9991 Y11.8227
G01 X6.0299 Y11.8152
G01 X6.0460 Y11.8101
G00 Z2.0000
G00 X4.4110 Y11.7800
G01 F60.00
G00 Z2.0000
G01 Z-0.120
G01 F120.00
G01 X4.4868 Y11.7800
G01 X4.5009 Y11.7877
G01 X4.5244 Y11.7989
G01 X4.5348 Y11.8032
G01 X4.5593 Y11.8119
G01 X4.5701 Y11.8152
G01 X4.5953 Y11.8215
G01 X4.6064 Y11.8237
G01 X4.6321 Y11.8275
G01 X4.6434 Y11.8287
G01 X4.6694 Y11.8299
G01 X4.8200 Y11.8300
G01 X4.8200 Y11.8700
G01 X4.6184 Y11.8700
G01 X4.6140 Y11.8697
G01 X4.5069 Y11.8385
G01 X4.4155 Y11.7845
G01 X4.4110 Y11.7800
G00 Z2.0000
G00 X4.2244 Y11.6900
G01 F60.00
G00 Z2.0000
G01 Z-0.120
G01 F120.00
G01 X4.5122 Y11.6900
G01 X4.5197 Y11.6948
G01 X4.5383 Y11.7058
G01 X4.5609 Y11.7166
G01 X4.5704 Y11.7204
G01 X4.5908 Y11.7275
G01 X4.6117 Y11.7329
G01 X4.6218 Y11.7351
G01 X4.6432 Y11.7382
G01 X4.6534 Y11.7391
G01 X4.6750 Y11.7400
G01 X4.9100 Y11.7400
G01 X4.9100 Y11.9600
G01 X4.6149 Y11.9600
G01 X4.5978 Y11.9587
G01 X4.4708 Y11.9218
G01 X4.3599 Y11.8562
G01 X4.2688 Y11.7651
G01 X4.2244 Y11.6900
G00 Z2.0000
G00 X4.0938 Y11.6000
G01 F60.00
G00 Z2.0000
G01 Z-0.120
G01 F120.00
G01 X4.5430 Y11.6000
G01 X4.5491 Y11.6054
G01 X4.5649 Y11.6170
G01 X4.5807 Y11.6264
G01 X4.5973 Y11.6343
G01 X4.6193 Y11.6420
G01 X4.6360 Y11.6462
G01 X4.6554 Y11.6490
G01 X4.6750 Y11.6500
G01 X5.0000 Y11.6500
G01 X5.0000 Y12.0500
G01 X4.6113 Y12.0500
G01 X4.5815 Y12.0477
G01 X4.4348 Y12.0050
G01 X4.3043 Y11.9279
G01 X4.1971 Y11.8207
G01 X4.1200 Y11.6902
G01 X4.0938 Y11.6000
G00 Z2.0000
G00 X0.4522 Y11.3982
G01 F60.00
G00 Z2.0000
G01 Z-0.120
G01 F120.00
G01 X0.4510 Y11.3923
G01 X0.4505 Y11.3851
G01 X0.4505 Y8.2149
G01 X0.4510 Y8.2078
G01 X0.4525 Y8.2008
G01 X0.4726 Y8.1326
G01 X0.4743 Y8.1279
G01 X0.4771 Y8.1224
G01 X0.4814 Y8.1163
G01 X0.4874 Y8.1101
G01 X0.5412 Y8.0635
G01 X0.5452 Y8.0605
G01 X0.5506 Y8.0574
G01 X0.5576 Y8.0545
G01 X0.5636 Y8.0530
G01 X0.6290 Y8.0422
G01 X0.6350 Y8.0416
G01 X0.6422 Y8.0418
G01 X0.7275 Y8.0505
G01 X2.1225 Y8.0505
G01 X2.2173 Y8.0408
G01 X2.3731 Y7.9892
G01 X2.5124 Y7.9032
G01 X2.6282 Y7.7874
G01 X2.7142 Y7.6481
G01 X2.7658 Y7.4923
G01 X2.7755 Y7.3975
G01 X2.7755 Y6.6025
G01 X2.7658 Y6.5077
G01 X2.7142 Y6.3519
G01 X2.6282 Y6.2126
G01 X2.5124 Y6.0968
G01 X2.3731 Y6.0108
G01 X2.2173 Y5.9592
G01 X2.1225 Y5.9495
G01 X0.7275 Y5.9495
G01 X0.6422 Y5.9582
G01 X0.6351 Y5.9584
G01 X0.6280 Y5.9576
G01 X0.5581 Y5.9446
G01 X0.5509 Y5.9425
G01 X0.5452 Y5.9400
G01 X0.5399 Y5.9368
G01 X0.5351 Y5.9330
G01 X0.4833 Y5.8842
G01 X0.4790 Y5.8797
G01 X0.4747 Y5.8736
G01 X0.4718 Y5.8680
G01 X0.4693 Y5.8609
G01 X0.4519 Y5.7971
G01 X0.4509 Y5.7911
G01 X0.4505 Y5.7851
G01 X0.4505 Y3.6403
G01 X0.4509 Y3.6344
G01 X0.4522 Y3.6274
G01 X0.4734 Y3.5557
G01 X0.4759 Y3.5500
G01 X0.4785 Y3.5457
G01 X0.4814 Y3.5417
G01 X0.4856 Y3.5372
G01 X0.5412 Y3.4889
G01 X0.5462 Y3.4853
G01 X0.5505 Y3.4828
G01 X0.5574 Y3.4800
G01 X0.5646 Y3.4782
G01 X0.6350 Y3.4681
G01 X0.6435 Y3.4676
G01 X0.6520 Y3.4686
G01 X0.6602 Y3.4709
G01 X0.7179 Y3.4949
G01 X0.7236 Y3.4976
G01 X0.7288 Y3.5010
G01 X0.8269 Y3.5745
G01 X0.9491 Y3.6200
G01 X0.9998 Y3.6255
G01 X2.7902 Y3.6255
G01 X2.8409 Y3.6200
G01 X2.9631 Y3.5745
G01 X3.0668 Y3.4968
G01 X3.1445 Y3.3931
G01 X3.1930 Y3.2636
G01 X3.1980 Y3.2554
G01 X3.2414 Y3.1976
G01 X3.2456 Y3.1930
G01 X3.2504 Y3.1891
G01 X3.2556 Y3.1857
G01 X3.2612 Y3.1831
G01 X3.3302 Y3.1574
G01 X3.3375 Y3.1557
G01 X3.3461 Y3.1551
G01 X3.3560 Y3.1562
G01 X3.4255 Y3.1713
G01 X3.4338 Y3.1742
G01 X3.4415 Y3.1784
G01 X3.4718 Y3.2010
G01 X3.4764 Y3.2049
G01 X3.5962 Y3.3247
G01 X3.7825 Y3.4551
G01 X3.9887 Y3.5513
G01 X4.1350 Y3.5905
G01 X4.1350 Y3.1724
G01 X4.0895 Y3.1560
G01 X4.0097 Y3.1181
G01 X3.9350 Y3.0733
G01 X3.8650 Y3.0215
G01 X3.7969 Y2.9596
G01 X3.7393 Y2.8960
G01 X3.6874 Y2.8260
G01 X3.6402 Y2.7471
G01 X3.6035 Y2.6694
G01 X3.5738 Y2.5863
G01 X3.5519 Y2.4982
G01 X3.5393 Y2.4132
G01 X3.5350 Y2.3262
G01 X3.5396 Y2.2343
G01 X3.5523 Y2.1494
G01 X3.5738 Y2.0637
G01 X3.6045 Y1.9783
G01 X3.6413 Y1.9007
G01 X3.6867 Y1.8250
G01 X3.7409 Y1.7522
G01 X3.7986 Y1.6886
G01 X3.8640 Y1.6293
G01 X3.9371 Y1.5754
G01 X4.0107 Y1.5313
G01 X4.0883 Y1.4945
G01 X4.1737 Y1.4638
G01 X4.2570 Y1.4428
G01 X4.3492 Y1.4292
G01 X4.4350 Y1.4250
G01 X4.5232 Y1.4293
G01 X4.6106 Y1.4423
G01 X4.6963 Y1.4638
G01 X4.7794 Y1.4935
G01 X4.8571 Y1.5302
G01 X4.9370 Y1.5781
G01 X5.0060 Y1.6293
G01 X5.0714 Y1.6886
G01 X5.1307 Y1.7540
G01 X5.1826 Y1.8240
G01 X5.2287 Y1.9007
G01 X5.2665 Y1.9806
G01 X5.2962 Y2.0637
G01 X5.3181 Y2.1518
G01 X5.3307 Y2.2368
G01 X5.3349 Y2.3275
G01 X5.3304 Y2.4157
G01 X5.3177 Y2.5006
G01 X5.2969 Y2.5839
G01 X5.2665 Y2.6694
G01 X5.2275 Y2.7514
G01 X5.1833 Y2.8250
G01 X5.1322 Y2.8940
G01 X5.0723 Y2.9605
G01 X5.0060 Y3.0207
G01 X4.9340 Y3.0740
G01 X4.8582 Y3.1193
G01 X4.7805 Y3.1560
G01 X4.7350 Y3.1724
G01 X4.7350 Y3.5905
G01 X4.8813 Y3.5513
G01 X5.0875 Y3.4551
G01 X5.2257 Y3.3584
G01 X5.2318 Y3.3547
G01 X5.2384 Y3.3519
G01 X5.3046 Y3.3296
G01 X5.3143 Y3.3274
G01 X5.3229 Y3.3270
G01 X5.3303 Y3.3279
G01 X5.4017 Y3.3458
G01 X5.4076 Y3.3478
G01 X5.4121 Y3.3500
G01 X5.4173 Y3.3533
G01 X5.4222 Y3.3572
G01 X5.4735 Y3.4116
G01 X5.4773 Y3.4165
G01 X5.4805 Y3.4218
G01 X5.4830 Y3.4274
G01 X5.4848 Y3.4333
G01 X5.4984 Y3.4904
G01 X5.4992 Y3.4950
G01 X5.4995 Y3.5009
G01 X5.4995 Y5.4113
G01 X5.4988 Y5.4184
G01 X5.4975 Y5.4242
G01 X5.4778 Y5.4912
G01 X5.4747 Y5.4992
G01 X5.4695 Y5.5075
G01 X5.4485 Y5.5331
G01 X3.5309 Y7.4508
G01 X3.4542 Y7.5655
G01 X3.4014 Y7.6930
G01 X3.3745 Y7.8283
G01 X3.3745 Y9.8440
G01 X3.4014 Y9.9793
G01 X3.4542 Y10.1068
G01 X3.5309 Y10.2215
G01 X4.0695 Y10.7602
G01 X4.0756 Y10.7675
G01 X4.1127 Y10.8351
G01 X4.1160 Y10.8442
G01 X4.1175 Y10.8525
G01 X4.1176 Y10.8586
G01 X4.1155 Y10.9195
G01 X4.1150 Y10.9257
G01 X4.1136 Y10.9318
G01 X4.0938 Y11.0000
G01 X4.3945 Y11.0001
G01 X4.4372 Y11.0063
G01 X4.5159 Y11.0291
G01 X4.5212 Y11.0222
G01 X4.5327 Y11.0095
G01 X4.5472 Y10.9962
G01 X4.5639 Y10.9837
G01 X4.5796 Y10.9742
G01 X4.5985 Y10.9652
G01 X4.6169 Y10.9586
G01 X4.6360 Y10.9538
G01 X4.6578 Y10.9508
G01 X4.6750 Y10.9500
G01 X5.9250 Y10.9500
G01 X5.9446 Y10.9510
G01 X5.9664 Y10.9544
G01 X5.9831 Y10.9586
G01 X5.9992 Y10.9643
G01 X6.0182 Y10.9731
G01 X6.0361 Y10.9837
G01 X6.0528 Y10.9962
G01 X6.0673 Y11.0095
G01 X6.0788 Y11.0222
G01 X6.0841 Y11.0291
G01 X6.1628 Y11.0063
G01 X6.2055 Y11.0001
G01 X6.5062 Y11.0000
G01 X6.4800 Y10.9098
G01 X6.4666 Y10.8870
G01 X6.4630 Y10.8782
G01 X6.4449 Y10.8070
G01 X6.4438 Y10.7998
G01 X6.4437 Y10.7925
G01 X6.4453 Y10.7830
G01 X6.4636 Y10.7209
G01 X6.4671 Y10.7130
G01 X6.4805 Y10.6904
G01 X6.5232 Y10.5435
G01 X6.5255 Y10.5137
G01 X6.5256 Y10.1709
G01 X6.5272 Y10.1616
G01 X6.5480 Y10.0910
G01 X6.5504 Y10.0853
G01 X6.5535 Y10.0799
G01 X6.5572 Y10.0750
G01 X6.5606 Y10.0713
G01 X6.6162 Y10.0231
G01 X6.6245 Y10.0176
G01 X6.6302 Y10.0150
G01 X6.6361 Y10.0131
G01 X6.6889 Y10.0016
G01 X6.6959 Y10.0006
G01 X7.6690 Y10.0005
G01 X7.8043 Y9.9736
G01 X7.9318 Y9.9208
G01 X8.0465 Y9.8441
G01 X14.2298 Y3.6609
G01 X14.2351 Y3.6562
G01 X14.2411 Y3.6524
G01 X14.3046 Y3.6178
G01 X14.3137 Y3.6144
G01 X14.3233 Y3.6129
G01 X14.3604 Y3.6105
G01 X14.3667 Y3.6105
G01 X14.5950 Y3.6305
G01 X14.8217 Y3.6106
G01 X15.0415 Y3.5517
G01 X15.2477 Y3.4556
G01 X15.4341 Y3.3250
G01 X15.5950 Y3.1641
G01 X15.7225 Y2.9822
G01 X15.7270 Y2.9766
G01 X15.7322 Y2.9718
G01 X15.7898 Y2.9259
G01 X15.7951 Y2.9228
G01 X15.8008 Y2.9203
G01 X15.8055 Y2.9188
G01 X15.8116 Y2.9176
G01 X15.8836 Y2.9102
G01 X15.8910 Y2.9101
G01 X15.8972 Y2.9110
G01 X15.9044 Y2.9130
G01 X15.9101 Y2.9154
G01 X15.9735 Y2.9475
G01 X15.9816 Y2.9529
G01 X15.9868 Y2.9579
G01 X16.0068 Y2.9811
G01 X16.1350 Y3.1641
G01 X16.2959 Y3.3250
G01 X16.4823 Y3.4556
G01 X16.6885 Y3.5517
G01 X16.9083 Y3.6106
G01 X17.1350 Y3.6305
G01 X17.3617 Y3.6106
G01 X17.5815 Y3.5517
G01 X17.7877 Y3.4556
G01 X17.9741 Y3.3250
G01 X18.1350 Y3.1641
G01 X18.2330 Y3.0243
G01 X18.2375 Y3.0188
G01 X18.2427 Y3.0139
G01 X18.2983 Y2.9695
G01 X18.3045 Y2.9655
G01 X18.3101 Y2.9628
G01 X18.3160 Y2.9609
G01 X18.3221 Y2.9598
G01 X18.3953 Y2.9522
G01 X18.4015 Y2.9523
G01 X18.4077 Y2.9531
G01 X18.4137 Y2.9547
G01 X18.4194 Y2.9570
G01 X18.4840 Y2.9896
G01 X18.4893 Y2.9929
G01 X18.4950 Y2.9976
G01 X18.4992 Y3.0022
G01 X18.5028 Y3.0073
G01 X18.5411 Y3.0728
G01 X18.5437 Y3.0796
G01 X18.5450 Y3.0854
G01 X18.5491 Y3.1180
G01 X18.5495 Y3.1241
G01 X18.5495 Y4.1767
G01 X18.5490 Y4.1826
G01 X18.5478 Y4.1884
G01 X18.5270 Y4.2590
G01 X18.5246 Y4.2647
G01 X18.5215 Y4.2701
G01 X18.5178 Y4.2750
G01 X18.5135 Y4.2795
G01 X18.4588 Y4.3269
G01 X18.4548 Y4.3299
G01 X18.4494 Y4.3330
G01 X18.4436 Y4.3354
G01 X18.4376 Y4.3372
G01 X18.3850 Y4.3486
G01 X18.3767 Y4.3495
G01 X16.3407 Y4.3495
G01 X16.2261 Y4.3802
G01 X16.1234 Y4.4395
G01 X7.3644 Y13.1985
G01 X7.3590 Y13.2032
G01 X7.3540 Y13.2065
G01 X7.2884 Y13.2422
G01 X7.2814 Y13.2447
G01 X7.2755 Y13.2461
G01 X7.2467 Y13.2492
G01 X7.2413 Y13.2495
G01 X2.9424 Y13.2495
G01 X2.9365 Y13.2491
G01 X2.9295 Y13.2478
G01 X2.8578 Y13.2266
G01 X2.8521 Y13.2241
G01 X2.8478 Y13.2215
G01 X2.8429 Y13.2178
G01 X2.8384 Y13.2135
G01 X2.7910 Y13.1588
G01 X2.7874 Y13.1537
G01 X2.7844 Y13.1482
G01 X2.7821 Y13.1424
G01 X2.7805 Y13.1364
G01 X2.7696 Y13.0698
G01 X2.7691 Y13.0650
G01 X2.7692 Y13.0590
G01 X2.7755 Y12.9975
G01 X2.7755 Y12.2025
G01 X2.7658 Y12.1077
G01 X2.7142 Y11.9519
G01 X2.6282 Y11.8126
G01 X2.5124 Y11.6968
G01 X2.3731 Y11.6108
G01 X2.2173 Y11.5592
G01 X2.1225 Y11.5495
G01 X0.7275 Y11.5495
G01 X0.6410 Y11.5583
G01 X0.6362 Y11.5585
G01 X0.6303 Y11.5580
G01 X0.5556 Y11.5441
G01 X0.5497 Y11.5421
G01 X0.5452 Y11.5400
G01 X0.5399 Y11.5368
G01 X0.5351 Y11.5330
G01 X0.4824 Y11.4834
G01 X0.4782 Y11.4787
G01 X0.4747 Y11.4736
G01 X0.4718 Y11.4680
G01 X0.4696 Y11.4621
G01 X0.4522 Y11.3982
G00 Z2.0000
G00 X0.3654 Y11.4218
G01 F60.00
G00 Z2.0000
G01 Z-0.120
G01 F120.00
G01 X0.3620 Y11.4053
G01 X0.3609 Y11.3952
G01 X0.3605 Y11.3851
G01 X0.3605 Y8.2149
G01 X0.3609 Y8.2049
G01 X0.3619 Y8.1950
G01 X0.3637 Y8.1851
G01 X0.3662 Y8.1754
G01 X0.3880 Y8.1018
G01 X0.3932 Y8.0889
G01 X0.3997 Y8.0766
G01 X0.4053 Y8.0678
G01 X0.4116 Y8.0595
G01 X0.4185 Y8.0516
G01 X0.4259 Y8.0443
G01 X0.4840 Y7.9940
G01 X0.4952 Y7.9857
G01 X0.5073 Y7.9785
G01 X0.5167 Y7.9739
G01 X0.5265 Y7.9700
G01 X0.5332 Y7.9679
G01 X0.5433 Y7.9653
G01 X0.6143 Y7.9534
G01 X0.6277 Y7.9518
G01 X0.6379 Y7.9515
G01 X0.6480 Y7.9519
G01 X0.7321 Y7.9605
G01 X2.1179 Y7.9605
G01 X2.1983 Y7.9523
G01 X2.3348 Y7.9071
G01 X2.4562 Y7.8321
G01 X2.5571 Y7.7312
G01 X2.6321 Y7.6098
G01 X2.6773 Y7.4733
G01 X2.6855 Y7.3929
G01 X2.6855 Y6.6071
G01 X2.6773 Y6.5267
G01 X2.6321 Y6.3902
G01 X2.5571 Y6.2688
G01 X2.4562 Y6.1679
G01 X2.3348 Y6.0929
G01 X2.1983 Y6.0477
G01 X2.1179 Y6.0395
G01 X0.7321 Y6.0395
G01 X0.6480 Y6.0481
G01 X0.6347 Y6.0485
G01 X0.6214 Y6.0476
G01 X0.6115 Y6.0461
G01 X0.5360 Y6.0319
G01 X0.5260 Y6.0291
G01 X0.5162 Y6.0256
G01 X0.5098 Y6.0228
G01 X0.5005 Y6.0181
G01 X0.4887 Y6.0108
G01 X0.4776 Y6.0023
G01 X0.4216 Y5.9498
G01 X0.4142 Y5.9423
G01 X0.4074 Y5.9343
G01 X0.4012 Y5.9258
G01 X0.3975 Y5.9199
G01 X0.3924 Y5.9107
G01 X0.3881 Y5.9011
G01 X0.3855 Y5.8945
G01 X0.3824 Y5.8845
G01 X0.3638 Y5.8152
G01 X0.3615 Y5.8019
G01 X0.3605 Y5.7851
G01 X0.3605 Y3.6370
G01 X0.3619 Y3.6204
G01 X0.3644 Y3.6073
G01 X0.3859 Y3.5338
G01 X0.3892 Y3.5239
G01 X0.3947 Y3.5112
G01 X0.3997 Y3.5020
G01 X0.4034 Y3.4961
G01 X0.4116 Y3.4849
G01 X0.4209 Y3.4746
G01 X0.4285 Y3.4675
G01 X0.4840 Y3.4195
G01 X0.4951 Y3.4112
G01 X0.5040 Y3.4057
G01 X0.5164 Y3.3995
G01 X0.5261 Y3.3956
G01 X0.5361 Y3.3925
G01 X0.5462 Y3.3901
G01 X0.6256 Y3.3786
G01 X0.6426 Y3.3776
G01 X0.6528 Y3.3780
G01 X0.6630 Y3.3791
G01 X0.6730 Y3.3810
G01 X0.6861 Y3.3847
G01 X0.6957 Y3.3882
G01 X0.7524 Y3.4117
G01 X0.7619 Y3.4161
G01 X0.7711 Y3.4212
G01 X0.7799 Y3.4269
G01 X0.8705 Y3.4947
G01 X0.9700 Y3.5318
G01 X1.0046 Y3.5355
G01 X2.7854 Y3.5355
G01 X2.8200 Y3.5318
G01 X2.9195 Y3.4947
G01 X3.0025 Y3.4325
G01 X3.0647 Y3.3495
G01 X3.1080 Y3.2334
G01 X3.1136 Y3.2213
G01 X3.1185 Y3.2125
G01 X3.1259 Y3.2015
G01 X3.1699 Y3.1428
G01 X3.1790 Y3.1323
G01 X3.1866 Y3.1251
G01 X3.1974 Y3.1164
G01 X3.2090 Y3.1087
G01 X3.2213 Y3.1023
G01 X3.2309 Y3.0983
G01 X3.2964 Y3.0739
G01 X3.3063 Y3.0706
G01 X3.3164 Y3.0681
G01 X3.3233 Y3.0668
G01 X3.3336 Y3.0655
G01 X3.3440 Y3.0651
G01 X3.3579 Y3.0656
G01 X3.3717 Y3.0676
G01 X3.4468 Y3.0839
G01 X3.4570 Y3.0868
G01 X3.4669 Y3.0904
G01 X3.4734 Y3.0933
G01 X3.4828 Y3.0982
G01 X3.4918 Y3.1037
G01 X3.4975 Y3.1078
G01 X3.5284 Y3.1310
G01 X3.5360 Y3.1375
G01 X3.6543 Y3.2554
G01 X3.8277 Y3.3769
G01 X4.0196 Y3.4664
G01 X4.0450 Y3.4732
G01 X4.0450 Y3.2346
G01 X3.9683 Y3.1981
G01 X3.8850 Y3.1482
G01 X3.8070 Y3.0903
G01 X3.7399 Y3.0298
G01 X3.7302 Y3.0201
G01 X3.6742 Y2.9583
G01 X3.6655 Y2.9476
G01 X3.6118 Y2.8750
G01 X3.5619 Y2.7917
G01 X3.5231 Y2.7101
G01 X3.5179 Y2.6974
G01 X3.4876 Y2.6124
G01 X3.4655 Y2.5248
G01 X3.4628 Y2.5114
G01 X3.4498 Y2.4220
G01 X3.4450 Y2.3250
G01 X3.4493 Y2.2348
G01 X3.4506 Y2.2211
G01 X3.4640 Y2.1319
G01 X3.4876 Y2.0376
G01 X3.5179 Y1.9526
G01 X3.5231 Y1.9399
G01 X3.5619 Y1.8583
G01 X3.6118 Y1.7750
G01 X3.6655 Y1.7024
G01 X3.6742 Y1.6917
G01 X3.7350 Y1.6250
G01 X3.8070 Y1.5597
G01 X3.8794 Y1.5058
G01 X3.8908 Y1.4982
G01 X3.9683 Y1.4519
G01 X4.0499 Y1.4131
G01 X4.0626 Y1.4079
G01 X4.1476 Y1.3776
G01 X4.2352 Y1.3555
G01 X4.2486 Y1.3528
G01 X4.3311 Y1.3406
G01 X4.3448 Y1.3393
G01 X4.4350 Y1.3350
G01 X4.5320 Y1.3398
G01 X4.6281 Y1.3540
G01 X4.7224 Y1.3776
G01 X4.8139 Y1.4104
G01 X4.8955 Y1.4488
G01 X4.9077 Y1.4553
G01 X4.9792 Y1.4982
G01 X4.9906 Y1.5058
G01 X5.0630 Y1.5597
G01 X5.1350 Y1.6250
G01 X5.2003 Y1.6970
G01 X5.2542 Y1.7694
G01 X5.2618 Y1.7808
G01 X5.3081 Y1.8583
G01 X5.3496 Y1.9461
G01 X5.3824 Y2.0376
G01 X5.4045 Y2.1252
G01 X5.4072 Y2.1386
G01 X5.4202 Y2.2280
G01 X5.4248 Y2.3181
G01 X5.4248 Y2.3319
G01 X5.4207 Y2.4152
G01 X5.4194 Y2.4289
G01 X5.4060 Y2.5181
G01 X5.3842 Y2.6058
G01 X5.3802 Y2.6189
G01 X5.3496 Y2.7039
G01 X5.3081 Y2.7917
G01 X5.2582 Y2.8750
G01 X5.2045 Y2.9476
G01 X5.1958 Y2.9583
G01 X5.1350 Y3.0250
G01 X5.0683 Y3.0858
G01 X5.0576 Y3.0945
G01 X4.9906 Y3.1442
G01 X4.9792 Y3.1518
G01 X4.9017 Y3.1981
G01 X4.8250 Y3.2346
G01 X4.8250 Y3.4732
G01 X4.8504 Y3.4664
G01 X5.0423 Y3.3769
G01 X5.1741 Y3.2846
G01 X5.1825 Y3.2792
G01 X5.1942 Y3.2729
G01 X5.2096 Y3.2667
G01 X5.2825 Y3.2423
G01 X5.2926 Y3.2398
G01 X5.3029 Y3.2381
G01 X5.3133 Y3.2372
G01 X5.3237 Y3.2370
G01 X5.3376 Y3.2380
G01 X5.3513 Y3.2404
G01 X5.4224 Y3.2582
G01 X5.4357 Y3.2623
G01 X5.4486 Y3.2676
G01 X5.4608 Y3.2742
G01 X5.4723 Y3.2820
G01 X5.4778 Y3.2863
G01 X5.4856 Y3.2932
G01 X5.5429 Y3.3543
G01 X5.5513 Y3.3653
G01 X5.5551 Y3.3711
G01 X5.5602 Y3.3801
G01 X5.5647 Y3.3895
G01 X5.5673 Y3.3959
G01 X5.5696 Y3.4025
G01 X5.5723 Y3.4125
G01 X5.5871 Y3.4748
G01 X5.5885 Y3.4845
G01 X5.5895 Y3.4976
G01 X5.5895 Y5.4134
G01 X5.5881 Y5.4300
G01 X5.5847 Y5.4463
G01 X5.5631 Y5.5199
G01 X5.5596 Y5.5295
G01 X5.5554 Y5.5390
G01 X5.5488 Y5.5510
G01 X5.5409 Y5.5623
G01 X5.5198 Y5.5885
G01 X5.5122 Y5.5968
G01 X3.6008 Y7.5081
G01 X3.5340 Y7.6081
G01 X3.4880 Y7.7192
G01 X3.4645 Y7.8372
G01 X3.4645 Y9.8351
G01 X3.4880 Y9.9531
G01 X3.5340 Y10.0642
G01 X3.6008 Y10.1642
G01 X4.1332 Y10.6966
G01 X4.1400 Y10.7039
G01 X4.1463 Y10.7116
G01 X4.1554 Y10.7255
G01 X4.1921 Y10.7928
G01 X4.1978 Y10.8051
G01 X4.2022 Y10.8180
G01 X4.2059 Y10.8346
G01 X4.2076 Y10.8515
G01 X4.2076 Y10.8617
G01 X4.2059 Y10.9100
G01 X4.3910 Y10.9100
G01 X4.4008 Y10.9103
G01 X4.4107 Y10.9114
G01 X4.4518 Y10.9174
G01 X4.4614 Y10.9196
G01 X4.4890 Y10.9276
G01 X4.5111 Y10.9108
G01 X4.5323 Y10.8976
G01 X4.5444 Y10.8912
G01 X4.5609 Y10.8834
G01 X4.5704 Y10.8796
G01 X4.5908 Y10.8725
G01 X4.6184 Y10.8656
G01 X4.6466 Y10.8614
G01 X4.6716 Y10.8600
G01 X5.9250 Y10.8600
G01 X5.9534 Y10.8614
G01 X5.9816 Y10.8656
G01 X6.0092 Y10.8725
G01 X6.0296 Y10.8796
G01 X6.0423 Y10.8849
G01 X6.0587 Y10.8927
G01 X6.0677 Y10.8976
G01 X6.0889 Y10.9108
G01 X6.1110 Y10.9276
G01 X6.1386 Y10.9196
G01 X6.1482 Y10.9174
G01 X6.1893 Y10.9114
G01 X6.1992 Y10.9103
G01 X6.2091 Y10.9100
G01 X6.3787 Y10.9100
G01 X6.3751 Y10.8980
G01 X6.3564 Y10.8237
G01 X6.3547 Y10.8136
G01 X6.3538 Y10.8035
G01 X6.3539 Y10.7865
G01 X6.3555 Y10.7730
G01 X6.3584 Y10.7597
G01 X6.3775 Y10.6946
G01 X6.3810 Y10.6848
G01 X6.3853 Y10.6753
G01 X6.3972 Y10.6544
G01 X6.4342 Y10.5273
G01 X6.4355 Y10.5102
G01 X6.4355 Y10.1745
G01 X6.4361 Y10.1612
G01 X6.4380 Y10.1480
G01 X6.4412 Y10.1351
G01 X6.4630 Y10.0614
G01 X6.4654 Y10.0549
G01 X6.4697 Y10.0454
G01 X6.4747 Y10.0362
G01 X6.4784 Y10.0303
G01 X6.4844 Y10.0218
G01 X6.4888 Y10.0164
G01 X6.4959 Y10.0088
G01 X6.5009 Y10.0040
G01 X6.5563 Y9.9559
G01 X6.5673 Y9.9473
G01 X6.5761 Y9.9416
G01 X6.5853 Y9.9365
G01 X6.5949 Y9.9322
G01 X6.6081 Y9.9275
G01 X6.6182 Y9.9249
G01 X6.6730 Y9.9130
G01 X6.6862 Y9.9111
G01 X6.6962 Y9.9105
G01 X7.6601 Y9.9105
G01 X7.7781 Y9.8870
G01 X7.8892 Y9.8410
G01 X7.9892 Y9.7742
G01 X14.1661 Y3.5973
G01 X14.1734 Y3.5905
G01 X14.1812 Y3.5842
G01 X14.1894 Y3.5785
G01 X14.1980 Y3.5734
G01 X14.2593 Y3.5399
G01 X14.2684 Y3.5353
G01 X14.2779 Y3.5315
G01 X14.2875 Y3.5283
G01 X14.2974 Y3.5258
G01 X14.3074 Y3.5241
G01 X14.3175 Y3.5231
G01 X14.3547 Y3.5207
G01 X14.3617 Y3.5204
G01 X14.3723 Y3.5207
G01 X14.5950 Y3.5401
G01 X14.8060 Y3.5217
G01 X15.0106 Y3.4668
G01 X15.2026 Y3.3773
G01 X15.3761 Y3.2558
G01 X15.5258 Y3.1061
G01 X15.6487 Y2.9305
G01 X15.6548 Y2.9226
G01 X15.6636 Y2.9126
G01 X15.6760 Y2.9015
G01 X15.7306 Y2.8579
G01 X15.7390 Y2.8517
G01 X15.7448 Y2.8479
G01 X15.7570 Y2.8412
G01 X15.7698 Y2.8358
G01 X15.7764 Y2.8335
G01 X15.7865 Y2.8308
G01 X15.8001 Y2.8284
G01 X15.8800 Y2.8202
G01 X15.8870 Y2.8200
G01 X15.8974 Y2.8204
G01 X15.9078 Y2.8215
G01 X15.9180 Y2.8234
G01 X15.9248 Y2.8251
G01 X15.9347 Y2.8282
G01 X15.9475 Y2.8336
G01 X16.0160 Y2.8682
G01 X16.0248 Y2.8733
G01 X16.0333 Y2.8791
G01 X16.0412 Y2.8855
G01 X16.0511 Y2.8948
G01 X16.0724 Y2.9192
G01 X16.0791 Y2.9276
G01 X16.2042 Y3.1061
G01 X16.3539 Y3.2558
G01 X16.5274 Y3.3773
G01 X16.7194 Y3.4668
G01 X16.9240 Y3.5217
G01 X17.1350 Y3.5401
G01 X17.3460 Y3.5217
G01 X17.5506 Y3.4668
G01 X17.7426 Y3.3773
G01 X17.9161 Y3.2558
G01 X18.0658 Y3.1061
G01 X18.1592 Y2.9727
G01 X18.1653 Y2.9647
G01 X18.1741 Y2.9548
G01 X18.1865 Y2.9436
G01 X18.2466 Y2.8958
G01 X18.2553 Y2.8900
G01 X18.2644 Y2.8849
G01 X18.2738 Y2.8805
G01 X18.2836 Y2.8767
G01 X18.2970 Y2.8729
G01 X18.3106 Y2.8705
G01 X18.3836 Y2.8629
G01 X18.3975 Y2.8622
G01 X18.4114 Y2.8628
G01 X18.4217 Y2.8642
G01 X18.4285 Y2.8655
G01 X18.4419 Y2.8692
G01 X18.4517 Y2.8729
G01 X18.4580 Y2.8757
G01 X18.5296 Y2.9120
G01 X18.5356 Y2.9156
G01 X18.5442 Y2.9215
G01 X18.5496 Y2.9258
G01 X18.5574 Y2.9328
G01 X18.5669 Y2.9429
G01 X18.5734 Y2.9511
G01 X18.5774 Y2.9568
G01 X18.6165 Y3.0229
G01 X18.6227 Y3.0349
G01 X18.6289 Y3.0505
G01 X18.6331 Y3.0668
G01 X18.6347 Y3.0767
G01 X18.6384 Y3.1069
G01 X18.6395 Y3.1207
G01 X18.6393 Y4.1822
G01 X18.6376 Y4.1987
G01 X18.6347 Y4.2117
G01 X18.6141 Y4.2820
G01 X18.6096 Y4.2951
G01 X18.6068 Y4.3015
G01 X18.6021 Y4.3108
G01 X18.5947 Y4.3226
G01 X18.5884 Y4.3309
G01 X18.5839 Y4.3362
G01 X18.5741 Y4.3460
G01 X18.5133 Y4.3985
G01 X18.5019 Y4.4066
G01 X18.4897 Y4.4135
G01 X18.4769 Y4.4191
G01 X18.4669 Y4.4225
G01 X18.4602 Y4.4243
G01 X18.4020 Y4.4370
G01 X18.3855 Y4.4391
G01 X18.3755 Y4.4395
G01 X16.3525 Y4.4395
G01 X16.2609 Y4.4641
G01 X16.1786 Y4.5115
G01 X7.4280 Y13.2622
G01 X7.4155 Y13.2732
G01 X7.4019 Y13.2827
G01 X7.3348 Y13.3195
G01 X7.3256 Y13.3241
G01 X7.3192 Y13.3268
G01 X7.3095 Y13.3303
G01 X7.3029 Y13.3322
G01 X7.2928 Y13.3344
G01 X7.2826 Y13.3359
G01 X7.2563 Y13.3387
G01 X7.2413 Y13.3395
G01 X2.9424 Y13.3395
G01 X2.9324 Y13.3391
G01 X2.9225 Y13.3381
G01 X2.9062 Y13.3347
G01 X2.8360 Y13.3141
G01 X2.8261 Y13.3108
G01 X2.8133 Y13.3053
G01 X2.8041 Y13.3003
G01 X2.7954 Y13.2947
G01 X2.7870 Y13.2884
G01 X2.7792 Y13.2815
G01 X2.7719 Y13.2741
G01 X2.7238 Y13.2187
G01 X2.7173 Y13.2105
G01 X2.7095 Y13.1988
G01 X2.7044 Y13.1896
G01 X2.6988 Y13.1768
G01 X2.6954 Y13.1668
G01 X2.6921 Y13.1532
G01 X2.6809 Y13.0857
G01 X2.6797 Y13.0756
G01 X2.6791 Y13.0655
G01 X2.6795 Y13.0520
G01 X2.6855 Y12.9929
G01 X2.6855 Y12.2071
G01 X2.6773 Y12.1267
G01 X2.6321 Y11.9902
G01 X2.5571 Y11.8688
G01 X2.4562 Y11.7679
G01 X2.3348 Y11.6929
G01 X2.1983 Y11.6477
G01 X2.1179 Y11.6395
G01 X0.7321 Y11.6395
G01 X0.6447 Y11.6483
G01 X0.6314 Y11.6484
G01 X0.6148 Y11.6467
G01 X0.5394 Y11.6327
G01 X0.5293 Y11.6301
G01 X0.5227 Y11.6280
G01 X0.5098 Y11.6228
G01 X0.4975 Y11.6164
G01 X0.4858 Y11.6088
G01 X0.4750 Y11.6000
G01 X0.4166 Y11.5449
G01 X0.4074 Y11.5343
G01 X0.4032 Y11.5287
G01 X0.3975 Y11.5199
G01 X0.3924 Y11.5107
G01 X0.3894 Y11.5043
G01 X0.3844 Y11.4912
G01 X0.3654 Y11.4218
G00 Z2.0000
G00 X0.6625 Y13.2280
G01 F60.00
G00 Z2.0000
G01 Z-0.120
G01 F120.00
G01 X0.6314 Y13.2134
G01 X0.6083 Y13.1994
G01 X0.5847 Y13.1819
G01 X0.5612 Y13.1604
G01 X0.5431 Y13.1403
G01 X0.5256 Y13.1167
G01 X0.5104 Y13.0914
G01 X0.4988 Y13.0670
G01 X0.4879 Y13.0371
G01 X0.4803 Y13.0061
G01 X0.4764 Y12.9794
G01 X0.4751 Y12.9525
G01 X0.4750 Y12.2500
G01 X0.4767 Y12.2182
G01 X0.4808 Y12.1915
G01 X0.4873 Y12.1653
G01 X0.4970 Y12.1375
G01 X0.5104 Y12.1086
G01 X0.5242 Y12.0854
G01 X0.5431 Y12.0597
G01 X0.5629 Y12.0379
G01 X0.5847 Y12.0181
G01 X0.6073 Y12.0013
G01 X0.6358 Y11.9843
G01 X0.6602 Y11.9728
G01 X0.6879 Y11.9629
G01 X0.7189 Y11.9553
G01 X0.7456 Y11.9514
G01 X0.7738 Y11.9500
G01 X2.0775 Y11.9501
G01 X2.1068 Y11.9517
G01 X2.1335 Y11.9558
G01 X2.1597 Y11.9623
G01 X2.1898 Y11.9728
G01 X2.2164 Y11.9854
G01 X2.2417 Y12.0006
G01 X2.2672 Y12.0197
G01 X2.2871 Y12.0379
G01 X2.3053 Y12.0578
G01 X2.3237 Y12.0823
G01 X2.3407 Y12.1108
G01 X2.3522 Y12.1352
G01 X2.3613 Y12.1606
G01 X2.3692 Y12.1915
G01 X2.3737 Y12.2230
G01 X2.3750 Y12.2500
G01 X2.3750 Y12.9500
G01 X2.3737 Y12.9782
G01 X2.3692 Y13.0085
G01 X2.3621 Y13.0371
G01 X2.3522 Y13.0648
G01 X2.3384 Y13.0936
G01 X2.3244 Y13.1167
G01 X2.3084 Y13.1384
G01 X2.2888 Y13.1604
G01 X2.2653 Y13.1819
G01 X2.2427 Y13.1987
G01 X2.2142 Y13.2157
G01 X2.1898 Y13.2272
G01 X2.1621 Y13.2371
G01 X2.1311 Y13.2447
G01 X2.1044 Y13.2486
G01 X2.0762 Y13.2500
G01 X0.7738 Y13.2500
G01 X0.7456 Y13.2486
G01 X0.7165 Y13.2442
G01 X0.6879 Y13.2371
G01 X0.6625 Y13.2280
G00 Z2.0000
G00 X0.6322 Y13.3128
G01 F60.00
G00 Z2.0000
G01 Z-0.120
G01 F120.00
G01 X0.6195 Y13.3075
G01 X0.5973 Y13.2970
G01 X0.5881 Y13.2923
G01 X0.5583 Y13.2743
G01 X0.5303 Y13.2536
G01 X0.5224 Y13.2470
G01 X0.5042 Y13.2305
G01 X0.4968 Y13.2233
G01 X0.4735 Y13.1974
G01 X0.4547 Y13.1723
G01 X0.4471 Y13.1609
G01 X0.4344 Y13.1398
G01 X0.4295 Y13.1308
G01 X0.4147 Y13.0992
G01 X0.4039 Y13.0697
G01 X0.4000 Y13.0566
G01 X0.3925 Y13.0261
G01 X0.3877 Y12.9950
G01 X0.3864 Y12.9814
G01 X0.3850 Y12.9500
G01 X0.3850 Y12.2500
G01 X0.3869 Y12.2118
G01 X0.3913 Y12.1807
G01 X0.3932 Y12.1706
G01 X0.4008 Y12.1401
G01 X0.4039 Y12.1303
G01 X0.4134 Y12.1039
G01 X0.4175 Y12.0945
G01 X0.4311 Y12.0662
G01 X0.4489 Y12.0362
G01 X0.4547 Y12.0277
G01 X0.4735 Y12.0026
G01 X0.4968 Y11.9767
G01 X0.5042 Y11.9695
G01 X0.5276 Y11.9485
G01 X0.5527 Y11.9297
G01 X0.5641 Y11.9221
G01 X0.5852 Y11.9094
G01 X0.5942 Y11.9045
G01 X0.6258 Y11.8897
G01 X0.6585 Y11.8778
G01 X0.6684 Y11.8750
G01 X0.6922 Y11.8690
G01 X0.7023 Y11.8669
G01 X0.7368 Y11.8619
G01 X0.7681 Y11.8602
G01 X2.0750 Y11.8600
G01 X2.1064 Y11.8614
G01 X2.1200 Y11.8627
G01 X2.1511 Y11.8675
G01 X2.1882 Y11.8768
G01 X2.2242 Y11.8897
G01 X2.2527 Y11.9030
G01 X2.2619 Y11.9077
G01 X2.2859 Y11.9221
G01 X2.2945 Y11.9277
G01 X2.3197 Y11.9464
G01 X2.3276 Y11.9530
G01 X2.3483 Y11.9718
G01 X2.3555 Y11.9792
G01 X2.3765 Y12.0026
G01 X2.3953 Y12.0277
G01 X2.4029 Y12.0391
G01 X2.4189 Y12.0662
G01 X2.4325 Y12.0945
G01 X2.4378 Y12.1072
G01 X2.4482 Y12.1368
G01 X2.4568 Y12.1706
G01 X2.4587 Y12.1807
G01 X2.4623 Y12.2050
G01 X2.4634 Y12.2152
G01 X2.4650 Y12.2500
G01 X2.4650 Y12.9500
G01 X2.4634 Y12.9848
G01 X2.4623 Y12.9950
G01 X2.4575 Y13.0261
G01 X2.4482 Y13.0632
G01 X2.4353 Y13.0992
G01 X2.4220 Y13.1277
G01 X2.4173 Y13.1369
G01 X2.4029 Y13.1609
G01 X2.3973 Y13.1695
G01 X2.3786 Y13.1947
G01 X2.3720 Y13.2026
G01 X2.3532 Y13.2233
G01 X2.3458 Y13.2305
G01 X2.3224 Y13.2515
G01 X2.2973 Y13.2703
G01 X2.2859 Y13.2779
G01 X2.2648 Y13.2906
G01 X2.2558 Y13.2955
G01 X2.2242 Y13.3103
G01 X2.1915 Y13.3222
G01 X2.1816 Y13.3250
G01 X2.1578 Y13.3310
G01 X2.1443 Y13.3337
G01 X2.1132 Y13.3381
G01 X2.0784 Y13.3400
G01 X0.7716 Y13.3400
G01 X0.7368 Y13.3381
G01 X0.6989 Y13.3325
G01 X0.6618 Y13.3232
G01 X0.6322 Y13.3128
G00 Z2.0000
G00 X0.6018 Y13.3975
G01 F60.00
G00 Z2.0000
G01 Z-0.120
G01 F120.00
G01 X0.5913 Y13.3935
G01 X0.5810 Y13.3889
G01 X0.5537 Y13.3759
G01 X0.5438 Y13.3706
G01 X0.5083 Y13.3491
G01 X0.4794 Y13.3280
G01 X0.4662 Y13.3174
G01 X0.4356 Y13.2894
G01 X0.4076 Y13.2588
G01 X0.3970 Y13.2456
G01 X0.3759 Y13.2167
G01 X0.3544 Y13.1812
G01 X0.3491 Y13.1713
G01 X0.3361 Y13.1440
G01 X0.3294 Y13.1284
G01 X0.3157 Y13.0893
G01 X0.3067 Y13.0547
G01 X0.3042 Y13.0436
G01 X0.3023 Y13.0325
G01 X0.2979 Y13.0027
G01 X0.2968 Y12.9914
G01 X0.2950 Y12.9500
G01 X0.2950 Y12.2500
G01 X0.2953 Y12.2387
G01 X0.2973 Y12.2030
G01 X0.3023 Y12.1675
G01 X0.3054 Y12.1508
G01 X0.3141 Y12.1161
G01 X0.3174 Y12.1053
G01 X0.3275 Y12.0768
G01 X0.3315 Y12.0663
G01 X0.3361 Y12.0560
G01 X0.3491 Y12.0287
G01 X0.3572 Y12.0139
G01 X0.3728 Y11.9881
G01 X0.3791 Y11.9787
G01 X0.3970 Y11.9544
G01 X0.4076 Y11.9412
G01 X0.4356 Y11.9106
G01 X0.4619 Y11.8863
G01 X0.4749 Y11.8754
G01 X0.5083 Y11.8509
G01 X0.5389 Y11.8322
G01 X0.5537 Y11.8241
G01 X0.5913 Y11.8065
G01 X0.6249 Y11.7942
G01 X0.6357 Y11.7907
G01 X0.6703 Y11.7817
G01 X0.6814 Y11.7792
G01 X0.6925 Y11.7773
G01 X0.7223 Y11.7729
G01 X0.7336 Y11.7718
G01 X0.7750 Y11.7700
G01 X2.0750 Y11.7700
G01 X2.0863 Y11.7703
G01 X2.1164 Y11.7718
G01 X2.1333 Y11.7737
G01 X2.1686 Y11.7792
G01 X2.2035 Y11.7877
G01 X2.2197 Y11.7924
G01 X2.2534 Y11.8044
G01 X2.2690 Y11.8111
G01 X2.2963 Y11.8241
G01 X2.3111 Y11.8322
G01 X2.3417 Y11.8509
G01 X2.3509 Y11.8574
G01 X2.3795 Y11.8790
G01 X2.4062 Y11.9028
G01 X2.4144 Y11.9106
G01 X2.4387 Y11.9369
G01 X2.4496 Y11.9499
G01 X2.4741 Y11.9833
G01 X2.4928 Y12.0139
G01 X2.5009 Y12.0287
G01 X2.5185 Y12.0663
G01 X2.5225 Y12.0768
G01 X2.5343 Y12.1107
G01 X2.5433 Y12.1453
G01 X2.5468 Y12.1619
G01 X2.5527 Y12.2030
G01 X2.5547 Y12.2387
G01 X2.5550 Y12.2500
G01 X2.5550 Y12.9500
G01 X2.5535 Y12.9858
G01 X2.5521 Y13.0027
G01 X2.5468 Y13.0381
G01 X2.5433 Y13.0547
G01 X2.5359 Y13.0839
G01 X2.5308 Y13.1001
G01 X2.5185 Y13.1337
G01 X2.5139 Y13.1440
G01 X2.4983 Y13.1763
G01 X2.4928 Y13.1861
G01 X2.4741 Y13.2167
G01 X2.4530 Y13.2456
G01 X2.4460 Y13.2545
G01 X2.4222 Y13.2812
G01 X2.4144 Y13.2894
G01 X2.3881 Y13.3137
G01 X2.3751 Y13.3246
G01 X2.3417 Y13.3491
G01 X2.3062 Y13.3706
G01 X2.2963 Y13.3759
G01 X2.2690 Y13.3889
G01 X2.2587 Y13.3935
G01 X2.2482 Y13.3975
G01 X2.2143 Y13.4093
G01 X2.1797 Y13.4183
G01 X2.1686 Y13.4208
G01 X2.1575 Y13.4227
G01 X2.1220 Y13.4277
G01 X2.0863 Y13.4297
G01 X2.0750 Y13.4300
G01 X0.7694 Y13.4299
G01 X0.7280 Y13.4277
G01 X0.6925 Y13.4227
G01 X0.6814 Y13.4208
G01 X0.6703 Y13.4183
G01 X0.6357 Y13.4093
G01 X0.6018 Y13.3975
G00 Z2.0000
G00 X0.6018 Y7.7975
G01 F60.00
G00 Z2.0000
G01 Z-0.120
G01 F120.00
G01 X0.5913 Y7.7935
G01 X0.5810 Y7.7889
G01 X0.5537 Y7.7759
G01 X0.5438 Y7.7706
G01 X0.5083 Y7.7491
G01 X0.4794 Y7.7280
G01 X0.4662 Y7.7174
G01 X0.4356 Y7.6894
G01 X0.4076 Y7.6588
G01 X0.3970 Y7.6456
G01 X0.3759 Y7.6167
G01 X0.3544 Y7.5812
G01 X0.3491 Y7.5713
G01 X0.3361 Y7.5440
G01 X0.3294 Y7.5284
G01 X0.3157 Y7.4893
G01 X0.3067 Y7.4547
G01 X0.3042 Y7.4436
G01 X0.3023 Y7.4325
G01 X0.2979 Y7.4027
G01 X0.2968 Y7.3914
G01 X0.2950 Y7.3500
G01 X0.2950 Y6.6500
G01 X0.2953 Y6.6387
G01 X0.2973 Y6.6030
G01 X0.3023 Y6.5675
G01 X0.3054 Y6.5508
G01 X0.3141 Y6.5161
G01 X0.3174 Y6.5053
G01 X0.3275 Y6.4768
G01 X0.3315 Y6.4663
G01 X0.3361 Y6.4560
G01 X0.3491 Y6.4287
G01 X0.3572 Y6.4139
G01 X0.3728 Y6.3881
G01 X0.3791 Y6.3787
G01 X0.3970 Y6.3544
G01 X0.4076 Y6.3412
G01 X0.4356 Y6.3106
G01 X0.4619 Y6.2863
G01 X0.4749 Y6.2754
G01 X0.5083 Y6.2509
G01 X0.5389 Y6.2322
G01 X0.5537 Y6.2241
G01 X0.5913 Y6.2065
G01 X0.6249 Y6.1942
G01 X0.6357 Y6.1907
G01 X0.6703 Y6.1817
G01 X0.6814 Y6.1792
G01 X0.6925 Y6.1773
G01 X0.7223 Y6.1729
G01 X0.7336 Y6.1718
G01 X0.7750 Y6.1700
G01 X2.0750 Y6.1700
G01 X2.0863 Y6.1703
G01 X2.1164 Y6.1718
G01 X2.1333 Y6.1737
G01 X2.1686 Y6.1792
G01 X2.2035 Y6.1877
G01 X2.2197 Y6.1924
G01 X2.2534 Y6.2044
G01 X2.2690 Y6.2111
G01 X2.2963 Y6.2241
G01 X2.3111 Y6.2322
G01 X2.3417 Y6.2509
G01 X2.3509 Y6.2574
G01 X2.3795 Y6.2790
G01 X2.4062 Y6.3028
G01 X2.4144 Y6.3106
G01 X2.4387 Y6.3369
G01 X2.4496 Y6.3499
G01 X2.4741 Y6.3833
G01 X2.4928 Y6.4139
G01 X2.5009 Y6.4287
G01 X2.5185 Y6.4663
G01 X2.5225 Y6.4768
G01 X2.5343 Y6.5107
G01 X2.5433 Y6.5453
G01 X2.5468 Y6.5619
G01 X2.5527 Y6.6030
G01 X2.5547 Y6.6387
G01 X2.5550 Y6.6500
G01 X2.5550 Y7.3500
G01 X2.5535 Y7.3858
G01 X2.5521 Y7.4027
G01 X2.5468 Y7.4381
G01 X2.5433 Y7.4547
G01 X2.5359 Y7.4839
G01 X2.5308 Y7.5001
G01 X2.5185 Y7.5337
G01 X2.5139 Y7.5440
G01 X2.4983 Y7.5763
G01 X2.4928 Y7.5861
G01 X2.4741 Y7.6167
G01 X2.4530 Y7.6456
G01 X2.4460 Y7.6545
G01 X2.4222 Y7.6812
G01 X2.4144 Y7.6894
G01 X2.3881 Y7.7137
G01 X2.3751 Y7.7246
G01 X2.3417 Y7.7491
G01 X2.3062 Y7.7706
G01 X2.2963 Y7.7759
G01 X2.2690 Y7.7889
G01 X2.2587 Y7.7935
G01 X2.2482 Y7.7975
G01 X2.2143 Y7.8093
G01 X2.1797 Y7.8183
G01 X2.1686 Y7.8208
G01 X2.1575 Y7.8227
G01 X2.1220 Y7.8277
G01 X2.0863 Y7.8297
G01 X2.0750 Y7.8300
G01 X0.7694 Y7.8299
G01 X0.7280 Y7.8277
G01 X0.6925 Y7.8227
G01 X0.6814 Y7.8208
G01 X0.6703 Y7.8183
G01 X0.6357 Y7.8093
G01 X0.6018 Y7.7975
G00 Z2.0000
G00 X0.6322 Y7.7128
G01 F60.00
G00 Z2.0000
G01 Z-0.120
G01 F120.00
G01 X0.6195 Y7.7075
G01 X0.5973 Y7.6970
G01 X0.5881 Y7.6923
G01 X0.5583 Y7.6743
G01 X0.5303 Y7.6536
G01 X0.5224 Y7.6470
G01 X0.5042 Y7.6305
G01 X0.4968 Y7.6233
G01 X0.4735 Y7.5974
G01 X0.4547 Y7.5723
G01 X0.4471 Y7.5609
G01 X0.4344 Y7.5398
G01 X0.4295 Y7.5308
G01 X0.4147 Y7.4992
G01 X0.4039 Y7.4697
G01 X0.4000 Y7.4566
G01 X0.3925 Y7.4261
G01 X0.3877 Y7.3950
G01 X0.3864 Y7.3814
G01 X0.3850 Y7.3500
G01 X0.3850 Y6.6500
G01 X0.3869 Y6.6118
G01 X0.3913 Y6.5807
G01 X0.3932 Y6.5706
G01 X0.4008 Y6.5401
G01 X0.4039 Y6.5303
G01 X0.4134 Y6.5039
G01 X0.4175 Y6.4945
G01 X0.4311 Y6.4662
G01 X0.4489 Y6.4362
G01 X0.4547 Y6.4277
G01 X0.4735 Y6.4026
G01 X0.4968 Y6.3767
G01 X0.5042 Y6.3695
G01 X0.5276 Y6.3485
G01 X0.5527 Y6.3297
G01 X0.5641 Y6.3221
G01 X0.5852 Y6.3094
G01 X0.5942 Y6.3045
G01 X0.6258 Y6.2897
G01 X0.6585 Y6.2778
G01 X0.6684 Y6.2750
G01 X0.6922 Y6.2690
G01 X0.7023 Y6.2669
G01 X0.7368 Y6.2619
G01 X0.7681 Y6.2602
G01 X2.0750 Y6.2600
G01 X2.1064 Y6.2614
G01 X2.1200 Y6.2627
G01 X2.1511 Y6.2675
G01 X2.1882 Y6.2768
G01 X2.2242 Y6.2897
G01 X2.2527 Y6.3030
G01 X2.2619 Y6.3077
G01 X2.2859 Y6.3221
G01 X2.2945 Y6.3277
G01 X2.3197 Y6.3464
G01 X2.3276 Y6.3530
G01 X2.3483 Y6.3718
G01 X2.3555 Y6.3792
G01 X2.3765 Y6.4026
G01 X2.3953 Y6.4277
G01 X2.4029 Y6.4391
G01 X2.4189 Y6.4662
G01 X2.4325 Y6.4945
G01 X2.4378 Y6.5072
G01 X2.4482 Y6.5368
G01 X2.4568 Y6.5706
G01 X2.4587 Y6.5807
G01 X2.4623 Y6.6050
G01 X2.4634 Y6.6152
G01 X2.4650 Y6.6500
G01 X2.4650 Y7.3500
G01 X2.4634 Y7.3848
G01 X2.4623 Y7.3950
G01 X2.4575 Y7.4261
G01 X2.4482 Y7.4632
G01 X2.4353 Y7.4992
G01 X2.4220 Y7.5277
G01 X2.4173 Y7.5369
G01 X2.4029 Y7.5609
G01 X2.3973 Y7.5695
G01 X2.3786 Y7.5947
G01 X2.3720 Y7.6026
G01 X2.3532 Y7.6233
G01 X2.3458 Y7.6305
G01 X2.3224 Y7.6515
G01 X2.2973 Y7.6703
G01 X2.2859 Y7.6779
G01 X2.2648 Y7.6906
G01 X2.2558 Y7.6955
G01 X2.2242 Y7.7103
G01 X2.1915 Y7.7222
G01 X2.1816 Y7.7250
G01 X2.1578 Y7.7310
G01 X2.1443 Y7.7337
G01 X2.1132 Y7.7381
G01 X2.0784 Y7.7400
G01 X0.7716 Y7.7400
G01 X0.7368 Y7.7381
G01 X0.6989 Y7.7325
G01 X0.6618 Y7.7232
G01 X0.6322 Y7.7128
G00 Z2.0000
G00 X0.6625 Y7.6280
G01 F60.00
G00 Z2.0000
G01 Z-0.120
G01 F120.00
G01 X0.6314 Y7.6134
G01 X0.6083 Y7.5994
G01 X0.5847 Y7.5819
G01 X0.5612 Y7.5604
G01 X0.5431 Y7.5403
G01 X0.5256 Y7.5167
G01 X0.5104 Y7.4914
G01 X0.4988 Y7.4670
G01 X0.4879 Y7.4371
G01 X0.4803 Y7.4061
G01 X0.4764 Y7.3794
G01 X0.4751 Y7.3525
G01 X0.4750 Y6.6500
G01 X0.4767 Y6.6182
G01 X0.4808 Y6.5915
G01 X0.4873 Y6.5653
G01 X0.4970 Y6.5375
G01 X0.5104 Y6.5086
G01 X0.5242 Y6.4854
G01 X0.5431 Y6.4597
G01 X0.5629 Y6.4379
G01 X0.5847 Y6.4181
G01 X0.6073 Y6.4013
G01 X0.6358 Y6.3843
G01 X0.6602 Y6.3728
G01 X0.6879 Y6.3629
G01 X0.7189 Y6.3553
G01 X0.7456 Y6.3514
G01 X0.7738 Y6.3500
G01 X2.0775 Y6.3501
G01 X2.1068 Y6.3517
G01 X2.1335 Y6.3558
G01 X2.1597 Y6.3623
G01 X2.1898 Y6.3728
G01 X2.2164 Y6.3854
G01 X2.2417 Y6.4006
G01 X2.2672 Y6.4197
G01 X2.2871 Y6.4379
G01 X2.3053 Y6.4578
G01 X2.3237 Y6.4823
G01 X2.3407 Y6.5108
G01 X2.3522 Y6.5352
G01 X2.3613 Y6.5606
G01 X2.3692 Y6.5915
G01 X2.3737 Y6.6230
G01 X2.3750 Y6.6500
G01 X2.3750 Y7.3500
G01 X2.3737 Y7.3782
G01 X2.3692 Y7.4085
G01 X2.3621 Y7.4371
G01 X2.3522 Y7.4648
G01 X2.3384 Y7.4936
G01 X2.3244 Y7.5167
G01 X2.3084 Y7.5384
G01 X2.2888 Y7.5604
G01 X2.2653 Y7.5819
G01 X2.2427 Y7.5987
G01 X2.2142 Y7.6157
G01 X2.1898 Y7.6272
G01 X2.1621 Y7.6371
G01 X2.1311 Y7.6447
G01 X2.1044 Y7.6486
G01 X2.0762 Y7.6500
G01 X0.7738 Y7.6500
G01 X0.7456 Y7.6486
G01 X0.7165 Y7.6442
G01 X0.6879 Y7.6371
G01 X0.6625 Y7.6280
G00 Z2.0000
G00 X14.1712 Y1.2351
G01 F60.00
G00 Z2.0000
G01 Z-0.120
G01 F120.00
G01 X14.3362 Y1.0701
G01 X16.2638 Y1.0701
G01 X16.5228 Y1.3291
G01 X16.4916 Y1.3479
G01 X16.4785 Y1.3566
G01 X16.4051 Y1.4109
G01 X16.3868 Y1.4256
G01 X16.3191 Y1.4869
G01 X16.3077 Y1.4977
G01 X16.2969 Y1.5091
G01 X16.2356 Y1.5768
G01 X16.2209 Y1.5951
G01 X16.1712 Y1.6621
G01 X16.1622 Y1.6750
G01 X16.1538 Y1.6883
G01 X16.1109 Y1.7598
G01 X16.1032 Y1.7735
G01 X16.0961 Y1.7875
G01 X16.0604 Y1.8629
G01 X16.0511 Y1.8846
G01 X16.0203 Y1.9705
G01 X16.0154 Y1.9854
G01 X16.0112 Y2.0005
G01 X15.9909 Y2.0814
G01 X15.9875 Y2.0967
G01 X15.9848 Y2.1122
G01 X15.9726 Y2.1947
G01 X15.9706 Y2.2103
G01 X15.9695 Y2.2260
G01 X15.9654 Y2.3093
G01 X15.9651 Y2.3329
G01 X15.9695 Y2.4240
G01 X15.9706 Y2.4397
G01 X15.9726 Y2.4553
G01 X15.9848 Y2.5378
G01 X15.9875 Y2.5533
G01 X15.9909 Y2.5686
G01 X16.0112 Y2.6495
G01 X16.0161 Y2.6670
G01 X16.0028 Y2.6615
G01 X15.9879 Y2.6562
G01 X15.9727 Y2.6516
G01 X15.9572 Y2.6477
G01 X15.9417 Y2.6446
G01 X15.9259 Y2.6423
G01 X15.9101 Y2.6408
G01 X15.8942 Y2.6401
G01 X15.8783 Y2.6402
G01 X15.8625 Y2.6410
G01 X15.7772 Y2.6498
G01 X15.7615 Y2.6523
G01 X15.7459 Y2.6554
G01 X15.7305 Y2.6594
G01 X15.7147 Y2.6644
G01 X15.7188 Y2.6495
G01 X15.7391 Y2.5686
G01 X15.7425 Y2.5533
G01 X15.7452 Y2.5378
G01 X15.7574 Y2.4553
G01 X15.7594 Y2.4397
G01 X15.7605 Y2.4240
G01 X15.7646 Y2.3407
G01 X15.7650 Y2.3250
G01 X15.7646 Y2.3093
G01 X15.7605 Y2.2260
G01 X15.7594 Y2.2103
G01 X15.7574 Y2.1947
G01 X15.7452 Y2.1122
G01 X15.7425 Y2.0967
G01 X15.7391 Y2.0814
G01 X15.7188 Y2.0005
G01 X15.7146 Y1.9854
G01 X15.7097 Y1.9705
G01 X15.6816 Y1.8919
G01 X15.6728 Y1.8700
G01 X15.6339 Y1.7875
G01 X15.6268 Y1.7735
G01 X15.6191 Y1.7598
G01 X15.5762 Y1.6883
G01 X15.5678 Y1.6750
G01 X15.5588 Y1.6621
G01 X15.5091 Y1.5951
G01 X15.4994 Y1.5828
G01 X15.4892 Y1.5709
G01 X15.4331 Y1.5091
G01 X15.4223 Y1.4977
G01 X15.4109 Y1.4869
G01 X15.3491 Y1.4308
G01 X15.3372 Y1.4206
G01 X15.3249 Y1.4109
G01 X15.2579 Y1.3612
G01 X15.2450 Y1.3522
G01 X15.2317 Y1.3438
G01 X15.1602 Y1.3009
G01 X15.1465 Y1.2932
G01 X15.1325 Y1.2861
G01 X15.0571 Y1.2504
G01 X15.0427 Y1.2441
G01 X15.0281 Y1.2384
G01 X14.9495 Y1.2103
G01 X14.9346 Y1.2054
G01 X14.9195 Y1.2012
G01 X14.8386 Y1.1809
G01 X14.8233 Y1.1775
G01 X14.8078 Y1.1748
G01 X14.7253 Y1.1626
G01 X14.7097 Y1.1606
G01 X14.6940 Y1.1595
G01 X14.6107 Y1.1554
G01 X14.5950 Y1.1550
G01 X14.5793 Y1.1554
G01 X14.4960 Y1.1595
G01 X14.4803 Y1.1606
G01 X14.4647 Y1.1626
G01 X14.3822 Y1.1748
G01 X14.3667 Y1.1775
G01 X14.3514 Y1.1809
G01 X14.2705 Y1.2012
G01 X14.2554 Y1.2054
G01 X14.2405 Y1.2103
G01 X14.1712 Y1.2351
G00 Z2.0000
G00 X15.0752 Y1.1601
G01 F60.00
G00 Z2.0000
G01 Z-0.120
G01 F120.00
G01 X16.2266 Y1.1601
G01 X16.3823 Y1.3158
G01 X16.3435 Y1.3447
G01 X16.3280 Y1.3575
G01 X16.2512 Y1.4270
G01 X16.2302 Y1.4486
G01 X16.1742 Y1.5104
G01 X16.1547 Y1.5335
G01 X16.0989 Y1.6085
G01 X16.0873 Y1.6250
G01 X16.0766 Y1.6420
G01 X16.0337 Y1.7135
G01 X16.0238 Y1.7310
G01 X16.0147 Y1.7490
G01 X15.9791 Y1.8244
G01 X15.9672 Y1.8522
G01 X15.9356 Y1.9401
G01 X15.9293 Y1.9592
G01 X15.9239 Y1.9786
G01 X15.9036 Y2.0596
G01 X15.8992 Y2.0792
G01 X15.8958 Y2.0990
G01 X15.8835 Y2.1815
G01 X15.8811 Y2.2015
G01 X15.8796 Y2.2216
G01 X15.8755 Y2.3049
G01 X15.8750 Y2.3250
G01 X15.8755 Y2.3451
G01 X15.8796 Y2.4284
G01 X15.8811 Y2.4485
G01 X15.8835 Y2.4685
G01 X15.8956 Y2.5501
G01 X15.8656 Y2.5506
G01 X15.8338 Y2.5534
G01 X15.8465 Y2.4685
G01 X15.8489 Y2.4485
G01 X15.8504 Y2.4284
G01 X15.8545 Y2.3451
G01 X15.8550 Y2.3250
G01 X15.8545 Y2.3049
G01 X15.8504 Y2.2216
G01 X15.8489 Y2.2015
G01 X15.8465 Y2.1815
G01 X15.8326 Y2.0891
G01 X15.8264 Y2.0596
G01 X15.8061 Y1.9786
G01 X15.8007 Y1.9592
G01 X15.7944 Y1.9401
G01 X15.7663 Y1.8616
G01 X15.7591 Y1.8428
G01 X15.7509 Y1.8244
G01 X15.7109 Y1.7400
G01 X15.6963 Y1.7135
G01 X15.6534 Y1.6420
G01 X15.6427 Y1.6250
G01 X15.6311 Y1.6085
G01 X15.5814 Y1.5415
G01 X15.5690 Y1.5257
G01 X15.5558 Y1.5104
G01 X15.4998 Y1.4486
G01 X15.4860 Y1.4340
G01 X15.4714 Y1.4202
G01 X15.4096 Y1.3642
G01 X15.3865 Y1.3447
G01 X15.3115 Y1.2889
G01 X15.2950 Y1.2773
G01 X15.2780 Y1.2666
G01 X15.2065 Y1.2237
G01 X15.1890 Y1.2138
G01 X15.1710 Y1.2047
G01 X15.0956 Y1.1691
G01 X15.0752 Y1.1601
G00 Z2.0000
G00 X15.4102 Y1.2501
G01 F60.00
G00 Z2.0000
G01 Z-0.120
G01 F120.00
G01 X16.1893 Y1.2501
G01 X16.2477 Y1.3086
G01 X16.1982 Y1.3535
G01 X16.1804 Y1.3704
G01 X16.1635 Y1.3882
G01 X16.0993 Y1.4592
G01 X16.0914 Y1.4686
G01 X16.0763 Y1.4879
G01 X16.0266 Y1.5549
G01 X16.0125 Y1.5750
G01 X15.9994 Y1.5957
G01 X15.9565 Y1.6673
G01 X15.9503 Y1.6779
G01 X15.9388 Y1.6995
G01 X15.8926 Y1.7971
G01 X15.8832 Y1.8198
G01 X15.8650 Y1.8702
G01 X15.8468 Y1.8198
G01 X15.8374 Y1.7971
G01 X15.7912 Y1.6995
G01 X15.7797 Y1.6779
G01 X15.7735 Y1.6673
G01 X15.7306 Y1.5957
G01 X15.7175 Y1.5750
G01 X15.7034 Y1.5549
G01 X15.6537 Y1.4879
G01 X15.6386 Y1.4686
G01 X15.6225 Y1.4500
G01 X15.5582 Y1.3792
G01 X15.5408 Y1.3618
G01 X15.5318 Y1.3535
G01 X15.4608 Y1.2893
G01 X15.4419 Y1.2738
G01 X15.4102 Y1.2501
G00 Z2.0000
G00 X18.2419 Y2.7013
G01 F60.00
G00 Z2.0000
G01 Z-0.120
G01 F120.00
G01 X18.2641 Y2.6959
G01 X18.2877 Y2.6920
G01 X18.3730 Y2.6831
G01 X18.3888 Y2.6823
G01 X18.4047 Y2.6822
G01 X18.4206 Y2.6830
G01 X18.4443 Y2.6855
G01 X18.4600 Y2.6882
G01 X18.4755 Y2.6917
G01 X18.4984 Y2.6983
G01 X18.5133 Y2.7037
G01 X18.5352 Y2.7131
G01 X18.6118 Y2.7518
G01 X18.6256 Y2.7596
G01 X18.6455 Y2.7727
G01 X18.6583 Y2.7822
G01 X18.6705 Y2.7923
G01 X18.6822 Y2.8031
G01 X18.6934 Y2.8144
G01 X18.7091 Y2.8323
G01 X18.7188 Y2.8449
G01 X18.7278 Y2.8580
G01 X18.7362 Y2.8715
G01 X18.7716 Y2.9317
G01 X18.7791 Y2.9452
G01 X18.7859 Y2.9589
G01 X18.7949 Y2.9802
G01 X18.8000 Y2.9947
G01 X18.8044 Y3.0094
G01 X18.8097 Y3.0319
G01 X18.8134 Y3.0547
G01 X18.8180 Y3.0927
G01 X18.8191 Y3.1084
G01 X18.8195 Y3.1241
G01 X18.8195 Y4.1755
G01 X18.8187 Y4.1983
G01 X18.8172 Y4.2135
G01 X18.8151 Y4.2286
G01 X18.8122 Y4.2435
G01 X18.8086 Y4.2583
G01 X18.7845 Y4.3403
G01 X18.7764 Y4.3627
G01 X18.7701 Y4.3773
G01 X18.7630 Y4.3915
G01 X18.7553 Y4.4054
G01 X18.7468 Y4.4189
G01 X18.7378 Y4.4319
G01 X18.7280 Y4.4445
G01 X18.7177 Y4.4566
G01 X18.7068 Y4.4681
G01 X18.6894 Y4.4844
G01 X18.6366 Y4.5301
G01 X18.6242 Y4.5403
G01 X18.6114 Y4.5498
G01 X18.5981 Y4.5587
G01 X18.5844 Y4.5669
G01 X18.5702 Y4.5744
G01 X18.5558 Y4.5812
G01 X18.5410 Y4.5873
G01 X18.5259 Y4.5926
G01 X18.5106 Y4.5972
G01 X18.4950 Y4.6010
G01 X18.4361 Y4.6137
G01 X18.4135 Y4.6172
G01 X18.3983 Y4.6187
G01 X18.3755 Y4.6195
G01 X16.3762 Y4.6195
G01 X16.3303 Y4.6318
G01 X16.2892 Y4.6556
G01 X7.5553 Y13.3895
G01 X7.5386 Y13.4050
G01 X7.5208 Y13.4194
G01 X7.5084 Y13.4282
G01 X7.4890 Y13.4403
G01 X7.4141 Y13.4812
G01 X7.3928 Y13.4912
G01 X7.3708 Y13.4996
G01 X7.3558 Y13.5043
G01 X7.3406 Y13.5083
G01 X7.3175 Y13.5128
G01 X7.2755 Y13.5177
G01 X7.2499 Y13.5194
G01 X2.9348 Y13.5194
G01 X2.9196 Y13.5187
G01 X2.9044 Y13.5172
G01 X2.8894 Y13.5151
G01 X2.8744 Y13.5122
G01 X2.8523 Y13.5065
G01 X2.7852 Y13.4869
G01 X2.7626 Y13.4793
G01 X2.7479 Y13.4733
G01 X2.7264 Y13.4630
G01 X2.7057 Y13.4511
G01 X2.6860 Y13.4378
G01 X2.6673 Y13.4230
G01 X2.6498 Y13.4068
G01 X2.6388 Y13.3953
G01 X2.5878 Y13.3366
G01 X2.5776 Y13.3242
G01 X2.5681 Y13.3113
G01 X2.5592 Y13.2980
G01 X2.5509 Y13.2843
G01 X2.5448 Y13.2727
G01 X2.5205 Y13.3055
G01 X2.5106 Y13.3176
G01 X2.4835 Y13.3474
G01 X2.4724 Y13.3585
G01 X2.4426 Y13.3856
G01 X2.4305 Y13.3955
G01 X2.3982 Y13.4195
G01 X2.3784 Y13.4323
G01 X2.3506 Y13.4489
G01 X2.3297 Y13.4598
G01 X2.2931 Y13.4766
G01 X2.2554 Y13.4905
G01 X2.2329 Y13.4976
G01 X2.1939 Y13.5074
G01 X2.1785 Y13.5105
G01 X2.1465 Y13.5153
G01 X2.1230 Y13.5179
G01 X2.0907 Y13.5196
G01 X2.0750 Y13.5200
G01 X0.7671 Y13.5199
