(G-CODE GENERATED BY FLATCAM v8.994 - www.flatcam.org - Version Date: 2020/11/7)

(Name: QWIIC STM32 breakout.drl_mill_cnc)
(Type: G-code from Geometry)
(Units: MM)

(Created on Monday, 05 August 2024 at 21:06)

(This preprocessor is the default preprocessor used by FlatCAM.)
(It is made to work with MACH3 compatible motion controllers.)

(TOOL DIAMETER: 0.8 mm)
(Feedrate_XY: 120.0 mm/min)
(Feedrate_Z: 60.0 mm/min)
(Feedrate rapids 1500.0 mm/min)

(Z_Cut: -1.8 mm)
(DepthPerCut: 0.4 mm <=>5 passes)
(Z_Move: 2.0 mm)
(Z Start: None mm)
(Z End: 15.0 mm)
(X,Y End: None mm)
(Steps per circle: 64)
(Preprocessor Geometry: default)

(X range:    1.7950 ...   17.2350  mm)
(Y range:    2.2250 ...    2.4250  mm)

(Spindle Speed: 14000.0 RPM)
G21
G90
G94

G01 F120.00

M5
G00 Z15.0000
G00 X0.0000 Y0.0000
T1
M6    
(MSG, Change to Tool Dia = 0.800)
M0
G00 Z15.0000

M03 S14000.0
G4 P4.0
G01 F120.00
G00 X1.9950 Y2.3250
G01 F60.00
G01 Z-0.4000
G01 F120.00
G01 X1.9945 Y2.3152
G01 X1.9931 Y2.3055
G01 X1.9907 Y2.2960
G01 X1.9874 Y2.2867
G01 X1.9832 Y2.2779
G01 X1.9781 Y2.2694
G01 X1.9723 Y2.2616
G01 X1.9657 Y2.2543
G01 X1.9584 Y2.2477
G01 X1.9506 Y2.2419
G01 X1.9421 Y2.2368
G01 X1.9333 Y2.2326
G01 X1.9240 Y2.2293
G01 X1.9145 Y2.2269
G01 X1.9048 Y2.2255
G01 X1.8950 Y2.2250
G01 X1.8852 Y2.2255
G01 X1.8755 Y2.2269
G01 X1.8660 Y2.2293
G01 X1.8567 Y2.2326
G01 X1.8479 Y2.2368
G01 X1.8394 Y2.2419
G01 X1.8316 Y2.2477
G01 X1.8243 Y2.2543
G01 X1.8177 Y2.2616
G01 X1.8119 Y2.2694
G01 X1.8068 Y2.2779
G01 X1.8026 Y2.2867
G01 X1.7993 Y2.2960
G01 X1.7969 Y2.3055
G01 X1.7955 Y2.3152
G01 X1.7950 Y2.3250
G01 X1.7955 Y2.3348
G01 X1.7969 Y2.3445
G01 X1.7993 Y2.3540
G01 X1.8026 Y2.3633
G01 X1.8068 Y2.3721
G01 X1.8119 Y2.3806
G01 X1.8177 Y2.3884
G01 X1.8243 Y2.3957
G01 X1.8316 Y2.4023
G01 X1.8394 Y2.4081
G01 X1.8479 Y2.4132
G01 X1.8567 Y2.4174
G01 X1.8660 Y2.4207
G01 X1.8755 Y2.4231
G01 X1.8852 Y2.4245
G01 X1.8950 Y2.4250
G01 X1.9048 Y2.4245
G01 X1.9145 Y2.4231
G01 X1.9240 Y2.4207
G01 X1.9333 Y2.4174
G01 X1.9421 Y2.4132
G01 X1.9506 Y2.4081
G01 X1.9584 Y2.4023
G01 X1.9657 Y2.3957
G01 X1.9723 Y2.3884
G01 X1.9781 Y2.3806
G01 X1.9832 Y2.3721
G01 X1.9874 Y2.3633
G01 X1.9907 Y2.3540
G01 X1.9931 Y2.3445
G01 X1.9945 Y2.3348
G01 X1.9950 Y2.3250
G00 X1.9950 Y2.3250
G01 F60.00
G01 Z-0.8000
G01 F120.00
G01 X1.9945 Y2.3152
G01 X1.9931 Y2.3055
G01 X1.9907 Y2.2960
G01 X1.9874 Y2.2867
G01 X1.9832 Y2.2779
G01 X1.9781 Y2.2694
G01 X1.9723 Y2.2616
G01 X1.9657 Y2.2543
G01 X1.9584 Y2.2477
G01 X1.9506 Y2.2419
G01 X1.9421 Y2.2368
G01 X1.9333 Y2.2326
G01 X1.9240 Y2.2293
G01 X1.9145 Y2.2269
G01 X1.9048 Y2.2255
G01 X1.8950 Y2.2250
G01 X1.8852 Y2.2255
G01 X1.8755 Y2.2269
G01 X1.8660 Y2.2293
G01 X1.8567 Y2.2326
G01 X1.8479 Y2.2368
G01 X1.8394 Y2.2419
G01 X1.8316 Y2.2477
G01 X1.8243 Y2.2543
G01 X1.8177 Y2.2616
G01 X1.8119 Y2.2694
G01 X1.8068 Y2.2779
G01 X1.8026 Y2.2867
G01 X1.7993 Y2.2960
G01 X1.7969 Y2.3055
G01 X1.7955 Y2.3152
G01 X1.7950 Y2.3250
G01 X1.7955 Y2.3348
G01 X1.7969 Y2.3445
G01 X1.7993 Y2.3540
G01 X1.8026 Y2.3633
G01 X1.8068 Y2.3721
G01 X1.8119 Y2.3806
G01 X1.8177 Y2.3884
G01 X1.8243 Y2.3957
G01 X1.8316 Y2.4023
G01 X1.8394 Y2.4081
G01 X1.8479 Y2.4132
G01 X1.8567 Y2.4174
G01 X1.8660 Y2.4207
G01 X1.8755 Y2.4231
G01 X1.8852 Y2.4245
G01 X1.8950 Y2.4250
G01 X1.9048 Y2.4245
G01 X1.9145 Y2.4231
G01 X1.9240 Y2.4207
G01 X1.9333 Y2.4174
G01 X1.9421 Y2.4132
G01 X1.9506 Y2.4081
G01 X1.9584 Y2.4023
G01 X1.9657 Y2.3957
G01 X1.9723 Y2.3884
G01 X1.9781 Y2.3806
G01 X1.9832 Y2.3721
G01 X1.9874 Y2.3633
G01 X1.9907 Y2.3540
G01 X1.9931 Y2.3445
G01 X1.9945 Y2.3348
G01 X1.9950 Y2.3250
G00 X1.9950 Y2.3250
G01 F60.00
G01 Z-1.2000
G01 F120.00
G01 X1.9945 Y2.3152
G01 X1.9931 Y2.3055
G01 X1.9907 Y2.2960
G01 X1.9874 Y2.2867
G01 X1.9832 Y2.2779
G01 X1.9781 Y2.2694
G01 X1.9723 Y2.2616
G01 X1.9657 Y2.2543
G01 X1.9584 Y2.2477
G01 X1.9506 Y2.2419
G01 X1.9421 Y2.2368
G01 X1.9333 Y2.2326
G01 X1.9240 Y2.2293
G01 X1.9145 Y2.2269
G01 X1.9048 Y2.2255
G01 X1.8950 Y2.2250
G01 X1.8852 Y2.2255
G01 X1.8755 Y2.2269
G01 X1.8660 Y2.2293
G01 X1.8567 Y2.2326
G01 X1.8479 Y2.2368
G01 X1.8394 Y2.2419
G01 X1.8316 Y2.2477
G01 X1.8243 Y2.2543
G01 X1.8177 Y2.2616
G01 X1.8119 Y2.2694
G01 X1.8068 Y2.2779
G01 X1.8026 Y2.2867
G01 X1.7993 Y2.2960
G01 X1.7969 Y2.3055
G01 X1.7955 Y2.3152
G01 X1.7950 Y2.3250
G01 X1.7955 Y2.3348
G01 X1.7969 Y2.3445
G01 X1.7993 Y2.3540
G01 X1.8026 Y2.3633
G01 X1.8068 Y2.3721
G01 X1.8119 Y2.3806
G01 X1.8177 Y2.3884
G01 X1.8243 Y2.3957
G01 X1.8316 Y2.4023
G01 X1.8394 Y2.4081
G01 X1.8479 Y2.4132
G01 X1.8567 Y2.4174
G01 X1.8660 Y2.4207
G01 X1.8755 Y2.4231
G01 X1.8852 Y2.4245
G01 X1.8950 Y2.4250
G01 X1.9048 Y2.4245
G01 X1.9145 Y2.4231
G01 X1.9240 Y2.4207
G01 X1.9333 Y2.4174
G01 X1.9421 Y2.4132
G01 X1.9506 Y2.4081
G01 X1.9584 Y2.4023
G01 X1.9657 Y2.3957
G01 X1.9723 Y2.3884
G01 X1.9781 Y2.3806
G01 X1.9832 Y2.3721
G01 X1.9874 Y2.3633
G01 X1.9907 Y2.3540
G01 X1.9931 Y2.3445
G01 X1.9945 Y2.3348
G01 X1.9950 Y2.3250
G00 X1.9950 Y2.3250
G01 F60.00
G01 Z-1.6000
G01 F120.00
G01 X1.9945 Y2.3152
G01 X1.9931 Y2.3055
G01 X1.9907 Y2.2960
G01 X1.9874 Y2.2867
G01 X1.9832 Y2.2779
G01 X1.9781 Y2.2694
G01 X1.9723 Y2.2616
G01 X1.9657 Y2.2543
G01 X1.9584 Y2.2477
G01 X1.9506 Y2.2419
G01 X1.9421 Y2.2368
G01 X1.9333 Y2.2326
G01 X1.9240 Y2.2293
G01 X1.9145 Y2.2269
G01 X1.9048 Y2.2255
G01 X1.8950 Y2.2250
G01 X1.8852 Y2.2255
G01 X1.8755 Y2.2269
G01 X1.8660 Y2.2293
G01 X1.8567 Y2.2326
G01 X1.8479 Y2.2368
G01 X1.8394 Y2.2419
G01 X1.8316 Y2.2477
G01 X1.8243 Y2.2543
G01 X1.8177 Y2.2616
G01 X1.8119 Y2.2694
G01 X1.8068 Y2.2779
G01 X1.8026 Y2.2867
G01 X1.7993 Y2.2960
G01 X1.7969 Y2.3055
G01 X1.7955 Y2.3152
G01 X1.7950 Y2.3250
G01 X1.7955 Y2.3348
G01 X1.7969 Y2.3445
G01 X1.7993 Y2.3540
G01 X1.8026 Y2.3633
G01 X1.8068 Y2.3721
G01 X1.8119 Y2.3806
G01 X1.8177 Y2.3884
G01 X1.8243 Y2.3957
G01 X1.8316 Y2.4023
G01 X1.8394 Y2.4081
G01 X1.8479 Y2.4132
G01 X1.8567 Y2.4174
G01 X1.8660 Y2.4207
G01 X1.8755 Y2.4231
G01 X1.8852 Y2.4245
G01 X1.8950 Y2.4250
G01 X1.9048 Y2.4245
G01 X1.9145 Y2.4231
G01 X1.9240 Y2.4207
G01 X1.9333 Y2.4174
G01 X1.9421 Y2.4132
G01 X1.9506 Y2.4081
G01 X1.9584 Y2.4023
G01 X1.9657 Y2.3957
G01 X1.9723 Y2.3884
G01 X1.9781 Y2.3806
G01 X1.9832 Y2.3721
G01 X1.9874 Y2.3633
G01 X1.9907 Y2.3540
G01 X1.9931 Y2.3445
G01 X1.9945 Y2.3348
G01 X1.9950 Y2.3250
G00 X1.9950 Y2.3250
G01 F60.00
G01 Z-1.8000
G01 F120.00
G01 X1.9945 Y2.3152
G01 X1.9931 Y2.3055
G01 X1.9907 Y2.2960
G01 X1.9874 Y2.2867
G01 X1.9832 Y2.2779
G01 X1.9781 Y2.2694
G01 X1.9723 Y2.2616
G01 X1.9657 Y2.2543
G01 X1.9584 Y2.2477
G01 X1.9506 Y2.2419
G01 X1.9421 Y2.2368
G01 X1.9333 Y2.2326
G01 X1.9240 Y2.2293
G01 X1.9145 Y2.2269
G01 X1.9048 Y2.2255
G01 X1.8950 Y2.2250
G01 X1.8852 Y2.2255
G01 X1.8755 Y2.2269
G01 X1.8660 Y2.2293
G01 X1.8567 Y2.2326
G01 X1.8479 Y2.2368
G01 X1.8394 Y2.2419
G01 X1.8316 Y2.2477
G01 X1.8243 Y2.2543
G01 X1.8177 Y2.2616
G01 X1.8119 Y2.2694
G01 X1.8068 Y2.2779
G01 X1.8026 Y2.2867
G01 X1.7993 Y2.2960
G01 X1.7969 Y2.3055
G01 X1.7955 Y2.3152
G01 X1.7950 Y2.3250
G01 X1.7955 Y2.3348
G01 X1.7969 Y2.3445
G01 X1.7993 Y2.3540
G01 X1.8026 Y2.3633
G01 X1.8068 Y2.3721
G01 X1.8119 Y2.3806
G01 X1.8177 Y2.3884
G01 X1.8243 Y2.3957
G01 X1.8316 Y2.4023
G01 X1.8394 Y2.4081
G01 X1.8479 Y2.4132
G01 X1.8567 Y2.4174
G01 X1.8660 Y2.4207
G01 X1.8755 Y2.4231
G01 X1.8852 Y2.4245
G01 X1.8950 Y2.4250
G01 X1.9048 Y2.4245
G01 X1.9145 Y2.4231
G01 X1.9240 Y2.4207
G01 X1.9333 Y2.4174
G01 X1.9421 Y2.4132
G01 X1.9506 Y2.4081
G01 X1.9584 Y2.4023
G01 X1.9657 Y2.3957
G01 X1.9723 Y2.3884
G01 X1.9781 Y2.3806
G01 X1.9832 Y2.3721
G01 X1.9874 Y2.3633
G01 X1.9907 Y2.3540
G01 X1.9931 Y2.3445
G01 X1.9945 Y2.3348
G01 X1.9950 Y2.3250
G00 Z2.0000
G00 X4.5350 Y2.3250
G01 F60.00
G01 Z-0.4000
G01 F120.00
G01 X4.5345 Y2.3152
G01 X4.5331 Y2.3055
G01 X4.5307 Y2.2960
G01 X4.5274 Y2.2867
G01 X4.5232 Y2.2779
G01 X4.5181 Y2.2694
G01 X4.5123 Y2.2616
G01 X4.5057 Y2.2543
G01 X4.4984 Y2.2477
G01 X4.4906 Y2.2419
G01 X4.4821 Y2.2368
G01 X4.4733 Y2.2326
G01 X4.4640 Y2.2293
G01 X4.4545 Y2.2269
G01 X4.4448 Y2.2255
G01 X4.4350 Y2.2250
G01 X4.4252 Y2.2255
G01 X4.4155 Y2.2269
G01 X4.4060 Y2.2293
G01 X4.3967 Y2.2326
G01 X4.3879 Y2.2368
G01 X4.3794 Y2.2419
G01 X4.3716 Y2.2477
G01 X4.3643 Y2.2543
G01 X4.3577 Y2.2616
G01 X4.3519 Y2.2694
G01 X4.3468 Y2.2779
G01 X4.3426 Y2.2867
G01 X4.3393 Y2.2960
G01 X4.3369 Y2.3055
G01 X4.3355 Y2.3152
G01 X4.3350 Y2.3250
G01 X4.3355 Y2.3348
G01 X4.3369 Y2.3445
G01 X4.3393 Y2.3540
G01 X4.3426 Y2.3633
G01 X4.3468 Y2.3721
G01 X4.3519 Y2.3806
G01 X4.3577 Y2.3884
G01 X4.3643 Y2.3957
G01 X4.3716 Y2.4023
G01 X4.3794 Y2.4081
G01 X4.3879 Y2.4132
G01 X4.3967 Y2.4174
G01 X4.4060 Y2.4207
G01 X4.4155 Y2.4231
G01 X4.4252 Y2.4245
G01 X4.4350 Y2.4250
G01 X4.4448 Y2.4245
G01 X4.4545 Y2.4231
G01 X4.4640 Y2.4207
G01 X4.4733 Y2.4174
G01 X4.4821 Y2.4132
G01 X4.4906 Y2.4081
G01 X4.4984 Y2.4023
G01 X4.5057 Y2.3957
G01 X4.5123 Y2.3884
G01 X4.5181 Y2.3806
G01 X4.5232 Y2.3721
G01 X4.5274 Y2.3633
G01 X4.5307 Y2.3540
G01 X4.5331 Y2.3445
G01 X4.5345 Y2.3348
G01 X4.5350 Y2.3250
G00 X4.5350 Y2.3250
G01 F60.00
G01 Z-0.8000
G01 F120.00
G01 X4.5345 Y2.3152
G01 X4.5331 Y2.3055
G01 X4.5307 Y2.2960
G01 X4.5274 Y2.2867
G01 X4.5232 Y2.2779
G01 X4.5181 Y2.2694
G01 X4.5123 Y2.2616
G01 X4.5057 Y2.2543
G01 X4.4984 Y2.2477
G01 X4.4906 Y2.2419
G01 X4.4821 Y2.2368
G01 X4.4733 Y2.2326
G01 X4.4640 Y2.2293
G01 X4.4545 Y2.2269
G01 X4.4448 Y2.2255
G01 X4.4350 Y2.2250
G01 X4.4252 Y2.2255
G01 X4.4155 Y2.2269
G01 X4.4060 Y2.2293
G01 X4.3967 Y2.2326
G01 X4.3879 Y2.2368
G01 X4.3794 Y2.2419
G01 X4.3716 Y2.2477
G01 X4.3643 Y2.2543
G01 X4.3577 Y2.2616
G01 X4.3519 Y2.2694
G01 X4.3468 Y2.2779
G01 X4.3426 Y2.2867
G01 X4.3393 Y2.2960
G01 X4.3369 Y2.3055
G01 X4.3355 Y2.3152
G01 X4.3350 Y2.3250
G01 X4.3355 Y2.3348
G01 X4.3369 Y2.3445
G01 X4.3393 Y2.3540
G01 X4.3426 Y2.3633
G01 X4.3468 Y2.3721
G01 X4.3519 Y2.3806
G01 X4.3577 Y2.3884
G01 X4.3643 Y2.3957
G01 X4.3716 Y2.4023
G01 X4.3794 Y2.4081
G01 X4.3879 Y2.4132
G01 X4.3967 Y2.4174
G01 X4.4060 Y2.4207
G01 X4.4155 Y2.4231
G01 X4.4252 Y2.4245
G01 X4.4350 Y2.4250
G01 X4.4448 Y2.4245
G01 X4.4545 Y2.4231
G01 X4.4640 Y2.4207
G01 X4.4733 Y2.4174
G01 X4.4821 Y2.4132
G01 X4.4906 Y2.4081
G01 X4.4984 Y2.4023
G01 X4.5057 Y2.3957
G01 X4.5123 Y2.3884
G01 X4.5181 Y2.3806
G01 X4.5232 Y2.3721
G01 X4.5274 Y2.3633
G01 X4.5307 Y2.3540
G01 X4.5331 Y2.3445
G01 X4.5345 Y2.3348
G01 X4.5350 Y2.3250
G00 X4.5350 Y2.3250
G01 F60.00
G01 Z-1.2000
G01 F120.00
G01 X4.5345 Y2.3152
G01 X4.5331 Y2.3055
G01 X4.5307 Y2.2960
G01 X4.5274 Y2.2867
G01 X4.5232 Y2.2779
G01 X4.5181 Y2.2694
G01 X4.5123 Y2.2616
G01 X4.5057 Y2.2543
G01 X4.4984 Y2.2477
G01 X4.4906 Y2.2419
G01 X4.4821 Y2.2368
G01 X4.4733 Y2.2326
G01 X4.4640 Y2.2293
G01 X4.4545 Y2.2269
G01 X4.4448 Y2.2255
G01 X4.4350 Y2.2250
G01 X4.4252 Y2.2255
G01 X4.4155 Y2.2269
G01 X4.4060 Y2.2293
G01 X4.3967 Y2.2326
G01 X4.3879 Y2.2368
G01 X4.3794 Y2.2419
G01 X4.3716 Y2.2477
G01 X4.3643 Y2.2543
G01 X4.3577 Y2.2616
G01 X4.3519 Y2.2694
G01 X4.3468 Y2.2779
G01 X4.3426 Y2.2867
G01 X4.3393 Y2.2960
G01 X4.3369 Y2.3055
G01 X4.3355 Y2.3152
G01 X4.3350 Y2.3250
G01 X4.3355 Y2.3348
G01 X4.3369 Y2.3445
G01 X4.3393 Y2.3540
G01 X4.3426 Y2.3633
G01 X4.3468 Y2.3721
G01 X4.3519 Y2.3806
G01 X4.3577 Y2.3884
G01 X4.3643 Y2.3957
G01 X4.3716 Y2.4023
G01 X4.3794 Y2.4081
G01 X4.3879 Y2.4132
G01 X4.3967 Y2.4174
G01 X4.4060 Y2.4207
G01 X4.4155 Y2.4231
G01 X4.4252 Y2.4245
G01 X4.4350 Y2.4250
G01 X4.4448 Y2.4245
G01 X4.4545 Y2.4231
G01 X4.4640 Y2.4207
G01 X4.4733 Y2.4174
G01 X4.4821 Y2.4132
G01 X4.4906 Y2.4081
G01 X4.4984 Y2.4023
G01 X4.5057 Y2.3957
G01 X4.5123 Y2.3884
G01 X4.5181 Y2.3806
G01 X4.5232 Y2.3721
G01 X4.5274 Y2.3633
G01 X4.5307 Y2.3540
G01 X4.5331 Y2.3445
G01 X4.5345 Y2.3348
G01 X4.5350 Y2.3250
G00 X4.5350 Y2.3250
G01 F60.00
G01 Z-1.6000
G01 F120.00
G01 X4.5345 Y2.3152
G01 X4.5331 Y2.3055
G01 X4.5307 Y2.2960
G01 X4.5274 Y2.2867
G01 X4.5232 Y2.2779
G01 X4.5181 Y2.2694
G01 X4.5123 Y2.2616
G01 X4.5057 Y2.2543
G01 X4.4984 Y2.2477
G01 X4.4906 Y2.2419
G01 X4.4821 Y2.2368
G01 X4.4733 Y2.2326
G01 X4.4640 Y2.2293
G01 X4.4545 Y2.2269
G01 X4.4448 Y2.2255
G01 X4.4350 Y2.2250
G01 X4.4252 Y2.2255
G01 X4.4155 Y2.2269
G01 X4.4060 Y2.2293
G01 X4.3967 Y2.2326
G01 X4.3879 Y2.2368
G01 X4.3794 Y2.2419
G01 X4.3716 Y2.2477
G01 X4.3643 Y2.2543
G01 X4.3577 Y2.2616
G01 X4.3519 Y2.2694
G01 X4.3468 Y2.2779
G01 X4.3426 Y2.2867
G01 X4.3393 Y2.2960
G01 X4.3369 Y2.3055
G01 X4.3355 Y2.3152
G01 X4.3350 Y2.3250
G01 X4.3355 Y2.3348
G01 X4.3369 Y2.3445
G01 X4.3393 Y2.3540
G01 X4.3426 Y2.3633
G01 X4.3468 Y2.3721
G01 X4.3519 Y2.3806
G01 X4.3577 Y2.3884
G01 X4.3643 Y2.3957
G01 X4.3716 Y2.4023
G01 X4.3794 Y2.4081
G01 X4.3879 Y2.4132
G01 X4.3967 Y2.4174
G01 X4.4060 Y2.4207
G01 X4.4155 Y2.4231
G01 X4.4252 Y2.4245
G01 X4.4350 Y2.4250
G01 X4.4448 Y2.4245
G01 X4.4545 Y2.4231
G01 X4.4640 Y2.4207
G01 X4.4733 Y2.4174
G01 X4.4821 Y2.4132
G01 X4.4906 Y2.4081
G01 X4.4984 Y2.4023
G01 X4.5057 Y2.3957
G01 X4.5123 Y2.3884
G01 X4.5181 Y2.3806
G01 X4.5232 Y2.3721
G01 X4.5274 Y2.3633
G01 X4.5307 Y2.3540
G01 X4.5331 Y2.3445
G01 X4.5345 Y2.3348
G01 X4.5350 Y2.3250
G00 X4.5350 Y2.3250
G01 F60.00
G01 Z-1.8000
G01 F120.00
G01 X4.5345 Y2.3152
G01 X4.5331 Y2.3055
G01 X4.5307 Y2.2960
G01 X4.5274 Y2.2867
G01 X4.5232 Y2.2779
G01 X4.5181 Y2.2694
G01 X4.5123 Y2.2616
G01 X4.5057 Y2.2543
G01 X4.4984 Y2.2477
G01 X4.4906 Y2.2419
G01 X4.4821 Y2.2368
G01 X4.4733 Y2.2326
G01 X4.4640 Y2.2293
G01 X4.4545 Y2.2269
G01 X4.4448 Y2.2255
G01 X4.4350 Y2.2250
G01 X4.4252 Y2.2255
G01 X4.4155 Y2.2269
G01 X4.4060 Y2.2293
G01 X4.3967 Y2.2326
G01 X4.3879 Y2.2368
G01 X4.3794 Y2.2419
G01 X4.3716 Y2.2477
G01 X4.3643 Y2.2543
G01 X4.3577 Y2.2616
G01 X4.3519 Y2.2694
G01 X4.3468 Y2.2779
G01 X4.3426 Y2.2867
G01 X4.3393 Y2.2960
G01 X4.3369 Y2.3055
G01 X4.3355 Y2.3152
G01 X4.3350 Y2.3250
G01 X4.3355 Y2.3348
G01 X4.3369 Y2.3445
G01 X4.3393 Y2.3540
G01 X4.3426 Y2.3633
G01 X4.3468 Y2.3721
G01 X4.3519 Y2.3806
G01 X4.3577 Y2.3884
G01 X4.3643 Y2.3957
G01 X4.3716 Y2.4023
G01 X4.3794 Y2.4081
G01 X4.3879 Y2.4132
G01 X4.3967 Y2.4174
G01 X4.4060 Y2.4207
G01 X4.4155 Y2.4231
G01 X4.4252 Y2.4245
G01 X4.4350 Y2.4250
G01 X4.4448 Y2.4245
G01 X4.4545 Y2.4231
G01 X4.4640 Y2.4207
G01 X4.4733 Y2.4174
G01 X4.4821 Y2.4132
G01 X4.4906 Y2.4081
G01 X4.4984 Y2.4023
G01 X4.5057 Y2.3957
G01 X4.5123 Y2.3884
G01 X4.5181 Y2.3806
G01 X4.5232 Y2.3721
G01 X4.5274 Y2.3633
G01 X4.5307 Y2.3540
G01 X4.5331 Y2.3445
G01 X4.5345 Y2.3348
G01 X4.5350 Y2.3250
G00 Z2.0000
G00 X14.6950 Y2.3250
G01 F60.00
G01 Z-0.4000
G01 F120.00
G01 X14.6945 Y2.3152
G01 X14.6931 Y2.3055
G01 X14.6907 Y2.2960
G01 X14.6874 Y2.2867
G01 X14.6832 Y2.2779
G01 X14.6781 Y2.2694
G01 X14.6723 Y2.2616
G01 X14.6657 Y2.2543
G01 X14.6584 Y2.2477
G01 X14.6506 Y2.2419
G01 X14.6421 Y2.2368
G01 X14.6333 Y2.2326
G01 X14.6240 Y2.2293
G01 X14.6145 Y2.2269
G01 X14.6048 Y2.2255
G01 X14.5950 Y2.2250
G01 X14.5852 Y2.2255
G01 X14.5755 Y2.2269
G01 X14.5660 Y2.2293
G01 X14.5567 Y2.2326
G01 X14.5479 Y2.2368
G01 X14.5394 Y2.2419
G01 X14.5316 Y2.2477
G01 X14.5243 Y2.2543
G01 X14.5177 Y2.2616
G01 X14.5119 Y2.2694
G01 X14.5068 Y2.2779
G01 X14.5026 Y2.2867
G01 X14.4993 Y2.2960
G01 X14.4969 Y2.3055
G01 X14.4955 Y2.3152
G01 X14.4950 Y2.3250
G01 X14.4955 Y2.3348
G01 X14.4969 Y2.3445
G01 X14.4993 Y2.3540
G01 X14.5026 Y2.3633
G01 X14.5068 Y2.3721
G01 X14.5119 Y2.3806
G01 X14.5177 Y2.3884
G01 X14.5243 Y2.3957
G01 X14.5316 Y2.4023
G01 X14.5394 Y2.4081
G01 X14.5479 Y2.4132
G01 X14.5567 Y2.4174
G01 X14.5660 Y2.4207
G01 X14.5755 Y2.4231
G01 X14.5852 Y2.4245
G01 X14.5950 Y2.4250
G01 X14.6048 Y2.4245
G01 X14.6145 Y2.4231
G01 X14.6240 Y2.4207
G01 X14.6333 Y2.4174
G01 X14.6421 Y2.4132
G01 X14.6506 Y2.4081
G01 X14.6584 Y2.4023
G01 X14.6657 Y2.3957
G01 X14.6723 Y2.3884
G01 X14.6781 Y2.3806
G01 X14.6832 Y2.3721
G01 X14.6874 Y2.3633
G01 X14.6907 Y2.3540
G01 X14.6931 Y2.3445
G01 X14.6945 Y2.3348
G01 X14.6950 Y2.3250
G00 X14.6950 Y2.3250
G01 F60.00
G01 Z-0.8000
G01 F120.00
G01 X14.6945 Y2.3152
G01 X14.6931 Y2.3055
G01 X14.6907 Y2.2960
G01 X14.6874 Y2.2867
G01 X14.6832 Y2.2779
G01 X14.6781 Y2.2694
G01 X14.6723 Y2.2616
G01 X14.6657 Y2.2543
G01 X14.6584 Y2.2477
G01 X14.6506 Y2.2419
G01 X14.6421 Y2.2368
G01 X14.6333 Y2.2326
G01 X14.6240 Y2.2293
G01 X14.6145 Y2.2269
G01 X14.6048 Y2.2255
G01 X14.5950 Y2.2250
G01 X14.5852 Y2.2255
G01 X14.5755 Y2.2269
G01 X14.5660 Y2.2293
G01 X14.5567 Y2.2326
G01 X14.5479 Y2.2368
G01 X14.5394 Y2.2419
G01 X14.5316 Y2.2477
G01 X14.5243 Y2.2543
G01 X14.5177 Y2.2616
G01 X14.5119 Y2.2694
G01 X14.5068 Y2.2779
G01 X14.5026 Y2.2867
G01 X14.4993 Y2.2960
G01 X14.4969 Y2.3055
G01 X14.4955 Y2.3152
G01 X14.4950 Y2.3250
G01 X14.4955 Y2.3348
G01 X14.4969 Y2.3445
G01 X14.4993 Y2.3540
G01 X14.5026 Y2.3633
G01 X14.5068 Y2.3721
G01 X14.5119 Y2.3806
G01 X14.5177 Y2.3884
G01 X14.5243 Y2.3957
G01 X14.5316 Y2.4023
G01 X14.5394 Y2.4081
G01 X14.5479 Y2.4132
G01 X14.5567 Y2.4174
G01 X14.5660 Y2.4207
G01 X14.5755 Y2.4231
G01 X14.5852 Y2.4245
G01 X14.5950 Y2.4250
G01 X14.6048 Y2.4245
G01 X14.6145 Y2.4231
G01 X14.6240 Y2.4207
G01 X14.6333 Y2.4174
G01 X14.6421 Y2.4132
G01 X14.6506 Y2.4081
G01 X14.6584 Y2.4023
G01 X14.6657 Y2.3957
G01 X14.6723 Y2.3884
G01 X14.6781 Y2.3806
G01 X14.6832 Y2.3721
G01 X14.6874 Y2.3633
G01 X14.6907 Y2.3540
G01 X14.6931 Y2.3445
G01 X14.6945 Y2.3348
G01 X14.6950 Y2.3250
G00 X14.6950 Y2.3250
G01 F60.00
G01 Z-1.2000
G01 F120.00
G01 X14.6945 Y2.3152
G01 X14.6931 Y2.3055
G01 X14.6907 Y2.2960
G01 X14.6874 Y2.2867
G01 X14.6832 Y2.2779
G01 X14.6781 Y2.2694
G01 X14.6723 Y2.2616
G01 X14.6657 Y2.2543
G01 X14.6584 Y2.2477
G01 X14.6506 Y2.2419
G01 X14.6421 Y2.2368
G01 X14.6333 Y2.2326
G01 X14.6240 Y2.2293
G01 X14.6145 Y2.2269
G01 X14.6048 Y2.2255
G01 X14.5950 Y2.2250
G01 X14.5852 Y2.2255
G01 X14.5755 Y2.2269
G01 X14.5660 Y2.2293
G01 X14.5567 Y2.2326
G01 X14.5479 Y2.2368
G01 X14.5394 Y2.2419
G01 X14.5316 Y2.2477
G01 X14.5243 Y2.2543
G01 X14.5177 Y2.2616
G01 X14.5119 Y2.2694
G01 X14.5068 Y2.2779
G01 X14.5026 Y2.2867
G01 X14.4993 Y2.2960
G01 X14.4969 Y2.3055
G01 X14.4955 Y2.3152
G01 X14.4950 Y2.3250
G01 X14.4955 Y2.3348
G01 X14.4969 Y2.3445
G01 X14.4993 Y2.3540
G01 X14.5026 Y2.3633
G01 X14.5068 Y2.3721
G01 X14.5119 Y2.3806
G01 X14.5177 Y2.3884
G01 X14.5243 Y2.3957
G01 X14.5316 Y2.4023
G01 X14.5394 Y2.4081
G01 X14.5479 Y2.4132
G01 X14.5567 Y2.4174
G01 X14.5660 Y2.4207
G01 X14.5755 Y2.4231
G01 X14.5852 Y2.4245
G01 X14.5950 Y2.4250
G01 X14.6048 Y2.4245
G01 X14.6145 Y2.4231
G01 X14.6240 Y2.4207
G01 X14.6333 Y2.4174
G01 X14.6421 Y2.4132
G01 X14.6506 Y2.4081
G01 X14.6584 Y2.4023
G01 X14.6657 Y2.3957
G01 X14.6723 Y2.3884
G01 X14.6781 Y2.3806
G01 X14.6832 Y2.3721
G01 X14.6874 Y2.3633
G01 X14.6907 Y2.3540
G01 X14.6931 Y2.3445
G01 X14.6945 Y2.3348
G01 X14.6950 Y2.3250
G00 X14.6950 Y2.3250
G01 F60.00
G01 Z-1.6000
G01 F120.00
G01 X14.6945 Y2.3152
G01 X14.6931 Y2.3055
G01 X14.6907 Y2.2960
G01 X14.6874 Y2.2867
G01 X14.6832 Y2.2779
G01 X14.6781 Y2.2694
G01 X14.6723 Y2.2616
G01 X14.6657 Y2.2543
G01 X14.6584 Y2.2477
G01 X14.6506 Y2.2419
G01 X14.6421 Y2.2368
G01 X14.6333 Y2.2326
G01 X14.6240 Y2.2293
G01 X14.6145 Y2.2269
G01 X14.6048 Y2.2255
G01 X14.5950 Y2.2250
G01 X14.5852 Y2.2255
G01 X14.5755 Y2.2269
G01 X14.5660 Y2.2293
G01 X14.5567 Y2.2326
G01 X14.5479 Y2.2368
G01 X14.5394 Y2.2419
G01 X14.5316 Y2.2477
G01 X14.5243 Y2.2543
G01 X14.5177 Y2.2616
G01 X14.5119 Y2.2694
G01 X14.5068 Y2.2779
G01 X14.5026 Y2.2867
G01 X14.4993 Y2.2960
G01 X14.4969 Y2.3055
G01 X14.4955 Y2.3152
G01 X14.4950 Y2.3250
G01 X14.4955 Y2.3348
G01 X14.4969 Y2.3445
G01 X14.4993 Y2.3540
G01 X14.5026 Y2.3633
G01 X14.5068 Y2.3721
G01 X14.5119 Y2.3806
G01 X14.5177 Y2.3884
G01 X14.5243 Y2.3957
G01 X14.5316 Y2.4023
G01 X14.5394 Y2.4081
G01 X14.5479 Y2.4132
G01 X14.5567 Y2.4174
G01 X14.5660 Y2.4207
G01 X14.5755 Y2.4231
G01 X14.5852 Y2.4245
G01 X14.5950 Y2.4250
G01 X14.6048 Y2.4245
G01 X14.6145 Y2.4231
G01 X14.6240 Y2.4207
G01 X14.6333 Y2.4174
G01 X14.6421 Y2.4132
G01 X14.6506 Y2.4081
G01 X14.6584 Y2.4023
G01 X14.6657 Y2.3957
G01 X14.6723 Y2.3884
G01 X14.6781 Y2.3806
G01 X14.6832 Y2.3721
G01 X14.6874 Y2.3633
G01 X14.6907 Y2.3540
G01 X14.6931 Y2.3445
G01 X14.6945 Y2.3348
G01 X14.6950 Y2.3250
G00 X14.6950 Y2.3250
G01 F60.00
G01 Z-1.8000
G01 F120.00
G01 X14.6945 Y2.3152
G01 X14.6931 Y2.3055
G01 X14.6907 Y2.2960
G01 X14.6874 Y2.2867
G01 X14.6832 Y2.2779
G01 X14.6781 Y2.2694
G01 X14.6723 Y2.2616
G01 X14.6657 Y2.2543
G01 X14.6584 Y2.2477
G01 X14.6506 Y2.2419
G01 X14.6421 Y2.2368
G01 X14.6333 Y2.2326
G01 X14.6240 Y2.2293
G01 X14.6145 Y2.2269
G01 X14.6048 Y2.2255
G01 X14.5950 Y2.2250
G01 X14.5852 Y2.2255
G01 X14.5755 Y2.2269
G01 X14.5660 Y2.2293
G01 X14.5567 Y2.2326
G01 X14.5479 Y2.2368
G01 X14.5394 Y2.2419
G01 X14.5316 Y2.2477
G01 X14.5243 Y2.2543
G01 X14.5177 Y2.2616
G01 X14.5119 Y2.2694
G01 X14.5068 Y2.2779
G01 X14.5026 Y2.2867
G01 X14.4993 Y2.2960
G01 X14.4969 Y2.3055
G01 X14.4955 Y2.3152
G01 X14.4950 Y2.3250
G01 X14.4955 Y2.3348
G01 X14.4969 Y2.3445
G01 X14.4993 Y2.3540
G01 X14.5026 Y2.3633
G01 X14.5068 Y2.3721
G01 X14.5119 Y2.3806
G01 X14.5177 Y2.3884
G01 X14.5243 Y2.3957
G01 X14.5316 Y2.4023
G01 X14.5394 Y2.4081
G01 X14.5479 Y2.4132
G01 X14.5567 Y2.4174
G01 X14.5660 Y2.4207
G01 X14.5755 Y2.4231
G01 X14.5852 Y2.4245
G01 X14.5950 Y2.4250
G01 X14.6048 Y2.4245
G01 X14.6145 Y2.4231
G01 X14.6240 Y2.4207
G01 X14.6333 Y2.4174
G01 X14.6421 Y2.4132
G01 X14.6506 Y2.4081
G01 X14.6584 Y2.4023
G01 X14.6657 Y2.3957
G01 X14.6723 Y2.3884
G01 X14.6781 Y2.3806
G01 X14.6832 Y2.3721
G01 X14.6874 Y2.3633
G01 X14.6907 Y2.3540
G01 X14.6931 Y2.3445
G01 X14.6945 Y2.3348
G01 X14.6950 Y2.3250
G00 Z2.0000
G00 X17.2350 Y2.3250
G01 F60.00
G01 Z-0.4000
G01 F120.00
G01 X17.2345 Y2.3152
G01 X17.2331 Y2.3055
G01 X17.2307 Y2.2960
G01 X17.2274 Y2.2867
G01 X17.2232 Y2.2779
G01 X17.2181 Y2.2694
G01 X17.2123 Y2.2616
G01 X17.2057 Y2.2543
G01 X17.1984 Y2.2477
G01 X17.1906 Y2.2419
G01 X17.1821 Y2.2368
G01 X17.1733 Y2.2326
G01 X17.1640 Y2.2293
G01 X17.1545 Y2.2269
G01 X17.1448 Y2.2255
G01 X17.1350 Y2.2250
G01 X17.1252 Y2.2255
G01 X17.1155 Y2.2269
G01 X17.1060 Y2.2293
G01 X17.0967 Y2.2326
G01 X17.0879 Y2.2368
G01 X17.0794 Y2.2419
G01 X17.0716 Y2.2477
G01 X17.0643 Y2.2543
G01 X17.0577 Y2.2616
G01 X17.0519 Y2.2694
G01 X17.0468 Y2.2779
G01 X17.0426 Y2.2867
G01 X17.0393 Y2.2960
G01 X17.0369 Y2.3055
G01 X17.0355 Y2.3152
G01 X17.0350 Y2.3250
G01 X17.0355 Y2.3348
G01 X17.0369 Y2.3445
G01 X17.0393 Y2.3540
G01 X17.0426 Y2.3633
G01 X17.0468 Y2.3721
G01 X17.0519 Y2.3806
G01 X17.0577 Y2.3884
G01 X17.0643 Y2.3957
G01 X17.0716 Y2.4023
G01 X17.0794 Y2.4081
G01 X17.0879 Y2.4132
G01 X17.0967 Y2.4174
G01 X17.1060 Y2.4207
G01 X17.1155 Y2.4231
G01 X17.1252 Y2.4245
G01 X17.1350 Y2.4250
G01 X17.1448 Y2.4245
G01 X17.1545 Y2.4231
G01 X17.1640 Y2.4207
G01 X17.1733 Y2.4174
G01 X17.1821 Y2.4132
G01 X17.1906 Y2.4081
G01 X17.1984 Y2.4023
G01 X17.2057 Y2.3957
G01 X17.2123 Y2.3884
G01 X17.2181 Y2.3806
G01 X17.2232 Y2.3721
G01 X17.2274 Y2.3633
G01 X17.2307 Y2.3540
G01 X17.2331 Y2.3445
G01 X17.2345 Y2.3348
G01 X17.2350 Y2.3250
G00 X17.2350 Y2.3250
G01 F60.00
G01 Z-0.8000
G01 F120.00
G01 X17.2345 Y2.3152
G01 X17.2331 Y2.3055
G01 X17.2307 Y2.2960
G01 X17.2274 Y2.2867
G01 X17.2232 Y2.2779
G01 X17.2181 Y2.2694
G01 X17.2123 Y2.2616
G01 X17.2057 Y2.2543
G01 X17.1984 Y2.2477
G01 X17.1906 Y2.2419
G01 X17.1821 Y2.2368
G01 X17.1733 Y2.2326
G01 X17.1640 Y2.2293
G01 X17.1545 Y2.2269
G01 X17.1448 Y2.2255
G01 X17.1350 Y2.2250
G01 X17.1252 Y2.2255
G01 X17.1155 Y2.2269
G01 X17.1060 Y2.2293
G01 X17.0967 Y2.2326
G01 X17.0879 Y2.2368
G01 X17.0794 Y2.2419
G01 X17.0716 Y2.2477
G01 X17.0643 Y2.2543
G01 X17.0577 Y2.2616
G01 X17.0519 Y2.2694
G01 X17.0468 Y2.2779
G01 X17.0426 Y2.2867
G01 X17.0393 Y2.2960
G01 X17.0369 Y2.3055
G01 X17.0355 Y2.3152
G01 X17.0350 Y2.3250
G01 X17.0355 Y2.3348
G01 X17.0369 Y2.3445
G01 X17.0393 Y2.3540
G01 X17.0426 Y2.3633
G01 X17.0468 Y2.3721
G01 X17.0519 Y2.3806
G01 X17.0577 Y2.3884
G01 X17.0643 Y2.3957
G01 X17.0716 Y2.4023
G01 X17.0794 Y2.4081
G01 X17.0879 Y2.4132
G01 X17.0967 Y2.4174
G01 X17.1060 Y2.4207
G01 X17.1155 Y2.4231
G01 X17.1252 Y2.4245
G01 X17.1350 Y2.4250
G01 X17.1448 Y2.4245
G01 X17.1545 Y2.4231
G01 X17.1640 Y2.4207
G01 X17.1733 Y2.4174
G01 X17.1821 Y2.4132
G01 X17.1906 Y2.4081
G01 X17.1984 Y2.4023
G01 X17.2057 Y2.3957
G01 X17.2123 Y2.3884
G01 X17.2181 Y2.3806
G01 X17.2232 Y2.3721
G01 X17.2274 Y2.3633
G01 X17.2307 Y2.3540
G01 X17.2331 Y2.3445
G01 X17.2345 Y2.3348
G01 X17.2350 Y2.3250
G00 X17.2350 Y2.3250
G01 F60.00
G01 Z-1.2000
G01 F120.00
G01 X17.2345 Y2.3152
G01 X17.2331 Y2.3055
G01 X17.2307 Y2.2960
G01 X17.2274 Y2.2867
G01 X17.2232 Y2.2779
G01 X17.2181 Y2.2694
G01 X17.2123 Y2.2616
G01 X17.2057 Y2.2543
G01 X17.1984 Y2.2477
G01 X17.1906 Y2.2419
G01 X17.1821 Y2.2368
G01 X17.1733 Y2.2326
G01 X17.1640 Y2.2293
G01 X17.1545 Y2.2269
G01 X17.1448 Y2.2255
G01 X17.1350 Y2.2250
G01 X17.1252 Y2.2255
G01 X17.1155 Y2.2269
G01 X17.1060 Y2.2293
G01 X17.0967 Y2.2326
G01 X17.0879 Y2.2368
G01 X17.0794 Y2.2419
G01 X17.0716 Y2.2477
G01 X17.0643 Y2.2543
G01 X17.0577 Y2.2616
G01 X17.0519 Y2.2694
G01 X17.0468 Y2.2779
G01 X17.0426 Y2.2867
G01 X17.0393 Y2.2960
G01 X17.0369 Y2.3055
G01 X17.0355 Y2.3152
G01 X17.0350 Y2.3250
G01 X17.0355 Y2.3348
G01 X17.0369 Y2.3445
G01 X17.0393 Y2.3540
G01 X17.0426 Y2.3633
G01 X17.0468 Y2.3721
G01 X17.0519 Y2.3806
G01 X17.0577 Y2.3884
G01 X17.0643 Y2.3957
G01 X17.0716 Y2.4023
G01 X17.0794 Y2.4081
G01 X17.0879 Y2.4132
G01 X17.0967 Y2.4174
G01 X17.1060 Y2.4207
G01 X17.1155 Y2.4231
G01 X17.1252 Y2.4245
G01 X17.1350 Y2.4250
G01 X17.1448 Y2.4245
G01 X17.1545 Y2.4231
G01 X17.1640 Y2.4207
G01 X17.1733 Y2.4174
G01 X17.1821 Y2.4132
G01 X17.1906 Y2.4081
G01 X17.1984 Y2.4023
G01 X17.2057 Y2.3957
G01 X17.2123 Y2.3884
G01 X17.2181 Y2.3806
G01 X17.2232 Y2.3721
G01 X17.2274 Y2.3633
G01 X17.2307 Y2.3540
G01 X17.2331 Y2.3445
G01 X17.2345 Y2.3348
G01 X17.2350 Y2.3250
G00 X17.2350 Y2.3250
G01 F60.00
G01 Z-1.6000
G01 F120.00
G01 X17.2345 Y2.3152
G01 X17.2331 Y2.3055
G01 X17.2307 Y2.2960
G01 X17.2274 Y2.2867
G01 X17.2232 Y2.2779
G01 X17.2181 Y2.2694
G01 X17.2123 Y2.2616
G01 X17.2057 Y2.2543
G01 X17.1984 Y2.2477
G01 X17.1906 Y2.2419
G01 X17.1821 Y2.2368
G01 X17.1733 Y2.2326
G01 X17.1640 Y2.2293
G01 X17.1545 Y2.2269
G01 X17.1448 Y2.2255
G01 X17.1350 Y2.2250
G01 X17.1252 Y2.2255
G01 X17.1155 Y2.2269
G01 X17.1060 Y2.2293
G01 X17.0967 Y2.2326
G01 X17.0879 Y2.2368
G01 X17.0794 Y2.2419
G01 X17.0716 Y2.2477
G01 X17.0643 Y2.2543
G01 X17.0577 Y2.2616
G01 X17.0519 Y2.2694
G01 X17.0468 Y2.2779
G01 X17.0426 Y2.2867
G01 X17.0393 Y2.2960
G01 X17.0369 Y2.3055
G01 X17.0355 Y2.3152
G01 X17.0350 Y2.3250
G01 X17.0355 Y2.3348
G01 X17.0369 Y2.3445
G01 X17.0393 Y2.3540
G01 X17.0426 Y2.3633
G01 X17.0468 Y2.3721
G01 X17.0519 Y2.3806
G01 X17.0577 Y2.3884
G01 X17.0643 Y2.3957
G01 X17.0716 Y2.4023
G01 X17.0794 Y2.4081
G01 X17.0879 Y2.4132
G01 X17.0967 Y2.4174
G01 X17.1060 Y2.4207
G01 X17.1155 Y2.4231
G01 X17.1252 Y2.4245
G01 X17.1350 Y2.4250
G01 X17.1448 Y2.4245
G01 X17.1545 Y2.4231
G01 X17.1640 Y2.4207
G01 X17.1733 Y2.4174
G01 X17.1821 Y2.4132
G01 X17.1906 Y2.4081
G01 X17.1984 Y2.4023
G01 X17.2057 Y2.3957
G01 X17.2123 Y2.3884
G01 X17.2181 Y2.3806
G01 X17.2232 Y2.3721
G01 X17.2274 Y2.3633
G01 X17.2307 Y2.3540
G01 X17.2331 Y2.3445
G01 X17.2345 Y2.3348
G01 X17.2350 Y2.3250
G00 X17.2350 Y2.3250
G01 F60.00
G01 Z-1.8000
G01 F120.00
G01 X17.2345 Y2.3152
G01 X17.2331 Y2.3055
G01 X17.2307 Y2.2960
G01 X17.2274 Y2.2867
G01 X17.2232 Y2.2779
G01 X17.2181 Y2.2694
G01 X17.2123 Y2.2616
G01 X17.2057 Y2.2543
G01 X17.1984 Y2.2477
G01 X17.1906 Y2.2419
G01 X17.1821 Y2.2368
G01 X17.1733 Y2.2326
G01 X17.1640 Y2.2293
G01 X17.1545 Y2.2269
G01 X17.1448 Y2.2255
G01 X17.1350 Y2.2250
G01 X17.1252 Y2.2255
G01 X17.1155 Y2.2269
G01 X17.1060 Y2.2293
G01 X17.0967 Y2.2326
G01 X17.0879 Y2.2368
G01 X17.0794 Y2.2419
G01 X17.0716 Y2.2477
G01 X17.0643 Y2.2543
G01 X17.0577 Y2.2616
G01 X17.0519 Y2.2694
G01 X17.0468 Y2.2779
G01 X17.0426 Y2.2867
G01 X17.0393 Y2.2960
G01 X17.0369 Y2.3055
G01 X17.0355 Y2.3152
G01 X17.0350 Y2.3250
G01 X17.0355 Y2.3348
G01 X17.0369 Y2.3445
G01 X17.0393 Y2.3540
G01 X17.0426 Y2.3633
G01 X17.0468 Y2.3721
G01 X17.0519 Y2.3806
G01 X17.0577 Y2.3884
G01 X17.0643 Y2.3957
G01 X17.0716 Y2.4023
G01 X17.0794 Y2.4081
G01 X17.0879 Y2.4132
G01 X17.0967 Y2.4174
G01 X17.1060 Y2.4207
G01 X17.1155 Y2.4231
G01 X17.1252 Y2.4245
G01 X17.1350 Y2.4250
G01 X17.1448 Y2.4245
G01 X17.1545 Y2.4231
G01 X17.1640 Y2.4207
G01 X17.1733 Y2.4174
G01 X17.1821 Y2.4132
G01 X17.1906 Y2.4081
G01 X17.1984 Y2.4023
G01 X17.2057 Y2.3957
G01 X17.2123 Y2.3884
G01 X17.2181 Y2.3806
G01 X17.2232 Y2.3721
G01 X17.2274 Y2.3633
G01 X17.2307 Y2.3540
G01 X17.2331 Y2.3445
G01 X17.2345 Y2.3348
G01 X17.2350 Y2.3250
G00 Z2.0000
M05
G00 Z2.0000
G00 Z15.00


